; Generated for Writing Machine
G21 ; Millimeters
G90 ; Absolute positioning
G28 ; Home all axes
G0 Z2.0 F1000 ; Pen up
G0 X443 Y3086 F3000
G0 Z0.0 F500 ; Pen down
G1 X439 Y3090 F2000
G1 X438 Y3090 F2000
G1 X437 Y3091 F2000
G1 X437 Y3092 F2000
G1 X439 Y3090 F2000
G1 X440 Y3090 F2000
G1 X444 Y3086 F2000
G1 X446 Y3088 F2000
G1 X448 Y3088 F2000
G1 X449 Y3089 F2000
G1 X451 Y3089 F2000
G1 X449 Y3089 F2000
G1 X448 Y3088 F2000
G1 X447 Y3088 F2000
G1 X445 Y3086 F2000
G0 Z2.0 F1000 ; Pen up
G0 X220 Y3076 F3000
G0 Z0.0 F500 ; Pen down
G1 X220 Y3079 F2000
G1 X221 Y3080 F2000
G1 X221 Y3082 F2000
G1 X223 Y3084 F2000
G1 X223 Y3085 F2000
G1 X225 Y3087 F2000
G1 X228 Y3087 F2000
G1 X229 Y3088 F2000
G1 X235 Y3088 F2000
G1 X236 Y3087 F2000
G1 X238 Y3087 F2000
G1 X239 Y3086 F2000
G1 X242 Y3086 F2000
G1 X243 Y3085 F2000
G1 X244 Y3085 F2000
G1 X245 Y3084 F2000
G1 X246 Y3084 F2000
G1 X244 Y3084 F2000
G1 X243 Y3085 F2000
G1 X242 Y3085 F2000
G1 X241 Y3086 F2000
G1 X238 Y3086 F2000
G1 X237 Y3087 F2000
G1 X236 Y3087 F2000
G1 X235 Y3088 F2000
G1 X229 Y3088 F2000
G1 X228 Y3087 F2000
G1 X226 Y3087 F2000
G1 X223 Y3084 F2000
G1 X223 Y3083 F2000
G1 X221 Y3081 F2000
G1 X221 Y3080 F2000
G1 X220 Y3079 F2000
G0 Z2.0 F1000 ; Pen up
G0 X414 Y3071 F3000
G0 Z0.0 F500 ; Pen down
G1 X413 Y3072 F2000
G1 X410 Y3072 F2000
G1 X409 Y3073 F2000
G1 X405 Y3073 F2000
G1 X403 Y3075 F2000
G1 X403 Y3076 F2000
G1 X402 Y3077 F2000
G1 X402 Y3079 F2000
G1 X401 Y3080 F2000
G1 X401 Y3082 F2000
G1 X400 Y3083 F2000
G1 X400 Y3085 F2000
G1 X399 Y3086 F2000
G1 X399 Y3087 F2000
G1 X398 Y3088 F2000
G1 X398 Y3090 F2000
G1 X397 Y3091 F2000
G1 X397 Y3092 F2000
G1 X397 Y3091 F2000
G1 X398 Y3090 F2000
G1 X398 Y3088 F2000
G1 X399 Y3087 F2000
G1 X399 Y3086 F2000
G1 X400 Y3085 F2000
G1 X400 Y3083 F2000
G1 X401 Y3082 F2000
G1 X401 Y3081 F2000
G1 X402 Y3080 F2000
G1 X402 Y3077 F2000
G1 X406 Y3073 F2000
G1 X409 Y3073 F2000
G1 X410 Y3072 F2000
G1 X413 Y3072 F2000
G1 X414 Y3071 F2000
G1 X417 Y3071 F2000
G1 X418 Y3072 F2000
G1 X418 Y3073 F2000
G1 X417 Y3074 F2000
G1 X417 Y3076 F2000
G1 X416 Y3077 F2000
G1 X416 Y3086 F2000
G1 X417 Y3087 F2000
G1 X417 Y3089 F2000
G1 X418 Y3090 F2000
G1 X418 Y3092 F2000
G1 X418 Y3090 F2000
G1 X417 Y3089 F2000
G1 X417 Y3087 F2000
G1 X416 Y3086 F2000
G1 X416 Y3077 F2000
G1 X417 Y3076 F2000
G1 X417 Y3074 F2000
G1 X418 Y3073 F2000
G1 X418 Y3071 F2000
G0 Z2.0 F1000 ; Pen up
G0 X224 Y3066 F3000
G0 Z0.0 F500 ; Pen down
G1 X223 Y3067 F2000
G1 X224 Y3068 F2000
G1 X224 Y3078 F2000
G1 X225 Y3079 F2000
G1 X225 Y3081 F2000
G1 X228 Y3084 F2000
G1 X231 Y3084 F2000
G1 X232 Y3085 F2000
G1 X233 Y3084 F2000
G1 X237 Y3084 F2000
G1 X238 Y3083 F2000
G1 X239 Y3083 F2000
G1 X240 Y3084 F2000
G1 X240 Y3083 F2000
G1 X241 Y3082 F2000
G1 X243 Y3082 F2000
G1 X244 Y3081 F2000
G1 X245 Y3081 F2000
G1 X246 Y3080 F2000
G1 X247 Y3080 F2000
G1 X247 Y3079 F2000
G1 X245 Y3081 F2000
G1 X244 Y3081 F2000
G1 X243 Y3082 F2000
G1 X241 Y3082 F2000
G1 X240 Y3083 F2000
G1 X238 Y3083 F2000
G1 X237 Y3084 F2000
G1 X233 Y3084 F2000
G1 X232 Y3085 F2000
G1 X231 Y3084 F2000
G1 X229 Y3084 F2000
G1 X225 Y3080 F2000
G1 X225 Y3079 F2000
G1 X224 Y3078 F2000
G0 Z2.0 F1000 ; Pen up
G0 X300 Y3063 F3000
G0 Z0.0 F500 ; Pen down
G1 X300 Y3064 F2000
G1 X299 Y3065 F2000
G1 X299 Y3068 F2000
G1 X299 Y3065 F2000
G1 X300 Y3064 F2000
G0 Z2.0 F1000 ; Pen up
G0 X467 Y3062 F3000
G0 Z0.0 F500 ; Pen down
G1 X465 Y3064 F2000
G1 X465 Y3068 F2000
G1 X464 Y3069 F2000
G1 X464 Y3078 F2000
G1 X463 Y3079 F2000
G1 X463 Y3082 F2000
G1 X462 Y3083 F2000
G1 X462 Y3089 F2000
G1 X462 Y3083 F2000
G1 X463 Y3082 F2000
G1 X463 Y3079 F2000
G1 X464 Y3078 F2000
G1 X464 Y3069 F2000
G1 X465 Y3068 F2000
G1 X465 Y3065 F2000
G1 X467 Y3063 F2000
G1 X468 Y3063 F2000
G1 X470 Y3065 F2000
G1 X470 Y3074 F2000
G1 X469 Y3075 F2000
G1 X469 Y3077 F2000
G1 X468 Y3078 F2000
G1 X468 Y3080 F2000
G1 X467 Y3081 F2000
G1 X467 Y3083 F2000
G1 X466 Y3084 F2000
G1 X466 Y3086 F2000
G1 X465 Y3087 F2000
G1 X465 Y3088 F2000
G1 X464 Y3089 F2000
G1 X465 Y3089 F2000
G1 X465 Y3087 F2000
G1 X466 Y3086 F2000
G1 X466 Y3084 F2000
G1 X467 Y3083 F2000
G1 X467 Y3081 F2000
G1 X468 Y3080 F2000
G1 X468 Y3078 F2000
G1 X469 Y3077 F2000
G1 X469 Y3075 F2000
G1 X470 Y3074 F2000
G1 X470 Y3064 F2000
G1 X469 Y3063 F2000
G1 X469 Y3062 F2000
G1 X468 Y3063 F2000
G0 Z2.0 F1000 ; Pen up
G0 X545 Y3061 F3000
G0 Z0.0 F500 ; Pen down
G1 X544 Y3062 F2000
G1 X540 Y3062 F2000
G1 X539 Y3063 F2000
G1 X539 Y3064 F2000
G1 X538 Y3065 F2000
G1 X538 Y3066 F2000
G1 X537 Y3067 F2000
G1 X537 Y3068 F2000
G1 X536 Y3069 F2000
G1 X536 Y3071 F2000
G1 X535 Y3072 F2000
G1 X535 Y3074 F2000
G1 X534 Y3075 F2000
G1 X534 Y3079 F2000
G1 X533 Y3080 F2000
G1 X533 Y3083 F2000
G1 X534 Y3084 F2000
G1 X534 Y3086 F2000
G1 X535 Y3087 F2000
G1 X538 Y3087 F2000
G1 X539 Y3086 F2000
G1 X541 Y3086 F2000
G1 X542 Y3085 F2000
G1 X543 Y3085 F2000
G1 X548 Y3080 F2000
G1 X548 Y3079 F2000
G1 X549 Y3078 F2000
G1 X551 Y3080 F2000
G1 X550 Y3081 F2000
G1 X550 Y3082 F2000
G1 X544 Y3088 F2000
G1 X543 Y3088 F2000
G1 X542 Y3089 F2000
G1 X541 Y3089 F2000
G1 X540 Y3090 F2000
G1 X539 Y3090 F2000
G1 X538 Y3091 F2000
G1 X533 Y3091 F2000
G1 X530 Y3088 F2000
G1 X530 Y3087 F2000
G1 X529 Y3086 F2000
G1 X529 Y3077 F2000
G1 X530 Y3076 F2000
G1 X530 Y3074 F2000
G1 X531 Y3073 F2000
G1 X531 Y3071 F2000
G1 X532 Y3070 F2000
G1 X532 Y3068 F2000
G1 X533 Y3067 F2000
G1 X533 Y3064 F2000
G1 X533 Y3067 F2000
G1 X532 Y3068 F2000
G1 X532 Y3070 F2000
G1 X531 Y3071 F2000
G1 X531 Y3073 F2000
G1 X530 Y3074 F2000
G1 X530 Y3076 F2000
G1 X529 Y3077 F2000
G1 X529 Y3086 F2000
G1 X530 Y3087 F2000
G1 X530 Y3089 F2000
G1 X532 Y3091 F2000
G1 X532 Y3092 F2000
G1 X533 Y3091 F2000
G1 X539 Y3091 F2000
G1 X540 Y3090 F2000
G1 X541 Y3090 F2000
G1 X542 Y3089 F2000
G1 X543 Y3089 F2000
G1 X544 Y3088 F2000
G1 X545 Y3088 F2000
G1 X550 Y3083 F2000
G1 X550 Y3081 F2000
G1 X551 Y3080 F2000
G1 X551 Y3078 F2000
G1 X550 Y3079 F2000
G1 X549 Y3078 F2000
G1 X549 Y3076 F2000
G1 X549 Y3077 F2000
G1 X548 Y3078 F2000
G1 X548 Y3079 F2000
G1 X541 Y3086 F2000
G1 X539 Y3086 F2000
G1 X538 Y3087 F2000
G1 X536 Y3087 F2000
G1 X534 Y3085 F2000
G1 X534 Y3084 F2000
G1 X533 Y3083 F2000
G1 X533 Y3080 F2000
G1 X534 Y3079 F2000
G1 X534 Y3075 F2000
G1 X535 Y3074 F2000
G1 X535 Y3072 F2000
G1 X536 Y3071 F2000
G1 X536 Y3069 F2000
G1 X538 Y3067 F2000
G1 X538 Y3066 F2000
G1 X539 Y3065 F2000
G1 X539 Y3064 F2000
G1 X541 Y3062 F2000
G1 X544 Y3062 F2000
G1 X545 Y3061 F2000
G1 X547 Y3061 F2000
G0 Z2.0 F1000 ; Pen up
G0 X431 Y3061 F3000
G0 Z0.0 F500 ; Pen down
G1 X430 Y3062 F2000
G1 X428 Y3062 F2000
G1 X427 Y3063 F2000
G1 X426 Y3063 F2000
G1 X424 Y3065 F2000
G1 X423 Y3065 F2000
G1 X422 Y3066 F2000
G1 X421 Y3066 F2000
G1 X420 Y3067 F2000
G1 X416 Y3067 F2000
G1 X415 Y3068 F2000
G1 X412 Y3068 F2000
G1 X411 Y3069 F2000
G1 X409 Y3069 F2000
G1 X408 Y3070 F2000
G1 X409 Y3069 F2000
G1 X411 Y3069 F2000
G1 X412 Y3068 F2000
G1 X415 Y3068 F2000
G1 X416 Y3067 F2000
G1 X420 Y3067 F2000
G1 X421 Y3066 F2000
G1 X423 Y3066 F2000
G1 X424 Y3065 F2000
G1 X425 Y3065 F2000
G1 X427 Y3063 F2000
G1 X428 Y3063 F2000
G1 X429 Y3062 F2000
G1 X430 Y3062 F2000
G1 X431 Y3061 F2000
G1 X440 Y3061 F2000
G1 X441 Y3062 F2000
G1 X443 Y3062 F2000
G1 X444 Y3063 F2000
G1 X444 Y3064 F2000
G1 X443 Y3065 F2000
G1 X443 Y3066 F2000
G1 X442 Y3067 F2000
G1 X441 Y3066 F2000
G1 X442 Y3067 F2000
G1 X442 Y3076 F2000
G1 X443 Y3077 F2000
G1 X443 Y3080 F2000
G1 X434 Y3089 F2000
G1 X433 Y3089 F2000
G1 X432 Y3090 F2000
G1 X424 Y3090 F2000
G1 X422 Y3088 F2000
G1 X422 Y3087 F2000
G1 X421 Y3086 F2000
G1 X421 Y3085 F2000
G1 X420 Y3084 F2000
G1 X420 Y3078 F2000
G1 X421 Y3077 F2000
G1 X421 Y3076 F2000
G1 X422 Y3075 F2000
G1 X422 Y3073 F2000
G1 X426 Y3069 F2000
G1 X427 Y3069 F2000
G1 X428 Y3068 F2000
G1 X429 Y3068 F2000
G1 X430 Y3067 F2000
G1 X432 Y3067 F2000
G1 X433 Y3066 F2000
G1 X435 Y3066 F2000
G1 X436 Y3065 F2000
G1 X439 Y3065 F2000
G1 X440 Y3064 F2000
G1 X439 Y3065 F2000
G1 X436 Y3065 F2000
G1 X435 Y3066 F2000
G1 X433 Y3066 F2000
G1 X432 Y3067 F2000
G1 X430 Y3067 F2000
G1 X429 Y3068 F2000
G1 X427 Y3068 F2000
G1 X426 Y3069 F2000
G1 X425 Y3069 F2000
G1 X423 Y3071 F2000
G1 X423 Y3072 F2000
G1 X422 Y3073 F2000
G1 X422 Y3074 F2000
G1 X421 Y3075 F2000
G1 X421 Y3077 F2000
G1 X420 Y3078 F2000
G1 X420 Y3084 F2000
G1 X421 Y3085 F2000
G1 X421 Y3087 F2000
G1 X422 Y3088 F2000
G1 X422 Y3089 F2000
G1 X423 Y3090 F2000
G1 X432 Y3090 F2000
G1 X433 Y3089 F2000
G1 X435 Y3089 F2000
G1 X442 Y3082 F2000
G1 X442 Y3081 F2000
G1 X443 Y3080 F2000
G1 X443 Y3077 F2000
G1 X442 Y3076 F2000
G1 X442 Y3067 F2000
G1 X444 Y3065 F2000
G1 X444 Y3064 F2000
G1 X445 Y3063 F2000
G1 X447 Y3063 F2000
G1 X448 Y3064 F2000
G1 X449 Y3064 F2000
G1 X450 Y3065 F2000
G1 X450 Y3066 F2000
G1 X451 Y3067 F2000
G1 X451 Y3073 F2000
G1 X450 Y3074 F2000
G1 X450 Y3075 F2000
G1 X449 Y3076 F2000
G1 X449 Y3077 F2000
G1 X448 Y3078 F2000
G1 X448 Y3080 F2000
G1 X447 Y3081 F2000
G1 X447 Y3083 F2000
G1 X448 Y3084 F2000
G1 X448 Y3085 F2000
G1 X449 Y3086 F2000
G1 X450 Y3086 F2000
G1 X451 Y3087 F2000
G1 X451 Y3086 F2000
G1 X450 Y3086 F2000
G1 X447 Y3083 F2000
G1 X447 Y3081 F2000
G1 X448 Y3080 F2000
G1 X448 Y3079 F2000
G1 X449 Y3078 F2000
G1 X449 Y3077 F2000
G1 X450 Y3076 F2000
G1 X450 Y3074 F2000
G1 X451 Y3073 F2000
G1 X451 Y3067 F2000
G1 X450 Y3066 F2000
G1 X450 Y3064 F2000
G1 X449 Y3064 F2000
G1 X448 Y3063 F2000
G1 X444 Y3063 F2000
G1 X443 Y3062 F2000
G1 X442 Y3062 F2000
G1 X441 Y3061 F2000
G0 Z2.0 F1000 ; Pen up
G0 X578 Y3059 F3000
G0 Z0.0 F500 ; Pen down
G1 X579 Y3059 F2000
G1 X581 Y3061 F2000
G1 X582 Y3061 F2000
G1 X584 Y3063 F2000
G1 X584 Y3065 F2000
G1 X580 Y3069 F2000
G1 X579 Y3069 F2000
G1 X576 Y3066 F2000
G1 X576 Y3064 F2000
G1 X575 Y3063 F2000
G1 X576 Y3062 F2000
G1 X576 Y3061 F2000
G0 Z2.0 F1000 ; Pen up
G0 X498 Y3060 F3000
G0 Z0.0 F500 ; Pen down
G1 X499 Y3059 F2000
G1 X506 Y3059 F2000
G1 X510 Y3063 F2000
G1 X510 Y3082 F2000
G1 X511 Y3083 F2000
G1 X511 Y3084 F2000
G1 X509 Y3086 F2000
G1 X508 Y3085 F2000
G1 X508 Y3084 F2000
G1 X506 Y3082 F2000
G1 X506 Y3065 F2000
G1 X505 Y3064 F2000
G1 X505 Y3063 F2000
G1 X501 Y3063 F2000
G1 X500 Y3064 F2000
G1 X499 Y3064 F2000
G1 X498 Y3065 F2000
G1 X496 Y3065 F2000
G1 X492 Y3069 F2000
G1 X492 Y3070 F2000
G1 X490 Y3072 F2000
G1 X490 Y3074 F2000
G1 X489 Y3075 F2000
G1 X489 Y3077 F2000
G1 X488 Y3078 F2000
G1 X488 Y3083 F2000
G1 X486 Y3085 F2000
G1 X485 Y3085 F2000
G1 X484 Y3084 F2000
G1 X484 Y3083 F2000
G1 X483 Y3082 F2000
G1 X483 Y3081 F2000
G1 X484 Y3080 F2000
G1 X484 Y3076 F2000
G1 X485 Y3075 F2000
G1 X485 Y3074 F2000
G1 X486 Y3073 F2000
G1 X486 Y3072 F2000
G1 X487 Y3071 F2000
G1 X487 Y3070 F2000
G1 X489 Y3068 F2000
G1 X489 Y3067 F2000
G1 X495 Y3061 F2000
G1 X496 Y3061 F2000
G1 X497 Y3060 F2000
G0 Z2.0 F1000 ; Pen up
G0 X287 Y3060 F3000
G0 Z0.0 F500 ; Pen down
G1 X288 Y3059 F2000
G1 X292 Y3059 F2000
G1 X293 Y3060 F2000
G1 X293 Y3061 F2000
G1 X294 Y3062 F2000
G1 X294 Y3066 F2000
G1 X295 Y3067 F2000
G1 X295 Y3068 F2000
G1 X297 Y3070 F2000
G1 X297 Y3071 F2000
G1 X296 Y3072 F2000
G1 X296 Y3073 F2000
G1 X292 Y3077 F2000
G1 X291 Y3077 F2000
G1 X288 Y3080 F2000
G1 X287 Y3080 F2000
G1 X286 Y3081 F2000
G1 X282 Y3081 F2000
G1 X281 Y3082 F2000
G1 X279 Y3082 F2000
G1 X278 Y3081 F2000
G1 X277 Y3081 F2000
G1 X274 Y3078 F2000
G1 X274 Y3077 F2000
G1 X273 Y3076 F2000
G1 X273 Y3073 F2000
G1 X274 Y3072 F2000
G1 X274 Y3071 F2000
G1 X275 Y3070 F2000
G1 X275 Y3069 F2000
G1 X281 Y3063 F2000
G1 X282 Y3063 F2000
G1 X284 Y3061 F2000
G1 X285 Y3061 F2000
G1 X286 Y3060 F2000
G0 Z2.0 F1000 ; Pen up
G0 X577 Y3059 F3000
G0 Z0.0 F500 ; Pen down
G1 X576 Y3060 F2000
G1 X576 Y3062 F2000
G1 X575 Y3063 F2000
G1 X576 Y3064 F2000
G1 X576 Y3067 F2000
G1 X577 Y3068 F2000
G1 X578 Y3068 F2000
G1 X579 Y3069 F2000
G1 X580 Y3069 F2000
G1 X581 Y3068 F2000
G1 X582 Y3068 F2000
G1 X583 Y3067 F2000
G1 X583 Y3066 F2000
G1 X584 Y3065 F2000
G1 X584 Y3062 F2000
G1 X583 Y3061 F2000
G1 X582 Y3061 F2000
G1 X580 Y3059 F2000
G0 Z2.0 F1000 ; Pen up
G0 X499 Y3059 F3000
G0 Z0.0 F500 ; Pen down
G1 X498 Y3060 F2000
G1 X496 Y3060 F2000
G1 X495 Y3061 F2000
G1 X494 Y3061 F2000
G1 X489 Y3066 F2000
G1 X489 Y3067 F2000
G1 X487 Y3069 F2000
G1 X487 Y3070 F2000
G1 X486 Y3071 F2000
G1 X486 Y3072 F2000
G1 X485 Y3073 F2000
G1 X485 Y3075 F2000
G1 X484 Y3076 F2000
G1 X484 Y3080 F2000
G1 X483 Y3081 F2000
G1 X483 Y3082 F2000
G1 X484 Y3083 F2000
G1 X484 Y3085 F2000
G1 X487 Y3085 F2000
G1 X488 Y3084 F2000
G1 X488 Y3078 F2000
G1 X489 Y3077 F2000
G1 X489 Y3075 F2000
G1 X490 Y3074 F2000
G1 X490 Y3073 F2000
G1 X492 Y3071 F2000
G1 X492 Y3070 F2000
G1 X497 Y3065 F2000
G1 X498 Y3065 F2000
G1 X499 Y3064 F2000
G1 X500 Y3064 F2000
G1 X501 Y3063 F2000
G1 X504 Y3063 F2000
G1 X506 Y3065 F2000
G1 X506 Y3082 F2000
G1 X507 Y3083 F2000
G1 X507 Y3084 F2000
G1 X508 Y3085 F2000
G1 X508 Y3086 F2000
G1 X509 Y3086 F2000
G1 X511 Y3084 F2000
G1 X511 Y3083 F2000
G1 X510 Y3082 F2000
G1 X510 Y3062 F2000
G1 X507 Y3059 F2000
G0 Z2.0 F1000 ; Pen up
G0 X292 Y3058 F3000
G0 Z0.0 F500 ; Pen down
G1 X291 Y3059 F2000
G1 X287 Y3059 F2000
G1 X286 Y3060 F2000
G1 X285 Y3060 F2000
G1 X284 Y3061 F2000
G1 X283 Y3061 F2000
G1 X281 Y3063 F2000
G1 X280 Y3063 F2000
G1 X275 Y3068 F2000
G1 X275 Y3069 F2000
G1 X274 Y3070 F2000
G1 X274 Y3072 F2000
G1 X273 Y3073 F2000
G1 X273 Y3076 F2000
G1 X274 Y3077 F2000
G1 X274 Y3079 F2000
G1 X276 Y3081 F2000
G1 X278 Y3081 F2000
G1 X279 Y3082 F2000
G1 X281 Y3082 F2000
G1 X282 Y3081 F2000
G1 X286 Y3081 F2000
G1 X287 Y3080 F2000
G1 X289 Y3080 F2000
G1 X292 Y3077 F2000
G1 X293 Y3077 F2000
G1 X296 Y3074 F2000
G1 X296 Y3073 F2000
G1 X297 Y3072 F2000
G1 X297 Y3070 F2000
G1 X296 Y3069 F2000
G1 X296 Y3068 F2000
G1 X295 Y3067 F2000
G1 X295 Y3066 F2000
G1 X294 Y3065 F2000
G1 X294 Y3062 F2000
G1 X293 Y3061 F2000
G1 X293 Y3059 F2000
G0 Z2.0 F1000 ; Pen up
G0 X218 Y3058 F3000
G0 Z0.0 F500 ; Pen down
G1 X217 Y3059 F2000
G1 X216 Y3059 F2000
G1 X216 Y3062 F2000
G1 X216 Y3060 F2000
G1 X218 Y3058 F2000
G1 X219 Y3059 F2000
G1 X219 Y3060 F2000
G1 X220 Y3061 F2000
G1 X220 Y3066 F2000
G1 X219 Y3067 F2000
G1 X219 Y3069 F2000
G1 X218 Y3070 F2000
G1 X218 Y3071 F2000
G1 X214 Y3075 F2000
G1 X213 Y3075 F2000
G1 X211 Y3077 F2000
G1 X210 Y3077 F2000
G1 X209 Y3078 F2000
G1 X208 Y3078 F2000
G1 X207 Y3079 F2000
G1 X205 Y3079 F2000
G1 X203 Y3077 F2000
G1 X203 Y3076 F2000
G1 X204 Y3075 F2000
G1 X204 Y3074 F2000
G1 X206 Y3072 F2000
G1 X206 Y3068 F2000
G1 X205 Y3067 F2000
G1 X201 Y3067 F2000
G1 X200 Y3068 F2000
G1 X200 Y3071 F2000
G1 X199 Y3072 F2000
G1 X199 Y3073 F2000
G1 X198 Y3074 F2000
G1 X198 Y3075 F2000
G1 X195 Y3078 F2000
G1 X194 Y3078 F2000
G1 X192 Y3080 F2000
G1 X190 Y3080 F2000
G1 X189 Y3081 F2000
G1 X183 Y3081 F2000
G1 X179 Y3077 F2000
G1 X179 Y3073 F2000
G1 X181 Y3071 F2000
G1 X183 Y3071 F2000
G1 X183 Y3069 F2000
G1 X184 Y3068 F2000
G1 X184 Y3067 F2000
G1 X186 Y3065 F2000
G1 X186 Y3061 F2000
G1 X185 Y3060 F2000
G1 X183 Y3060 F2000
G1 X182 Y3059 F2000
G1 X181 Y3060 F2000
G1 X179 Y3060 F2000
G1 X178 Y3061 F2000
G1 X178 Y3062 F2000
G1 X177 Y3063 F2000
G1 X177 Y3064 F2000
G1 X176 Y3065 F2000
G1 X176 Y3067 F2000
G1 X175 Y3068 F2000
G1 X175 Y3070 F2000
G1 X174 Y3071 F2000
G1 X174 Y3077 F2000
G1 X175 Y3078 F2000
G1 X175 Y3080 F2000
G1 X176 Y3081 F2000
G1 X176 Y3082 F2000
G1 X177 Y3083 F2000
G1 X178 Y3083 F2000
G1 X179 Y3084 F2000
G1 X181 Y3084 F2000
G1 X182 Y3085 F2000
G1 X190 Y3085 F2000
G1 X191 Y3084 F2000
G1 X193 Y3084 F2000
G1 X194 Y3083 F2000
G1 X195 Y3083 F2000
G1 X198 Y3080 F2000
G1 X199 Y3081 F2000
G1 X200 Y3081 F2000
G1 X202 Y3083 F2000
G1 X203 Y3083 F2000
G1 X204 Y3084 F2000
G1 X205 Y3084 F2000
G1 X206 Y3083 F2000
G1 X208 Y3083 F2000
G1 X209 Y3082 F2000
G1 X210 Y3082 F2000
G1 X211 Y3081 F2000
G1 X212 Y3081 F2000
G1 X213 Y3080 F2000
G1 X214 Y3080 F2000
G1 X215 Y3079 F2000
G1 X216 Y3079 F2000
G1 X218 Y3077 F2000
G1 X218 Y3076 F2000
G1 X215 Y3079 F2000
G1 X214 Y3079 F2000
G1 X213 Y3080 F2000
G1 X212 Y3080 F2000
G1 X211 Y3081 F2000
G1 X210 Y3081 F2000
G1 X209 Y3082 F2000
G1 X208 Y3082 F2000
G1 X207 Y3083 F2000
G1 X206 Y3083 F2000
G1 X205 Y3084 F2000
G1 X204 Y3084 F2000
G1 X200 Y3080 F2000
G1 X199 Y3081 F2000
G1 X198 Y3080 F2000
G1 X197 Y3081 F2000
G1 X196 Y3081 F2000
G1 X194 Y3083 F2000
G1 X193 Y3083 F2000
G1 X192 Y3084 F2000
G1 X191 Y3084 F2000
G1 X190 Y3085 F2000
G1 X182 Y3085 F2000
G1 X181 Y3084 F2000
G1 X180 Y3084 F2000
G1 X179 Y3083 F2000
G1 X178 Y3083 F2000
G1 X176 Y3081 F2000
G1 X176 Y3080 F2000
G1 X175 Y3079 F2000
G1 X175 Y3078 F2000
G1 X174 Y3077 F2000
G1 X174 Y3071 F2000
G1 X175 Y3070 F2000
G1 X175 Y3068 F2000
G1 X176 Y3067 F2000
G1 X176 Y3065 F2000
G1 X178 Y3063 F2000
G1 X178 Y3062 F2000
G1 X180 Y3060 F2000
G1 X181 Y3060 F2000
G1 X182 Y3059 F2000
G1 X183 Y3060 F2000
G1 X184 Y3060 F2000
G1 X186 Y3062 F2000
G1 X186 Y3064 F2000
G1 X184 Y3066 F2000
G1 X184 Y3068 F2000
G1 X183 Y3069 F2000
G1 X183 Y3070 F2000
G1 X182 Y3071 F2000
G1 X180 Y3071 F2000
G1 X179 Y3072 F2000
G1 X179 Y3078 F2000
G1 X182 Y3081 F2000
G1 X190 Y3081 F2000
G1 X191 Y3080 F2000
G1 X193 Y3080 F2000
G1 X195 Y3078 F2000
G1 X196 Y3078 F2000
G1 X198 Y3076 F2000
G1 X198 Y3075 F2000
G1 X199 Y3074 F2000
G1 X199 Y3072 F2000
G1 X200 Y3071 F2000
G1 X200 Y3069 F2000
G1 X202 Y3067 F2000
G1 X204 Y3067 F2000
G1 X206 Y3069 F2000
G1 X206 Y3071 F2000
G1 X204 Y3073 F2000
G1 X204 Y3074 F2000
G1 X203 Y3075 F2000
G1 X203 Y3077 F2000
G1 X202 Y3078 F2000
G1 X204 Y3078 F2000
G1 X205 Y3079 F2000
G1 X207 Y3079 F2000
G1 X208 Y3078 F2000
G1 X210 Y3078 F2000
G1 X211 Y3077 F2000
G1 X212 Y3077 F2000
G1 X214 Y3075 F2000
G1 X215 Y3075 F2000
G1 X218 Y3072 F2000
G1 X218 Y3071 F2000
G1 X219 Y3070 F2000
G1 X219 Y3067 F2000
G1 X220 Y3066 F2000
G1 X220 Y3061 F2000
G1 X219 Y3060 F2000
G1 X219 Y3058 F2000
G0 Z2.0 F1000 ; Pen up
G0 X231 Y3053 F3000
G0 Z0.0 F500 ; Pen down
G1 X236 Y3053 F2000
G1 X238 Y3055 F2000
G1 X238 Y3056 F2000
G1 X239 Y3057 F2000
G1 X239 Y3059 F2000
G1 X240 Y3060 F2000
G1 X240 Y3061 F2000
G1 X235 Y3066 F2000
G1 X234 Y3066 F2000
G1 X233 Y3067 F2000
G1 X230 Y3067 F2000
G1 X226 Y3063 F2000
G1 X226 Y3060 F2000
G1 X227 Y3059 F2000
G1 X227 Y3058 F2000
G1 X228 Y3057 F2000
G1 X228 Y3056 F2000
G0 Z2.0 F1000 ; Pen up
G0 X230 Y3053 F3000
G0 Z0.0 F500 ; Pen down
G1 X228 Y3055 F2000
G1 X228 Y3056 F2000
G1 X227 Y3057 F2000
G1 X227 Y3059 F2000
G1 X226 Y3060 F2000
G1 X226 Y3064 F2000
G1 X229 Y3067 F2000
G1 X233 Y3067 F2000
G1 X234 Y3066 F2000
G1 X236 Y3066 F2000
G1 X240 Y3062 F2000
G1 X240 Y3059 F2000
G1 X239 Y3058 F2000
G1 X239 Y3057 F2000
G1 X238 Y3056 F2000
G1 X238 Y3054 F2000
G1 X237 Y3053 F2000
G0 Z2.0 F1000 ; Pen up
G0 X231 Y3049 F3000
G0 Z0.0 F500 ; Pen down
G1 X230 Y3050 F2000
G1 X228 Y3050 F2000
G1 X224 Y3054 F2000
G1 X224 Y3055 F2000
G1 X223 Y3056 F2000
G1 X214 Y3056 F2000
G1 X213 Y3057 F2000
G1 X213 Y3061 F2000
G1 X214 Y3061 F2000
G1 X213 Y3060 F2000
G1 X213 Y3058 F2000
G1 X215 Y3056 F2000
G1 X222 Y3056 F2000
G1 X223 Y3057 F2000
G1 X224 Y3056 F2000
G1 X224 Y3055 F2000
G1 X229 Y3050 F2000
G1 X230 Y3050 F2000
G1 X231 Y3049 F2000
G1 X237 Y3049 F2000
G1 X242 Y3054 F2000
G1 X242 Y3055 F2000
G1 X243 Y3056 F2000
G1 X243 Y3057 F2000
G1 X244 Y3058 F2000
G1 X244 Y3062 F2000
G1 X243 Y3063 F2000
G1 X243 Y3064 F2000
G1 X239 Y3068 F2000
G1 X238 Y3068 F2000
G1 X237 Y3069 F2000
G1 X236 Y3069 F2000
G1 X235 Y3070 F2000
G1 X234 Y3070 F2000
G1 X233 Y3071 F2000
G1 X228 Y3071 F2000
G1 X226 Y3069 F2000
G1 X226 Y3068 F2000
G1 X226 Y3070 F2000
G1 X227 Y3071 F2000
G1 X233 Y3071 F2000
G1 X234 Y3070 F2000
G1 X236 Y3070 F2000
G1 X237 Y3069 F2000
G1 X238 Y3069 F2000
G1 X239 Y3068 F2000
G1 X240 Y3068 F2000
G1 X243 Y3065 F2000
G1 X243 Y3063 F2000
G1 X244 Y3062 F2000
G1 X244 Y3057 F2000
G1 X243 Y3056 F2000
G1 X243 Y3055 F2000
G1 X242 Y3054 F2000
G1 X242 Y3053 F2000
G1 X238 Y3049 F2000
G0 Z2.0 F1000 ; Pen up
G0 X256 Y3047 F3000
G0 Z0.0 F500 ; Pen down
G1 X257 Y3046 F2000
G1 X259 Y3046 F2000
G1 X262 Y3049 F2000
G1 X262 Y3056 F2000
G1 X261 Y3057 F2000
G1 X261 Y3062 F2000
G1 X260 Y3063 F2000
G1 X260 Y3066 F2000
G1 X259 Y3067 F2000
G1 X259 Y3070 F2000
G1 X258 Y3071 F2000
G1 X258 Y3073 F2000
G1 X257 Y3074 F2000
G1 X257 Y3080 F2000
G1 X256 Y3081 F2000
G1 X256 Y3083 F2000
G1 X255 Y3084 F2000
G1 X253 Y3082 F2000
G1 X253 Y3078 F2000
G1 X254 Y3077 F2000
G1 X254 Y3071 F2000
G1 X255 Y3070 F2000
G1 X255 Y3062 F2000
G1 X256 Y3061 F2000
G0 Z2.0 F1000 ; Pen up
G0 X259 Y3045 F3000
G0 Z0.0 F500 ; Pen down
G1 X258 Y3046 F2000
G1 X256 Y3046 F2000
G1 X256 Y3061 F2000
G1 X255 Y3062 F2000
G1 X255 Y3070 F2000
G1 X254 Y3071 F2000
G1 X254 Y3077 F2000
G1 X253 Y3078 F2000
G1 X253 Y3083 F2000
G1 X254 Y3084 F2000
G1 X256 Y3084 F2000
G1 X256 Y3081 F2000
G1 X257 Y3080 F2000
G1 X257 Y3074 F2000
G1 X258 Y3073 F2000
G1 X258 Y3071 F2000
G1 X259 Y3070 F2000
G1 X259 Y3067 F2000
G1 X260 Y3066 F2000
G1 X260 Y3063 F2000
G1 X261 Y3062 F2000
G1 X261 Y3057 F2000
G1 X262 Y3056 F2000
G1 X262 Y3048 F2000
G0 Z2.0 F1000 ; Pen up
G0 X539 Y3043 F3000
G0 Z0.0 F500 ; Pen down
G1 X538 Y3044 F2000
G1 X538 Y3047 F2000
G1 X537 Y3048 F2000
G1 X537 Y3052 F2000
G1 X536 Y3053 F2000
G1 X536 Y3057 F2000
G1 X533 Y3060 F2000
G1 X528 Y3060 F2000
G1 X527 Y3061 F2000
G1 X519 Y3061 F2000
G1 X518 Y3062 F2000
G1 X518 Y3064 F2000
G1 X531 Y3064 F2000
G1 X519 Y3064 F2000
G1 X518 Y3063 F2000
G1 X520 Y3061 F2000
G1 X527 Y3061 F2000
G1 X528 Y3060 F2000
G1 X534 Y3060 F2000
G1 X535 Y3059 F2000
G1 X535 Y3058 F2000
G1 X536 Y3057 F2000
G1 X536 Y3053 F2000
G1 X537 Y3052 F2000
G1 X537 Y3048 F2000
G1 X538 Y3047 F2000
G1 X538 Y3045 F2000
G1 X539 Y3044 F2000
G1 X541 Y3044 F2000
G1 X543 Y3046 F2000
G1 X543 Y3050 F2000
G1 X542 Y3051 F2000
G1 X542 Y3054 F2000
G1 X541 Y3055 F2000
G1 X541 Y3059 F2000
G1 X543 Y3059 F2000
G1 X544 Y3058 F2000
G1 X545 Y3058 F2000
G1 X546 Y3059 F2000
G1 X546 Y3058 F2000
G1 X544 Y3058 F2000
G1 X543 Y3059 F2000
G1 X542 Y3059 F2000
G1 X541 Y3058 F2000
G1 X541 Y3055 F2000
G1 X542 Y3054 F2000
G1 X542 Y3051 F2000
G1 X543 Y3050 F2000
G1 X543 Y3045 F2000
G1 X541 Y3043 F2000
G1 X540 Y3044 F2000
G0 Z2.0 F1000 ; Pen up
G0 X475 Y3041 F3000
G0 Z0.0 F500 ; Pen down
G1 X475 Y3051 F2000
G1 X474 Y3052 F2000
G1 X474 Y3054 F2000
G1 X473 Y3055 F2000
G1 X471 Y3053 F2000
G1 X471 Y3046 F2000
G1 X472 Y3045 F2000
G1 X472 Y3043 F2000
G1 X473 Y3042 F2000
G1 X472 Y3042 F2000
G1 X472 Y3045 F2000
G1 X471 Y3046 F2000
G1 X471 Y3054 F2000
G1 X472 Y3055 F2000
G1 X472 Y3057 F2000
G1 X472 Y3056 F2000
G1 X473 Y3055 F2000
G1 X474 Y3056 F2000
G1 X474 Y3057 F2000
G1 X474 Y3052 F2000
G1 X475 Y3051 F2000
G0 Z2.0 F1000 ; Pen up
G0 X299 Y3040 F3000
G0 Z0.0 F500 ; Pen down
G1 X299 Y3051 F2000
G1 X300 Y3052 F2000
G1 X300 Y3058 F2000
G1 X299 Y3059 F2000
G1 X299 Y3060 F2000
G1 X300 Y3061 F2000
G1 X300 Y3052 F2000
G1 X299 Y3051 F2000
G1 X299 Y3041 F2000
G1 X300 Y3040 F2000
G1 X301 Y3040 F2000
G1 X305 Y3044 F2000
G1 X305 Y3045 F2000
G1 X306 Y3046 F2000
G1 X306 Y3048 F2000
G1 X305 Y3049 F2000
G1 X305 Y3062 F2000
G1 X304 Y3063 F2000
G1 X304 Y3066 F2000
G1 X303 Y3067 F2000
G1 X303 Y3069 F2000
G1 X302 Y3070 F2000
G1 X302 Y3072 F2000
G1 X301 Y3073 F2000
G1 X301 Y3075 F2000
G1 X299 Y3077 F2000
G1 X298 Y3077 F2000
G1 X297 Y3078 F2000
G1 X296 Y3078 F2000
G1 X295 Y3079 F2000
G1 X294 Y3079 F2000
G1 X291 Y3082 F2000
G1 X290 Y3082 F2000
G1 X288 Y3084 F2000
G1 X286 Y3084 F2000
G1 X285 Y3085 F2000
G1 X280 Y3085 F2000
G1 X279 Y3086 F2000
G1 X278 Y3086 F2000
G1 X277 Y3085 F2000
G1 X275 Y3085 F2000
G1 X270 Y3080 F2000
G1 X270 Y3079 F2000
G1 X269 Y3078 F2000
G1 X269 Y3073 F2000
G1 X270 Y3072 F2000
G1 X270 Y3069 F2000
G1 X272 Y3067 F2000
G1 X272 Y3066 F2000
G1 X278 Y3060 F2000
G1 X279 Y3060 F2000
G1 X281 Y3058 F2000
G1 X282 Y3058 F2000
G1 X283 Y3057 F2000
G1 X284 Y3057 F2000
G1 X285 Y3056 F2000
G1 X286 Y3056 F2000
G1 X287 Y3055 F2000
G1 X294 Y3055 F2000
G1 X297 Y3058 F2000
G1 X297 Y3064 F2000
G1 X297 Y3057 F2000
G1 X295 Y3055 F2000
G1 X287 Y3055 F2000
G1 X286 Y3056 F2000
G1 X284 Y3056 F2000
G1 X283 Y3057 F2000
G1 X282 Y3057 F2000
G1 X281 Y3058 F2000
G1 X280 Y3058 F2000
G1 X278 Y3060 F2000
G1 X277 Y3060 F2000
G1 X272 Y3065 F2000
G1 X272 Y3066 F2000
G1 X271 Y3067 F2000
G1 X271 Y3068 F2000
G1 X270 Y3069 F2000
G1 X270 Y3072 F2000
G1 X269 Y3073 F2000
G1 X269 Y3078 F2000
G1 X270 Y3079 F2000
G1 X270 Y3081 F2000
G1 X274 Y3085 F2000
G1 X277 Y3085 F2000
G1 X278 Y3086 F2000
G1 X279 Y3086 F2000
G1 X280 Y3085 F2000
G1 X285 Y3085 F2000
G1 X286 Y3084 F2000
G1 X289 Y3084 F2000
G1 X291 Y3082 F2000
G1 X292 Y3082 F2000
G1 X295 Y3079 F2000
G1 X296 Y3079 F2000
G1 X298 Y3077 F2000
G1 X299 Y3077 F2000
G1 X300 Y3078 F2000
G1 X300 Y3077 F2000
G1 X301 Y3076 F2000
G1 X301 Y3073 F2000
G1 X302 Y3072 F2000
G1 X302 Y3071 F2000
G1 X303 Y3070 F2000
G1 X303 Y3067 F2000
G1 X304 Y3066 F2000
G1 X304 Y3063 F2000
G1 X305 Y3062 F2000
G1 X305 Y3049 F2000
G1 X306 Y3048 F2000
G1 X306 Y3046 F2000
G1 X305 Y3045 F2000
G1 X305 Y3043 F2000
G1 X302 Y3040 F2000
G0 Z2.0 F1000 ; Pen up
G0 X417 Y3038 F3000
G0 Z0.0 F500 ; Pen down
G1 X418 Y3038 F2000
G1 X419 Y3039 F2000
G1 X419 Y3043 F2000
G1 X411 Y3051 F2000
G1 X410 Y3051 F2000
G1 X409 Y3050 F2000
G1 X409 Y3049 F2000
G1 X410 Y3048 F2000
G1 X410 Y3046 F2000
G1 X412 Y3044 F2000
G1 X412 Y3043 F2000
G1 X413 Y3042 F2000
G1 X413 Y3041 F2000
G1 X414 Y3040 F2000
G1 X415 Y3040 F2000
G0 Z2.0 F1000 ; Pen up
G0 X416 Y3038 F3000
G0 Z0.0 F500 ; Pen down
G1 X412 Y3042 F2000
G1 X412 Y3043 F2000
G1 X411 Y3044 F2000
G1 X411 Y3045 F2000
G1 X410 Y3046 F2000
G1 X410 Y3048 F2000
G1 X409 Y3049 F2000
G1 X409 Y3051 F2000
G1 X412 Y3051 F2000
G1 X419 Y3044 F2000
G1 X419 Y3038 F2000
G0 Z2.0 F1000 ; Pen up
G0 X414 Y3032 F3000
G0 Z0.0 F500 ; Pen down
G1 X409 Y3037 F2000
G1 X409 Y3038 F2000
G1 X408 Y3039 F2000
G1 X408 Y3041 F2000
G1 X407 Y3042 F2000
G1 X407 Y3043 F2000
G1 X406 Y3044 F2000
G1 X406 Y3047 F2000
G1 X405 Y3048 F2000
G1 X405 Y3051 F2000
G1 X403 Y3053 F2000
G1 X401 Y3053 F2000
G1 X400 Y3054 F2000
G1 X400 Y3057 F2000
G1 X403 Y3060 F2000
G1 X403 Y3063 F2000
G1 X402 Y3064 F2000
G1 X402 Y3066 F2000
G1 X401 Y3067 F2000
G1 X401 Y3068 F2000
G1 X400 Y3069 F2000
G1 X400 Y3070 F2000
G1 X399 Y3071 F2000
G1 X398 Y3071 F2000
G1 X397 Y3072 F2000
G1 X394 Y3072 F2000
G1 X393 Y3073 F2000
G1 X381 Y3073 F2000
G1 X380 Y3074 F2000
G1 X380 Y3076 F2000
G1 X381 Y3077 F2000
G1 X392 Y3077 F2000
G1 X393 Y3076 F2000
G1 X397 Y3076 F2000
G1 X398 Y3077 F2000
G1 X397 Y3078 F2000
G1 X397 Y3079 F2000
G1 X396 Y3080 F2000
G1 X396 Y3082 F2000
G1 X395 Y3083 F2000
G1 X395 Y3084 F2000
G1 X394 Y3085 F2000
G1 X394 Y3087 F2000
G1 X393 Y3088 F2000
G1 X393 Y3092 F2000
G1 X393 Y3088 F2000
G1 X394 Y3087 F2000
G1 X394 Y3086 F2000
G1 X395 Y3085 F2000
G1 X395 Y3083 F2000
G1 X396 Y3082 F2000
G1 X396 Y3080 F2000
G1 X397 Y3079 F2000
G1 X397 Y3078 F2000
G1 X398 Y3077 F2000
G1 X397 Y3076 F2000
G1 X393 Y3076 F2000
G1 X392 Y3077 F2000
G1 X382 Y3077 F2000
G1 X380 Y3075 F2000
G1 X382 Y3073 F2000
G1 X393 Y3073 F2000
G1 X394 Y3072 F2000
G1 X398 Y3072 F2000
G1 X399 Y3071 F2000
G1 X400 Y3071 F2000
G1 X400 Y3070 F2000
G1 X401 Y3069 F2000
G1 X401 Y3067 F2000
G1 X402 Y3066 F2000
G1 X402 Y3064 F2000
G1 X403 Y3063 F2000
G1 X403 Y3059 F2000
G1 X400 Y3056 F2000
G1 X400 Y3055 F2000
G1 X402 Y3053 F2000
G1 X404 Y3053 F2000
G1 X405 Y3052 F2000
G1 X405 Y3048 F2000
G1 X406 Y3047 F2000
G1 X406 Y3044 F2000
G1 X407 Y3043 F2000
G1 X407 Y3042 F2000
G1 X408 Y3041 F2000
G1 X408 Y3040 F2000
G1 X409 Y3039 F2000
G1 X409 Y3038 F2000
G1 X415 Y3032 F2000
G1 X419 Y3032 F2000
G1 X420 Y3033 F2000
G1 X421 Y3033 F2000
G1 X423 Y3035 F2000
G1 X423 Y3038 F2000
G1 X424 Y3039 F2000
G1 X424 Y3041 F2000
G1 X423 Y3042 F2000
G1 X423 Y3044 F2000
G1 X422 Y3045 F2000
G1 X422 Y3046 F2000
G1 X417 Y3051 F2000
G1 X416 Y3051 F2000
G1 X414 Y3053 F2000
G1 X413 Y3053 F2000
G1 X411 Y3055 F2000
G1 X410 Y3055 F2000
G1 X410 Y3056 F2000
G1 X408 Y3058 F2000
G1 X408 Y3061 F2000
G1 X407 Y3062 F2000
G1 X407 Y3065 F2000
G1 X406 Y3066 F2000
G1 X406 Y3069 F2000
G1 X406 Y3066 F2000
G1 X407 Y3065 F2000
G1 X407 Y3062 F2000
G1 X408 Y3061 F2000
G1 X408 Y3059 F2000
G1 X410 Y3057 F2000
G1 X410 Y3056 F2000
G1 X411 Y3055 F2000
G1 X412 Y3055 F2000
G1 X414 Y3053 F2000
G1 X415 Y3053 F2000
G1 X417 Y3051 F2000
G1 X418 Y3051 F2000
G1 X422 Y3047 F2000
G1 X422 Y3046 F2000
G1 X423 Y3045 F2000
G1 X423 Y3042 F2000
G1 X424 Y3041 F2000
G1 X424 Y3039 F2000
G1 X423 Y3038 F2000
G1 X423 Y3034 F2000
G1 X422 Y3033 F2000
G1 X420 Y3033 F2000
G1 X419 Y3032 F2000
G0 Z2.0 F1000 ; Pen up
G0 X2146 Y3027 F3000
G0 Z0.0 F500 ; Pen down
G1 X2147 Y3026 F2000
G1 X2148 Y3026 F2000
G1 X2149 Y3027 F2000
G1 X2149 Y3031 F2000
G1 X2148 Y3032 F2000
G1 X2147 Y3032 F2000
G1 X2146 Y3031 F2000
G0 Z2.0 F1000 ; Pen up
G0 X2146 Y3026 F3000
G0 Z0.0 F500 ; Pen down
G1 X2146 Y3032 F2000
G1 X2149 Y3032 F2000
G1 X2149 Y3026 F2000
G0 Z2.0 F1000 ; Pen up
G0 X2072 Y3010 F3000
G0 Z0.0 F500 ; Pen down
G1 X2074 Y3010 F2000
G1 X2075 Y3011 F2000
G1 X2072 Y3014 F2000
G1 X2070 Y3012 F2000
G0 Z2.0 F1000 ; Pen up
G0 X1493 Y2997 F3000
G0 Z0.0 F500 ; Pen down
G1 X1493 Y2999 F2000
G1 X1494 Y3000 F2000
G1 X1494 Y3001 F2000
G1 X1492 Y3003 F2000
G1 X1491 Y3002 F2000
G1 X1491 Y3001 F2000
G1 X1491 Y3003 F2000
G1 X1490 Y3004 F2000
G1 X1491 Y3003 F2000
G1 X1492 Y3004 F2000
G1 X1494 Y3002 F2000
G1 X1494 Y2999 F2000
G1 X1493 Y2998 F2000
G0 Z2.0 F1000 ; Pen up
G0 X2003 Y2993 F3000
G0 Z0.0 F500 ; Pen down
G1 X2004 Y2992 F2000
G1 X2005 Y2993 F2000
G1 X2006 Y2993 F2000
G1 X2007 Y2994 F2000
G1 X2007 Y2995 F2000
G1 X2006 Y2996 F2000
G1 X2006 Y2998 F2000
G1 X2005 Y2999 F2000
G1 X2005 Y3000 F2000
G1 X2004 Y3001 F2000
G1 X2004 Y3002 F2000
G1 X2003 Y3003 F2000
G1 X2003 Y3005 F2000
G1 X2002 Y3006 F2000
G1 X2002 Y3008 F2000
G1 X1999 Y3011 F2000
G1 X1998 Y3011 F2000
G1 X1995 Y3008 F2000
G1 X1995 Y2999 F2000
G1 X1996 Y2998 F2000
G1 X1996 Y2997 F2000
G1 X1999 Y2994 F2000
G1 X2001 Y2994 F2000
G1 X2002 Y2993 F2000
G0 Z2.0 F1000 ; Pen up
G0 X2004 Y2992 F3000
G0 Z0.0 F500 ; Pen down
G1 X2003 Y2993 F2000
G1 X2001 Y2993 F2000
G1 X2000 Y2994 F2000
G1 X1998 Y2994 F2000
G1 X1996 Y2996 F2000
G1 X1996 Y2998 F2000
G1 X1995 Y2999 F2000
G1 X1995 Y3009 F2000
G1 X1997 Y3011 F2000
G1 X2000 Y3011 F2000
G1 X2001 Y3010 F2000
G1 X2001 Y3009 F2000
G1 X2002 Y3008 F2000
G1 X2002 Y3006 F2000
G1 X2003 Y3005 F2000
G1 X2003 Y3004 F2000
G1 X2004 Y3003 F2000
G1 X2004 Y3002 F2000
G1 X2005 Y3001 F2000
G1 X2005 Y2999 F2000
G1 X2006 Y2998 F2000
G1 X2006 Y2996 F2000
G1 X2007 Y2995 F2000
G1 X2007 Y2994 F2000
G1 X2006 Y2993 F2000
G1 X2006 Y2992 F2000
G1 X2005 Y2993 F2000
G0 Z2.0 F1000 ; Pen up
G0 X1660 Y2991 F3000
G0 Z0.0 F500 ; Pen down
G1 X1661 Y2990 F2000
G1 X1664 Y2990 F2000
G1 X1666 Y2992 F2000
G1 X1665 Y2993 F2000
G1 X1665 Y2995 F2000
G1 X1664 Y2996 F2000
G1 X1664 Y2999 F2000
G1 X1663 Y3000 F2000
G1 X1663 Y3002 F2000
G1 X1662 Y3003 F2000
G1 X1662 Y3005 F2000
G1 X1660 Y3007 F2000
G1 X1659 Y3007 F2000
G1 X1658 Y3008 F2000
G1 X1655 Y3008 F2000
G1 X1654 Y3009 F2000
G1 X1650 Y3009 F2000
G1 X1649 Y3008 F2000
G1 X1648 Y3008 F2000
G1 X1646 Y3006 F2000
G1 X1646 Y2999 F2000
G1 X1647 Y2998 F2000
G1 X1647 Y2997 F2000
G1 X1648 Y2996 F2000
G1 X1648 Y2995 F2000
G1 X1652 Y2991 F2000
G0 Z2.0 F1000 ; Pen up
G0 X1661 Y2990 F3000
G0 Z0.0 F500 ; Pen down
G1 X1660 Y2991 F2000
G1 X1651 Y2991 F2000
G1 X1648 Y2994 F2000
G1 X1648 Y2995 F2000
G1 X1647 Y2996 F2000
G1 X1647 Y2998 F2000
G1 X1646 Y2999 F2000
G1 X1646 Y3007 F2000
G1 X1647 Y3008 F2000
G1 X1649 Y3008 F2000
G1 X1650 Y3009 F2000
G1 X1654 Y3009 F2000
G1 X1655 Y3008 F2000
G1 X1658 Y3008 F2000
G1 X1659 Y3007 F2000
G1 X1661 Y3007 F2000
G1 X1662 Y3006 F2000
G1 X1662 Y3003 F2000
G1 X1663 Y3002 F2000
G1 X1663 Y3000 F2000
G1 X1664 Y2999 F2000
G1 X1664 Y2996 F2000
G1 X1665 Y2995 F2000
G1 X1665 Y2993 F2000
G1 X1666 Y2992 F2000
G1 X1665 Y2991 F2000
G1 X1666 Y2990 F2000
G0 Z2.0 F1000 ; Pen up
G0 X2014 Y2986 F3000
G0 Z0.0 F500 ; Pen down
G1 X2013 Y2987 F2000
G1 X2013 Y2988 F2000
G1 X2012 Y2989 F2000
G1 X2013 Y2990 F2000
G1 X2013 Y2987 F2000
G0 Z2.0 F1000 ; Pen up
G0 X1823 Y2985 F3000
G0 Z0.0 F500 ; Pen down
G1 X1827 Y2985 F2000
G1 X1830 Y2988 F2000
G1 X1831 Y2988 F2000
G1 X1832 Y2989 F2000
G1 X1832 Y2990 F2000
G1 X1834 Y2992 F2000
G1 X1834 Y2994 F2000
G1 X1835 Y2995 F2000
G1 X1835 Y2996 F2000
G1 X1836 Y2997 F2000
G1 X1836 Y3005 F2000
G1 X1835 Y3006 F2000
G1 X1835 Y3007 F2000
G1 X1831 Y3011 F2000
G1 X1830 Y3011 F2000
G1 X1828 Y3013 F2000
G1 X1827 Y3013 F2000
G1 X1826 Y3014 F2000
G1 X1825 Y3014 F2000
G1 X1824 Y3015 F2000
G1 X1823 Y3015 F2000
G1 X1822 Y3016 F2000
G1 X1812 Y3016 F2000
G1 X1811 Y3015 F2000
G1 X1810 Y3015 F2000
G1 X1807 Y3012 F2000
G1 X1807 Y3010 F2000
G1 X1806 Y3009 F2000
G1 X1806 Y3008 F2000
G1 X1807 Y3007 F2000
G1 X1807 Y3003 F2000
G1 X1808 Y3002 F2000
G1 X1808 Y3001 F2000
G1 X1809 Y3000 F2000
G1 X1809 Y2999 F2000
G1 X1811 Y2997 F2000
G1 X1811 Y2996 F2000
G1 X1817 Y2990 F2000
G1 X1818 Y2990 F2000
G0 Z2.0 F1000 ; Pen up
G0 X1606 Y2986 F3000
G0 Z0.0 F500 ; Pen down
G1 X1607 Y2985 F2000
G1 X1612 Y2985 F2000
G1 X1613 Y2986 F2000
G1 X1613 Y2988 F2000
G1 X1614 Y2989 F2000
G1 X1614 Y2995 F2000
G1 X1613 Y2996 F2000
G1 X1613 Y3001 F2000
G1 X1611 Y3003 F2000
G1 X1610 Y3003 F2000
G1 X1609 Y3004 F2000
G1 X1606 Y3004 F2000
G1 X1605 Y3005 F2000
G1 X1604 Y3005 F2000
G1 X1603 Y3006 F2000
G1 X1598 Y3006 F2000
G1 X1597 Y3005 F2000
G1 X1596 Y3005 F2000
G1 X1594 Y3003 F2000
G1 X1594 Y2997 F2000
G1 X1596 Y2995 F2000
G1 X1596 Y2994 F2000
G1 X1602 Y2988 F2000
G1 X1603 Y2988 F2000
G1 X1605 Y2986 F2000
G0 Z2.0 F1000 ; Pen up
G0 X1822 Y2985 F3000
G0 Z0.0 F500 ; Pen down
G1 X1817 Y2990 F2000
G1 X1816 Y2990 F2000
G1 X1811 Y2995 F2000
G1 X1811 Y2996 F2000
G1 X1809 Y2998 F2000
G1 X1809 Y2999 F2000
G1 X1808 Y3000 F2000
G1 X1808 Y3002 F2000
G1 X1807 Y3003 F2000
G1 X1807 Y3007 F2000
G1 X1806 Y3008 F2000
G1 X1806 Y3009 F2000
G1 X1807 Y3010 F2000
G1 X1807 Y3013 F2000
G1 X1809 Y3015 F2000
G1 X1811 Y3015 F2000
G1 X1812 Y3016 F2000
G1 X1822 Y3016 F2000
G1 X1823 Y3015 F2000
G1 X1825 Y3015 F2000
G1 X1826 Y3014 F2000
G1 X1827 Y3014 F2000
G1 X1828 Y3013 F2000
G1 X1829 Y3013 F2000
G1 X1831 Y3011 F2000
G1 X1832 Y3011 F2000
G1 X1835 Y3008 F2000
G1 X1835 Y3006 F2000
G1 X1836 Y3005 F2000
G1 X1836 Y2996 F2000
G1 X1834 Y2994 F2000
G1 X1834 Y2991 F2000
G1 X1832 Y2989 F2000
G1 X1832 Y2988 F2000
G1 X1831 Y2988 F2000
G1 X1828 Y2985 F2000
G0 Z2.0 F1000 ; Pen up
G0 X1607 Y2985 F3000
G0 Z0.0 F500 ; Pen down
G1 X1606 Y2986 F2000
G1 X1604 Y2986 F2000
G1 X1602 Y2988 F2000
G1 X1601 Y2988 F2000
G1 X1596 Y2993 F2000
G1 X1596 Y2994 F2000
G1 X1594 Y2996 F2000
G1 X1594 Y3004 F2000
G1 X1595 Y3005 F2000
G1 X1597 Y3005 F2000
G1 X1598 Y3006 F2000
G1 X1603 Y3006 F2000
G1 X1604 Y3005 F2000
G1 X1606 Y3005 F2000
G1 X1607 Y3004 F2000
G1 X1610 Y3004 F2000
G1 X1611 Y3003 F2000
G1 X1612 Y3003 F2000
G1 X1613 Y3002 F2000
G1 X1613 Y2996 F2000
G1 X1614 Y2995 F2000
G1 X1614 Y2989 F2000
G1 X1613 Y2988 F2000
G1 X1613 Y2985 F2000
G0 Z2.0 F1000 ; Pen up
G0 X388 Y2982 F3000
G0 Z0.0 F500 ; Pen down
G1 X388 Y2984 F2000
G1 X386 Y2986 F2000
G1 X387 Y2986 F2000
G1 X388 Y2985 F2000
G0 Z2.0 F1000 ; Pen up
G0 X1824 Y2981 F3000
G0 Z0.0 F500 ; Pen down
G1 X1825 Y2980 F2000
G1 X1831 Y2980 F2000
G1 X1835 Y2984 F2000
G1 X1835 Y2985 F2000
G1 X1837 Y2987 F2000
G1 X1837 Y2989 F2000
G1 X1838 Y2990 F2000
G1 X1838 Y2991 F2000
G1 X1839 Y2992 F2000
G1 X1839 Y2993 F2000
G1 X1840 Y2994 F2000
G1 X1840 Y2995 F2000
G1 X1841 Y2996 F2000
G1 X1841 Y2999 F2000
G1 X1842 Y3000 F2000
G1 X1842 Y3002 F2000
G1 X1841 Y3003 F2000
G1 X1841 Y3007 F2000
G1 X1835 Y3013 F2000
G1 X1834 Y3013 F2000
G1 X1832 Y3015 F2000
G1 X1831 Y3015 F2000
G1 X1830 Y3016 F2000
G1 X1829 Y3016 F2000
G1 X1827 Y3018 F2000
G1 X1825 Y3018 F2000
G1 X1824 Y3019 F2000
G1 X1821 Y3019 F2000
G1 X1820 Y3020 F2000
G1 X1811 Y3020 F2000
G1 X1810 Y3019 F2000
G1 X1809 Y3019 F2000
G1 X1808 Y3018 F2000
G1 X1807 Y3018 F2000
G1 X1804 Y3015 F2000
G1 X1804 Y3014 F2000
G1 X1803 Y3013 F2000
G1 X1803 Y3012 F2000
G1 X1802 Y3011 F2000
G1 X1802 Y3008 F2000
G1 X1803 Y3007 F2000
G1 X1803 Y3002 F2000
G1 X1804 Y3001 F2000
G1 X1804 Y3000 F2000
G1 X1805 Y2999 F2000
G1 X1805 Y2998 F2000
G1 X1806 Y2997 F2000
G1 X1806 Y2996 F2000
G1 X1818 Y2984 F2000
G1 X1819 Y2984 F2000
G1 X1821 Y2982 F2000
G1 X1822 Y2982 F2000
G1 X1823 Y2981 F2000
G0 Z2.0 F1000 ; Pen up
G0 X1607 Y2981 F3000
G0 Z0.0 F500 ; Pen down
G1 X1608 Y2980 F2000
G1 X1613 Y2980 F2000
G1 X1616 Y2983 F2000
G1 X1616 Y2984 F2000
G1 X1617 Y2985 F2000
G1 X1617 Y2986 F2000
G1 X1620 Y2989 F2000
G1 X1620 Y2990 F2000
G1 X1621 Y2991 F2000
G1 X1621 Y2995 F2000
G1 X1620 Y2996 F2000
G1 X1620 Y2997 F2000
G1 X1619 Y2998 F2000
G1 X1619 Y2999 F2000
G1 X1618 Y3000 F2000
G1 X1618 Y3001 F2000
G1 X1617 Y3002 F2000
G1 X1617 Y3003 F2000
G1 X1616 Y3004 F2000
G1 X1616 Y3005 F2000
G1 X1615 Y3006 F2000
G1 X1615 Y3008 F2000
G1 X1614 Y3009 F2000
G1 X1614 Y3012 F2000
G1 X1613 Y3013 F2000
G1 X1613 Y3015 F2000
G1 X1612 Y3016 F2000
G1 X1612 Y3017 F2000
G1 X1611 Y3018 F2000
G1 X1611 Y3019 F2000
G1 X1610 Y3020 F2000
G1 X1610 Y3021 F2000
G1 X1609 Y3022 F2000
G1 X1609 Y3023 F2000
G1 X1602 Y3030 F2000
G1 X1601 Y3030 F2000
G1 X1600 Y3031 F2000
G1 X1599 Y3031 F2000
G1 X1598 Y3032 F2000
G1 X1595 Y3032 F2000
G1 X1594 Y3033 F2000
G1 X1592 Y3033 F2000
G1 X1590 Y3031 F2000
G1 X1590 Y3030 F2000
G1 X1591 Y3029 F2000
G1 X1596 Y3029 F2000
G1 X1598 Y3027 F2000
G1 X1599 Y3027 F2000
G1 X1600 Y3026 F2000
G1 X1601 Y3026 F2000
G1 X1605 Y3022 F2000
G1 X1605 Y3021 F2000
G1 X1606 Y3020 F2000
G1 X1606 Y3019 F2000
G1 X1607 Y3018 F2000
G1 X1607 Y3017 F2000
G1 X1608 Y3016 F2000
G1 X1608 Y3013 F2000
G1 X1609 Y3012 F2000
G1 X1609 Y3011 F2000
G1 X1610 Y3010 F2000
G1 X1610 Y3008 F2000
G1 X1607 Y3008 F2000
G1 X1606 Y3009 F2000
G1 X1602 Y3009 F2000
G1 X1601 Y3010 F2000
G1 X1598 Y3010 F2000
G1 X1597 Y3009 F2000
G1 X1595 Y3009 F2000
G1 X1594 Y3008 F2000
G1 X1593 Y3008 F2000
G1 X1590 Y3005 F2000
G1 X1590 Y2997 F2000
G1 X1591 Y2996 F2000
G1 X1591 Y2995 F2000
G1 X1592 Y2994 F2000
G1 X1592 Y2993 F2000
G1 X1598 Y2987 F2000
G1 X1598 Y2986 F2000
G1 X1599 Y2985 F2000
G1 X1600 Y2985 F2000
G1 X1603 Y2982 F2000
G1 X1605 Y2982 F2000
G1 X1606 Y2981 F2000
G0 Z2.0 F1000 ; Pen up
G0 X1273 Y2981 F3000
G0 Z0.0 F500 ; Pen down
G1 X1274 Y2980 F2000
G1 X1277 Y2980 F2000
G1 X1278 Y2981 F2000
G1 X1279 Y2981 F2000
G1 X1282 Y2984 F2000
G1 X1282 Y2986 F2000
G1 X1283 Y2987 F2000
G1 X1283 Y2989 F2000
G1 X1284 Y2990 F2000
G1 X1284 Y2991 F2000
G1 X1285 Y2992 F2000
G1 X1285 Y2993 F2000
G1 X1286 Y2994 F2000
G1 X1286 Y2995 F2000
G1 X1285 Y2996 F2000
G1 X1285 Y2998 F2000
G1 X1277 Y3006 F2000
G1 X1276 Y3006 F2000
G1 X1275 Y3007 F2000
G1 X1274 Y3007 F2000
G1 X1273 Y3008 F2000
G1 X1270 Y3008 F2000
G1 X1269 Y3009 F2000
G1 X1264 Y3009 F2000
G1 X1263 Y3008 F2000
G1 X1262 Y3008 F2000
G1 X1258 Y3004 F2000
G1 X1258 Y2995 F2000
G1 X1259 Y2994 F2000
G1 X1259 Y2992 F2000
G1 X1260 Y2991 F2000
G1 X1260 Y2990 F2000
G1 X1267 Y2983 F2000
G1 X1268 Y2983 F2000
G1 X1269 Y2982 F2000
G1 X1270 Y2982 F2000
G1 X1271 Y2981 F2000
G0 Z2.0 F1000 ; Pen up
G0 X668 Y2981 F3000
G0 Z0.0 F500 ; Pen down
G1 X667 Y2982 F2000
G1 X663 Y2982 F2000
G1 X667 Y2982 F2000
G1 X668 Y2983 F2000
G1 X668 Y2998 F2000
G1 X669 Y2999 F2000
G1 X669 Y3000 F2000
G1 X671 Y3002 F2000
G1 X677 Y3002 F2000
G1 X678 Y3001 F2000
G1 X680 Y3001 F2000
G1 X681 Y3000 F2000
G1 X682 Y3000 F2000
G1 X683 Y2999 F2000
G1 X684 Y2999 F2000
G1 X685 Y2998 F2000
G1 X686 Y2998 F2000
G1 X684 Y2998 F2000
G1 X683 Y2999 F2000
G1 X682 Y2999 F2000
G1 X681 Y3000 F2000
G1 X680 Y3000 F2000
G1 X679 Y3001 F2000
G1 X678 Y3001 F2000
G1 X677 Y3002 F2000
G1 X672 Y3002 F2000
G1 X668 Y2998 F2000
G0 Z2.0 F1000 ; Pen up
G0 X1825 Y2980 F3000
G0 Z0.0 F500 ; Pen down
G1 X1824 Y2981 F2000
G1 X1822 Y2981 F2000
G1 X1821 Y2982 F2000
G1 X1820 Y2982 F2000
G1 X1818 Y2984 F2000
G1 X1817 Y2984 F2000
G1 X1807 Y2994 F2000
G1 X1807 Y2995 F2000
G1 X1805 Y2997 F2000
G1 X1805 Y2998 F2000
G1 X1804 Y2999 F2000
G1 X1804 Y3001 F2000
G1 X1803 Y3002 F2000
G1 X1803 Y3007 F2000
G1 X1802 Y3008 F2000
G1 X1802 Y3011 F2000
G1 X1803 Y3012 F2000
G1 X1803 Y3014 F2000
G1 X1804 Y3015 F2000
G1 X1804 Y3016 F2000
G1 X1806 Y3018 F2000
G1 X1807 Y3018 F2000
G1 X1808 Y3019 F2000
G1 X1810 Y3019 F2000
G1 X1811 Y3020 F2000
G1 X1821 Y3020 F2000
G1 X1822 Y3019 F2000
G1 X1824 Y3019 F2000
G1 X1825 Y3018 F2000
G1 X1827 Y3018 F2000
G1 X1828 Y3017 F2000
G1 X1829 Y3017 F2000
G1 X1830 Y3016 F2000
G1 X1831 Y3016 F2000
G1 X1832 Y3015 F2000
G1 X1833 Y3015 F2000
G1 X1835 Y3013 F2000
G1 X1836 Y3013 F2000
G1 X1840 Y3009 F2000
G1 X1840 Y3008 F2000
G1 X1841 Y3007 F2000
G1 X1841 Y3003 F2000
G1 X1842 Y3002 F2000
G1 X1842 Y3000 F2000
G1 X1841 Y2999 F2000
G1 X1841 Y2996 F2000
G1 X1840 Y2995 F2000
G1 X1840 Y2993 F2000
G1 X1839 Y2992 F2000
G1 X1839 Y2991 F2000
G1 X1837 Y2989 F2000
G1 X1837 Y2987 F2000
G1 X1836 Y2986 F2000
G1 X1836 Y2985 F2000
G1 X1835 Y2984 F2000
G1 X1835 Y2983 F2000
G1 X1832 Y2980 F2000
G0 Z2.0 F1000 ; Pen up
G0 X1673 Y2980 F3000
G0 Z0.0 F500 ; Pen down
G1 X1674 Y2979 F2000
G1 X1675 Y2980 F2000
G1 X1675 Y2983 F2000
G1 X1674 Y2984 F2000
G1 X1673 Y2984 F2000
G1 X1672 Y2983 F2000
G1 X1672 Y2982 F2000
G1 X1673 Y2981 F2000
G0 Z2.0 F1000 ; Pen up
G0 X1608 Y2980 F3000
G0 Z0.0 F500 ; Pen down
G1 X1607 Y2981 F2000
G1 X1605 Y2981 F2000
G1 X1604 Y2982 F2000
G1 X1603 Y2982 F2000
G1 X1602 Y2983 F2000
G1 X1601 Y2983 F2000
G1 X1599 Y2985 F2000
G1 X1598 Y2985 F2000
G1 X1598 Y2986 F2000
G1 X1592 Y2992 F2000
G1 X1592 Y2993 F2000
G1 X1591 Y2994 F2000
G1 X1591 Y2995 F2000
G1 X1590 Y2996 F2000
G1 X1590 Y3006 F2000
G1 X1592 Y3008 F2000
G1 X1593 Y3008 F2000
G1 X1594 Y3009 F2000
G1 X1597 Y3009 F2000
G1 X1598 Y3010 F2000
G1 X1601 Y3010 F2000
G1 X1602 Y3009 F2000
G1 X1606 Y3009 F2000
G1 X1607 Y3008 F2000
G1 X1609 Y3008 F2000
G1 X1610 Y3009 F2000
G1 X1610 Y3010 F2000
G1 X1609 Y3011 F2000
G1 X1609 Y3012 F2000
G1 X1608 Y3013 F2000
G1 X1608 Y3015 F2000
G1 X1607 Y3016 F2000
G1 X1607 Y3017 F2000
G1 X1606 Y3018 F2000
G1 X1606 Y3019 F2000
G1 X1605 Y3020 F2000
G1 X1605 Y3021 F2000
G1 X1599 Y3027 F2000
G1 X1597 Y3027 F2000
G1 X1595 Y3029 F2000
G1 X1590 Y3029 F2000
G1 X1589 Y3030 F2000
G1 X1590 Y3031 F2000
G1 X1589 Y3032 F2000
G1 X1591 Y3032 F2000
G1 X1592 Y3033 F2000
G1 X1594 Y3033 F2000
G1 X1595 Y3032 F2000
G1 X1598 Y3032 F2000
G1 X1599 Y3031 F2000
G1 X1601 Y3031 F2000
G1 X1602 Y3030 F2000
G1 X1603 Y3030 F2000
G1 X1609 Y3024 F2000
G1 X1609 Y3023 F2000
G1 X1610 Y3022 F2000
G1 X1610 Y3021 F2000
G1 X1611 Y3020 F2000
G1 X1611 Y3018 F2000
G1 X1612 Y3017 F2000
G1 X1612 Y3016 F2000
G1 X1613 Y3015 F2000
G1 X1613 Y3013 F2000
G1 X1614 Y3012 F2000
G1 X1614 Y3009 F2000
G1 X1615 Y3008 F2000
G1 X1615 Y3007 F2000
G1 X1616 Y3006 F2000
G1 X1616 Y3005 F2000
G1 X1617 Y3004 F2000
G1 X1617 Y3003 F2000
G1 X1618 Y3002 F2000
G1 X1618 Y3001 F2000
G1 X1619 Y3000 F2000
G1 X1619 Y2999 F2000
G1 X1620 Y2998 F2000
G1 X1620 Y2996 F2000
G1 X1621 Y2995 F2000
G1 X1621 Y2991 F2000
G1 X1620 Y2990 F2000
G1 X1620 Y2988 F2000
G1 X1617 Y2985 F2000
G1 X1617 Y2984 F2000
G1 X1616 Y2983 F2000
G1 X1616 Y2982 F2000
G1 X1615 Y2981 F2000
G1 X1614 Y2981 F2000
G1 X1613 Y2980 F2000
G0 Z2.0 F1000 ; Pen up
G0 X1274 Y2980 F3000
G0 Z0.0 F500 ; Pen down
G1 X1273 Y2981 F2000
G1 X1271 Y2981 F2000
G1 X1270 Y2982 F2000
G1 X1268 Y2982 F2000
G1 X1267 Y2983 F2000
G1 X1266 Y2983 F2000
G1 X1261 Y2988 F2000
G1 X1261 Y2989 F2000
G1 X1260 Y2990 F2000
G1 X1260 Y2991 F2000
G1 X1259 Y2992 F2000
G1 X1259 Y2994 F2000
G1 X1258 Y2995 F2000
G1 X1258 Y3005 F2000
G1 X1261 Y3008 F2000
G1 X1263 Y3008 F2000
G1 X1264 Y3009 F2000
G1 X1269 Y3009 F2000
G1 X1270 Y3008 F2000
G1 X1273 Y3008 F2000
G1 X1274 Y3007 F2000
G1 X1276 Y3007 F2000
G1 X1277 Y3006 F2000
G1 X1278 Y3006 F2000
G1 X1285 Y2999 F2000
G1 X1285 Y2996 F2000
G1 X1286 Y2995 F2000
G1 X1286 Y2994 F2000
G1 X1285 Y2993 F2000
G1 X1285 Y2992 F2000
G1 X1284 Y2991 F2000
G1 X1284 Y2990 F2000
G1 X1283 Y2989 F2000
G1 X1283 Y2986 F2000
G1 X1282 Y2985 F2000
G1 X1282 Y2983 F2000
G1 X1280 Y2981 F2000
G1 X1278 Y2981 F2000
G1 X1277 Y2980 F2000
G0 Z2.0 F1000 ; Pen up
G0 X1673 Y2979 F3000
G0 Z0.0 F500 ; Pen down
G1 X1673 Y2981 F2000
G1 X1672 Y2982 F2000
G1 X1672 Y2984 F2000
G1 X1675 Y2984 F2000
G1 X1675 Y2979 F2000
G0 Z2.0 F1000 ; Pen up
G0 X1577 Y2979 F3000
G0 Z0.0 F500 ; Pen down
G1 X1576 Y2980 F2000
G1 X1572 Y2980 F2000
G1 X1571 Y2981 F2000
G1 X1570 Y2981 F2000
G1 X1569 Y2982 F2000
G1 X1568 Y2982 F2000
G1 X1559 Y2991 F2000
G1 X1559 Y2992 F2000
G1 X1558 Y2993 F2000
G1 X1558 Y2996 F2000
G1 X1557 Y2997 F2000
G1 X1557 Y2999 F2000
G1 X1556 Y3000 F2000
G1 X1556 Y3005 F2000
G1 X1557 Y3006 F2000
G1 X1557 Y3007 F2000
G1 X1559 Y3007 F2000
G1 X1560 Y3008 F2000
G1 X1560 Y3007 F2000
G1 X1561 Y3006 F2000
G1 X1561 Y3005 F2000
G1 X1562 Y3004 F2000
G1 X1562 Y3003 F2000
G1 X1563 Y3002 F2000
G1 X1563 Y3000 F2000
G1 X1565 Y2998 F2000
G1 X1565 Y2994 F2000
G1 X1566 Y2993 F2000
G1 X1566 Y2992 F2000
G1 X1567 Y2991 F2000
G1 X1567 Y2990 F2000
G1 X1572 Y2985 F2000
G1 X1573 Y2985 F2000
G1 X1574 Y2984 F2000
G1 X1579 Y2984 F2000
G1 X1581 Y2986 F2000
G1 X1581 Y2991 F2000
G1 X1580 Y2992 F2000
G1 X1580 Y2996 F2000
G1 X1579 Y2997 F2000
G1 X1579 Y3004 F2000
G1 X1580 Y3005 F2000
G1 X1581 Y3005 F2000
G1 X1579 Y3003 F2000
G1 X1579 Y2997 F2000
G1 X1580 Y2996 F2000
G1 X1580 Y2992 F2000
G1 X1581 Y2991 F2000
G1 X1581 Y2986 F2000
G1 X1580 Y2985 F2000
G1 X1580 Y2984 F2000
G1 X1573 Y2984 F2000
G1 X1572 Y2985 F2000
G1 X1571 Y2985 F2000
G1 X1567 Y2989 F2000
G1 X1567 Y2990 F2000
G1 X1566 Y2991 F2000
G1 X1566 Y2993 F2000
G1 X1565 Y2994 F2000
G1 X1565 Y2997 F2000
G1 X1564 Y2998 F2000
G1 X1564 Y2999 F2000
G1 X1563 Y3000 F2000
G1 X1563 Y3001 F2000
G1 X1562 Y3002 F2000
G1 X1562 Y3004 F2000
G1 X1561 Y3005 F2000
G1 X1561 Y3006 F2000
G1 X1560 Y3007 F2000
G1 X1558 Y3007 F2000
G1 X1556 Y3005 F2000
G1 X1556 Y3000 F2000
G1 X1557 Y2999 F2000
G1 X1557 Y2997 F2000
G1 X1558 Y2996 F2000
G1 X1558 Y2993 F2000
G1 X1569 Y2982 F2000
G1 X1570 Y2982 F2000
G1 X1572 Y2980 F2000
G1 X1576 Y2980 F2000
G1 X1577 Y2979 F2000
G1 X1578 Y2979 F2000
G1 X1579 Y2980 F2000
G1 X1580 Y2980 F2000
G1 X1581 Y2981 F2000
G1 X1582 Y2981 F2000
G1 X1584 Y2983 F2000
G1 X1584 Y2984 F2000
G1 X1585 Y2985 F2000
G1 X1585 Y2991 F2000
G1 X1584 Y2992 F2000
G1 X1584 Y2996 F2000
G1 X1583 Y2997 F2000
G1 X1583 Y2999 F2000
G1 X1582 Y3000 F2000
G1 X1582 Y3002 F2000
G1 X1583 Y3003 F2000
G1 X1584 Y3003 F2000
G1 X1583 Y3003 F2000
G1 X1582 Y3002 F2000
G1 X1582 Y3000 F2000
G1 X1583 Y2999 F2000
G1 X1583 Y2997 F2000
G1 X1584 Y2996 F2000
G1 X1584 Y2992 F2000
G1 X1585 Y2991 F2000
G1 X1585 Y2985 F2000
G1 X1584 Y2984 F2000
G1 X1584 Y2982 F2000
G1 X1583 Y2981 F2000
G1 X1582 Y2981 F2000
G1 X1581 Y2980 F2000
G1 X1579 Y2980 F2000
G1 X1578 Y2979 F2000
G0 Z2.0 F1000 ; Pen up
G0 X687 Y2979 F3000
G0 Z0.0 F500 ; Pen down
G1 X688 Y2978 F2000
G1 X690 Y2978 F2000
G1 X691 Y2979 F2000
G1 X691 Y2985 F2000
G1 X690 Y2986 F2000
G1 X690 Y2990 F2000
G1 X689 Y2991 F2000
G1 X689 Y2992 F2000
G1 X687 Y2994 F2000
G1 X685 Y2994 F2000
G1 X684 Y2995 F2000
G1 X683 Y2995 F2000
G1 X682 Y2996 F2000
G1 X681 Y2996 F2000
G1 X680 Y2997 F2000
G1 X679 Y2997 F2000
G1 X678 Y2998 F2000
G1 X675 Y2998 F2000
G1 X672 Y2995 F2000
G1 X672 Y2987 F2000
G1 X673 Y2986 F2000
G1 X673 Y2984 F2000
G1 X675 Y2982 F2000
G1 X677 Y2982 F2000
G1 X678 Y2981 F2000
G1 X679 Y2981 F2000
G1 X680 Y2980 F2000
G1 X683 Y2980 F2000
G1 X684 Y2979 F2000
G0 Z2.0 F1000 ; Pen up
G0 X182 Y2978 F3000
G0 Z0.0 F500 ; Pen down
G1 X183 Y2978 F2000
G1 X184 Y2979 F2000
G1 X184 Y2980 F2000
G1 X181 Y2983 F2000
G1 X181 Y2984 F2000
G1 X180 Y2985 F2000
G1 X180 Y2987 F2000
G1 X179 Y2988 F2000
G1 X179 Y2989 F2000
G1 X178 Y2990 F2000
G1 X178 Y2991 F2000
G1 X177 Y2992 F2000
G1 X177 Y2993 F2000
G1 X173 Y2997 F2000
G1 X172 Y2997 F2000
G1 X170 Y2999 F2000
G1 X168 Y2999 F2000
G1 X167 Y3000 F2000
G1 X166 Y3000 F2000
G1 X165 Y3001 F2000
G1 X162 Y3001 F2000
G1 X158 Y2997 F2000
G1 X158 Y2989 F2000
G1 X161 Y2986 F2000
G1 X162 Y2986 F2000
G1 X163 Y2985 F2000
G1 X164 Y2985 F2000
G1 X165 Y2984 F2000
G1 X167 Y2984 F2000
G1 X168 Y2983 F2000
G1 X170 Y2983 F2000
G1 X172 Y2981 F2000
G1 X175 Y2981 F2000
G1 X176 Y2980 F2000
G1 X180 Y2980 F2000
G0 Z2.0 F1000 ; Pen up
G0 X2069 Y2978 F3000
G0 Z0.0 F500 ; Pen down
G1 X2070 Y2977 F2000
G1 X2071 Y2978 F2000
G1 X2074 Y2978 F2000
G1 X2076 Y2980 F2000
G1 X2077 Y2980 F2000
G1 X2079 Y2982 F2000
G1 X2079 Y2983 F2000
G1 X2080 Y2984 F2000
G1 X2080 Y2989 F2000
G1 X2079 Y2990 F2000
G1 X2079 Y2991 F2000
G1 X2073 Y2997 F2000
G1 X2072 Y2997 F2000
G1 X2071 Y2998 F2000
G1 X2069 Y2998 F2000
G1 X2068 Y2999 F2000
G1 X2067 Y2999 F2000
G1 X2066 Y3000 F2000
G1 X2063 Y3000 F2000
G1 X2062 Y3001 F2000
G1 X2060 Y3001 F2000
G1 X2059 Y3002 F2000
G1 X2055 Y3002 F2000
G1 X2053 Y3000 F2000
G1 X2053 Y2999 F2000
G1 X2055 Y2997 F2000
G1 X2060 Y2997 F2000
G1 X2061 Y2996 F2000
G1 X2065 Y2996 F2000
G1 X2066 Y2995 F2000
G1 X2068 Y2995 F2000
G1 X2069 Y2994 F2000
G1 X2071 Y2994 F2000
G1 X2076 Y2989 F2000
G1 X2076 Y2984 F2000
G1 X2075 Y2983 F2000
G1 X2074 Y2983 F2000
G1 X2073 Y2982 F2000
G1 X2071 Y2982 F2000
G1 X2070 Y2981 F2000
G1 X2066 Y2981 F2000
G1 X2065 Y2982 F2000
G1 X2062 Y2982 F2000
G1 X2061 Y2983 F2000
G1 X2059 Y2983 F2000
G1 X2053 Y2989 F2000
G1 X2053 Y2990 F2000
G1 X2052 Y2991 F2000
G1 X2052 Y2992 F2000
G1 X2050 Y2994 F2000
G1 X2050 Y3003 F2000
G1 X2051 Y3004 F2000
G1 X2051 Y3006 F2000
G1 X2052 Y3007 F2000
G1 X2052 Y3008 F2000
G1 X2056 Y3012 F2000
G1 X2057 Y3012 F2000
G1 X2058 Y3013 F2000
G1 X2060 Y3013 F2000
G1 X2061 Y3014 F2000
G1 X2066 Y3014 F2000
G1 X2067 Y3013 F2000
G1 X2069 Y3013 F2000
G1 X2070 Y3012 F2000
G1 X2072 Y3014 F2000
G1 X2070 Y3016 F2000
G1 X2069 Y3016 F2000
G1 X2068 Y3017 F2000
G1 X2066 Y3017 F2000
G1 X2065 Y3018 F2000
G1 X2060 Y3018 F2000
G1 X2059 Y3017 F2000
G1 X2058 Y3017 F2000
G1 X2057 Y3016 F2000
G1 X2056 Y3016 F2000
G1 X2055 Y3015 F2000
G1 X2054 Y3015 F2000
G1 X2048 Y3009 F2000
G1 X2048 Y3008 F2000
G1 X2046 Y3006 F2000
G1 X2046 Y2994 F2000
G1 X2047 Y2993 F2000
G1 X2047 Y2992 F2000
G1 X2048 Y2991 F2000
G1 X2048 Y2990 F2000
G1 X2050 Y2988 F2000
G1 X2050 Y2987 F2000
G1 X2056 Y2981 F2000
G1 X2057 Y2981 F2000
G1 X2058 Y2980 F2000
G1 X2059 Y2980 F2000
G1 X2060 Y2979 F2000
G1 X2061 Y2979 F2000
G1 X2062 Y2978 F2000
G0 Z2.0 F1000 ; Pen up
G0 X1527 Y2978 F3000
G0 Z0.0 F500 ; Pen down
G1 X1528 Y2977 F2000
G1 X1534 Y2977 F2000
G1 X1535 Y2978 F2000
G1 X1538 Y2978 F2000
G1 X1542 Y2982 F2000
G1 X1542 Y2983 F2000
G1 X1543 Y2984 F2000
G1 X1543 Y2986 F2000
G1 X1539 Y2990 F2000
G1 X1538 Y2990 F2000
G1 X1537 Y2991 F2000
G1 X1534 Y2991 F2000
G1 X1533 Y2992 F2000
G1 X1532 Y2992 F2000
G1 X1528 Y2988 F2000
G1 X1527 Y2988 F2000
G1 X1526 Y2987 F2000
G1 X1519 Y2987 F2000
G1 X1518 Y2986 F2000
G1 X1518 Y2985 F2000
G1 X1519 Y2984 F2000
G1 X1519 Y2983 F2000
G1 X1522 Y2980 F2000
G1 X1523 Y2980 F2000
G1 X1525 Y2978 F2000
G0 Z2.0 F1000 ; Pen up
G0 X380 Y2977 F3000
G0 Z0.0 F500 ; Pen down
G1 X381 Y2978 F2000
G1 X381 Y2979 F2000
G1 X382 Y2980 F2000
G1 X381 Y2981 F2000
G1 X379 Y2981 F2000
G1 X378 Y2980 F2000
G1 X378 Y2979 F2000
G0 Z2.0 F1000 ; Pen up
G0 X2070 Y2977 F3000
G0 Z0.0 F500 ; Pen down
G1 X2069 Y2978 F2000
G1 X2062 Y2978 F2000
G1 X2061 Y2979 F2000
G1 X2059 Y2979 F2000
G1 X2058 Y2980 F2000
G1 X2057 Y2980 F2000
G1 X2056 Y2981 F2000
G1 X2055 Y2981 F2000
G1 X2050 Y2986 F2000
G1 X2050 Y2987 F2000
G1 X2048 Y2989 F2000
G1 X2048 Y2990 F2000
G1 X2047 Y2991 F2000
G1 X2047 Y2992 F2000
G1 X2046 Y2993 F2000
G1 X2046 Y3006 F2000
G1 X2047 Y3007 F2000
G1 X2047 Y3008 F2000
G1 X2048 Y3009 F2000
G1 X2048 Y3010 F2000
G1 X2053 Y3015 F2000
G1 X2054 Y3015 F2000
G1 X2055 Y3016 F2000
G1 X2056 Y3016 F2000
G1 X2057 Y3017 F2000
G1 X2059 Y3017 F2000
G1 X2060 Y3018 F2000
G1 X2065 Y3018 F2000
G1 X2066 Y3017 F2000
G1 X2069 Y3017 F2000
G1 X2070 Y3016 F2000
G1 X2071 Y3016 F2000
G1 X2075 Y3012 F2000
G1 X2075 Y3010 F2000
G1 X2072 Y3010 F2000
G1 X2071 Y3011 F2000
G1 X2070 Y3011 F2000
G1 X2068 Y3013 F2000
G1 X2067 Y3013 F2000
G1 X2066 Y3014 F2000
G1 X2061 Y3014 F2000
G1 X2060 Y3013 F2000
G1 X2059 Y3013 F2000
G1 X2058 Y3012 F2000
G1 X2057 Y3012 F2000
G1 X2052 Y3007 F2000
G1 X2052 Y3006 F2000
G1 X2051 Y3005 F2000
G1 X2051 Y3004 F2000
G1 X2050 Y3003 F2000
G1 X2050 Y2995 F2000
G1 X2052 Y2993 F2000
G1 X2052 Y2992 F2000
G1 X2053 Y2991 F2000
G1 X2053 Y2990 F2000
G1 X2060 Y2983 F2000
G1 X2061 Y2983 F2000
G1 X2062 Y2982 F2000
G1 X2065 Y2982 F2000
G1 X2066 Y2981 F2000
G1 X2070 Y2981 F2000
G1 X2071 Y2982 F2000
G1 X2072 Y2982 F2000
G1 X2073 Y2983 F2000
G1 X2074 Y2983 F2000
G1 X2076 Y2985 F2000
G1 X2076 Y2988 F2000
G1 X2070 Y2994 F2000
G1 X2069 Y2994 F2000
G1 X2068 Y2995 F2000
G1 X2066 Y2995 F2000
G1 X2065 Y2996 F2000
G1 X2061 Y2996 F2000
G1 X2060 Y2997 F2000
G1 X2055 Y2997 F2000
G1 X2054 Y2998 F2000
G1 X2053 Y2998 F2000
G1 X2053 Y3001 F2000
G1 X2054 Y3002 F2000
G1 X2059 Y3002 F2000
G1 X2060 Y3001 F2000
G1 X2062 Y3001 F2000
G1 X2063 Y3000 F2000
G1 X2066 Y3000 F2000
G1 X2067 Y2999 F2000
G1 X2068 Y2999 F2000
G1 X2069 Y2998 F2000
G1 X2072 Y2998 F2000
G1 X2073 Y2997 F2000
G1 X2074 Y2997 F2000
G1 X2079 Y2992 F2000
G1 X2079 Y2991 F2000
G1 X2080 Y2990 F2000
G1 X2080 Y2984 F2000
G1 X2079 Y2983 F2000
G1 X2079 Y2981 F2000
G1 X2078 Y2980 F2000
G1 X2077 Y2980 F2000
G1 X2075 Y2978 F2000
G1 X2071 Y2978 F2000
G0 Z2.0 F1000 ; Pen up
G0 X1528 Y2977 F3000
G0 Z0.0 F500 ; Pen down
G1 X1527 Y2978 F2000
G1 X1524 Y2978 F2000
G1 X1522 Y2980 F2000
G1 X1521 Y2980 F2000
G1 X1519 Y2982 F2000
G1 X1519 Y2983 F2000
G1 X1518 Y2984 F2000
G1 X1518 Y2987 F2000
G1 X1526 Y2987 F2000
G1 X1530 Y2991 F2000
G1 X1531 Y2991 F2000
G1 X1532 Y2992 F2000
G1 X1533 Y2992 F2000
G1 X1534 Y2991 F2000
G1 X1537 Y2991 F2000
G1 X1538 Y2990 F2000
G1 X1540 Y2990 F2000
G1 X1543 Y2987 F2000
G1 X1543 Y2983 F2000
G1 X1542 Y2982 F2000
G1 X1542 Y2981 F2000
G1 X1540 Y2979 F2000
G1 X1539 Y2979 F2000
G1 X1538 Y2978 F2000
G1 X1535 Y2978 F2000
G1 X1534 Y2977 F2000
G0 Z2.0 F1000 ; Pen up
G0 X1236 Y2977 F3000
G0 Z0.0 F500 ; Pen down
G1 X1237 Y2976 F2000
G1 X1238 Y2977 F2000
G1 X1240 Y2977 F2000
G1 X1246 Y2983 F2000
G1 X1246 Y2999 F2000
G1 X1247 Y3000 F2000
G1 X1247 Y3001 F2000
G1 X1250 Y3004 F2000
G1 X1249 Y3005 F2000
G1 X1247 Y3005 F2000
G1 X1245 Y3003 F2000
G1 X1245 Y3002 F2000
G1 X1243 Y3000 F2000
G1 X1243 Y2998 F2000
G1 X1242 Y2997 F2000
G1 X1242 Y2983 F2000
G1 X1240 Y2981 F2000
G1 X1234 Y2981 F2000
G1 X1233 Y2982 F2000
G1 X1232 Y2982 F2000
G1 X1229 Y2985 F2000
G1 X1228 Y2985 F2000
G1 X1226 Y2987 F2000
G1 X1226 Y2988 F2000
G1 X1224 Y2990 F2000
G1 X1224 Y2991 F2000
G1 X1223 Y2992 F2000
G1 X1223 Y2994 F2000
G1 X1222 Y2995 F2000
G1 X1222 Y2996 F2000
G1 X1221 Y2997 F2000
G1 X1221 Y2999 F2000
G1 X1220 Y3000 F2000
G1 X1220 Y3001 F2000
G1 X1218 Y3003 F2000
G1 X1217 Y3003 F2000
G1 X1216 Y3002 F2000
G1 X1216 Y2997 F2000
G1 X1217 Y2996 F2000
G1 X1217 Y2995 F2000
G1 X1218 Y2994 F2000
G1 X1218 Y2993 F2000
G1 X1219 Y2992 F2000
G1 X1219 Y2991 F2000
G1 X1220 Y2990 F2000
G1 X1220 Y2989 F2000
G1 X1221 Y2988 F2000
G1 X1221 Y2987 F2000
G1 X1227 Y2981 F2000
G1 X1228 Y2981 F2000
G1 X1230 Y2979 F2000
G1 X1231 Y2979 F2000
G1 X1232 Y2978 F2000
G1 X1233 Y2978 F2000
G1 X1234 Y2977 F2000
G0 Z2.0 F1000 ; Pen up
G0 X182 Y2977 F3000
G0 Z0.0 F500 ; Pen down
G1 X179 Y2980 F2000
G1 X176 Y2980 F2000
G1 X175 Y2981 F2000
G1 X172 Y2981 F2000
G1 X171 Y2982 F2000
G1 X170 Y2982 F2000
G1 X169 Y2983 F2000
G1 X167 Y2983 F2000
G1 X166 Y2984 F2000
G1 X165 Y2984 F2000
G1 X164 Y2985 F2000
G1 X163 Y2985 F2000
G1 X162 Y2986 F2000
G1 X160 Y2986 F2000
G1 X158 Y2988 F2000
G1 X158 Y2998 F2000
G1 X161 Y3001 F2000
G1 X165 Y3001 F2000
G1 X166 Y3000 F2000
G1 X168 Y3000 F2000
G1 X169 Y2999 F2000
G1 X170 Y2999 F2000
G1 X171 Y2998 F2000
G1 X172 Y2998 F2000
G1 X173 Y2997 F2000
G1 X174 Y2997 F2000
G1 X177 Y2994 F2000
G1 X177 Y2993 F2000
G1 X178 Y2992 F2000
G1 X178 Y2991 F2000
G1 X179 Y2990 F2000
G1 X179 Y2988 F2000
G1 X180 Y2987 F2000
G1 X180 Y2986 F2000
G1 X181 Y2985 F2000
G1 X181 Y2984 F2000
G1 X183 Y2982 F2000
G1 X183 Y2981 F2000
G1 X184 Y2980 F2000
G1 X184 Y2977 F2000
G1 X183 Y2978 F2000
G0 Z2.0 F1000 ; Pen up
G0 X1237 Y2976 F3000
G0 Z0.0 F500 ; Pen down
G1 X1236 Y2977 F2000
G1 X1233 Y2977 F2000
G1 X1232 Y2978 F2000
G1 X1231 Y2978 F2000
G1 X1230 Y2979 F2000
G1 X1229 Y2979 F2000
G1 X1227 Y2981 F2000
G1 X1226 Y2981 F2000
G1 X1221 Y2986 F2000
G1 X1221 Y2987 F2000
G1 X1220 Y2988 F2000
G1 X1220 Y2989 F2000
G1 X1219 Y2990 F2000
G1 X1219 Y2991 F2000
G1 X1218 Y2992 F2000
G1 X1218 Y2993 F2000
G1 X1217 Y2994 F2000
G1 X1217 Y2996 F2000
G1 X1216 Y2997 F2000
G1 X1216 Y3003 F2000
G1 X1219 Y3003 F2000
G1 X1220 Y3002 F2000
G1 X1220 Y3000 F2000
G1 X1221 Y2999 F2000
G1 X1221 Y2998 F2000
G1 X1222 Y2997 F2000
G1 X1222 Y2996 F2000
G1 X1223 Y2995 F2000
G1 X1223 Y2993 F2000
G1 X1224 Y2992 F2000
G1 X1224 Y2991 F2000
G1 X1226 Y2989 F2000
G1 X1226 Y2988 F2000
G1 X1229 Y2985 F2000
G1 X1230 Y2985 F2000
G1 X1233 Y2982 F2000
G1 X1234 Y2982 F2000
G1 X1235 Y2981 F2000
G1 X1239 Y2981 F2000
G1 X1242 Y2984 F2000
G1 X1242 Y2997 F2000
G1 X1243 Y2998 F2000
G1 X1243 Y3001 F2000
G1 X1245 Y3003 F2000
G1 X1245 Y3004 F2000
G1 X1246 Y3005 F2000
G1 X1250 Y3005 F2000
G1 X1250 Y3003 F2000
G1 X1246 Y2999 F2000
G1 X1246 Y2982 F2000
G1 X1241 Y2977 F2000
G1 X1238 Y2977 F2000
G0 Z2.0 F1000 ; Pen up
G0 X192 Y2974 F3000
G0 Z0.0 F500 ; Pen down
G1 X195 Y2974 F2000
G1 X196 Y2975 F2000
G1 X197 Y2975 F2000
G1 X198 Y2976 F2000
G1 X199 Y2976 F2000
G1 X205 Y2982 F2000
G1 X205 Y2986 F2000
G1 X204 Y2987 F2000
G1 X204 Y2989 F2000
G1 X203 Y2990 F2000
G1 X203 Y2991 F2000
G1 X194 Y3000 F2000
G1 X193 Y3000 F2000
G1 X191 Y3002 F2000
G1 X190 Y3002 F2000
G1 X189 Y3003 F2000
G1 X184 Y3003 F2000
G1 X182 Y3001 F2000
G1 X182 Y3000 F2000
G1 X181 Y2999 F2000
G1 X181 Y2994 F2000
G1 X182 Y2993 F2000
G1 X182 Y2991 F2000
G1 X183 Y2990 F2000
G1 X183 Y2989 F2000
G1 X184 Y2988 F2000
G1 X184 Y2987 F2000
G1 X185 Y2986 F2000
G1 X185 Y2985 F2000
G1 X186 Y2984 F2000
G1 X186 Y2983 F2000
G1 X187 Y2982 F2000
G1 X187 Y2980 F2000
G1 X189 Y2978 F2000
G1 X189 Y2977 F2000
G0 Z2.0 F1000 ; Pen up
G0 X1195 Y2974 F3000
G0 Z0.0 F500 ; Pen down
G1 X1196 Y2973 F2000
G1 X1199 Y2976 F2000
G1 X1199 Y2984 F2000
G1 X1198 Y2985 F2000
G1 X1198 Y2987 F2000
G1 X1197 Y2988 F2000
G1 X1198 Y2989 F2000
G1 X1198 Y2990 F2000
G1 X1199 Y2991 F2000
G1 X1199 Y2992 F2000
G1 X1197 Y2994 F2000
G1 X1196 Y2994 F2000
G1 X1195 Y2995 F2000
G1 X1194 Y2995 F2000
G1 X1193 Y2996 F2000
G1 X1192 Y2996 F2000
G1 X1190 Y2998 F2000
G1 X1189 Y2998 F2000
G1 X1188 Y2999 F2000
G1 X1185 Y2999 F2000
G1 X1184 Y3000 F2000
G1 X1180 Y3000 F2000
G1 X1179 Y2999 F2000
G1 X1178 Y2999 F2000
G1 X1175 Y2996 F2000
G1 X1175 Y2990 F2000
G1 X1177 Y2988 F2000
G1 X1177 Y2987 F2000
G1 X1186 Y2978 F2000
G1 X1187 Y2978 F2000
G1 X1188 Y2977 F2000
G1 X1189 Y2977 F2000
G1 X1191 Y2975 F2000
G1 X1193 Y2975 F2000
G1 X1194 Y2974 F2000
G0 Z2.0 F1000 ; Pen up
G0 X1023 Y2974 F3000
G0 Z0.0 F500 ; Pen down
G1 X1023 Y2975 F2000
G1 X1024 Y2976 F2000
G1 X1024 Y2977 F2000
G1 X1023 Y2978 F2000
G1 X1022 Y2978 F2000
G1 X1024 Y2978 F2000
G1 X1024 Y2975 F2000
G0 Z2.0 F1000 ; Pen up
G0 X191 Y2974 F3000
G0 Z0.0 F500 ; Pen down
G1 X189 Y2976 F2000
G1 X189 Y2977 F2000
G1 X188 Y2978 F2000
G1 X188 Y2979 F2000
G1 X187 Y2980 F2000
G1 X187 Y2981 F2000
G1 X186 Y2982 F2000
G1 X186 Y2983 F2000
G1 X185 Y2984 F2000
G1 X185 Y2985 F2000
G1 X184 Y2986 F2000
G1 X184 Y2987 F2000
G1 X183 Y2988 F2000
G1 X183 Y2990 F2000
G1 X182 Y2991 F2000
G1 X182 Y2993 F2000
G1 X181 Y2994 F2000
G1 X181 Y2999 F2000
G1 X182 Y3000 F2000
G1 X182 Y3002 F2000
G1 X183 Y3003 F2000
G1 X189 Y3003 F2000
G1 X190 Y3002 F2000
G1 X192 Y3002 F2000
G1 X194 Y3000 F2000
G1 X195 Y3000 F2000
G1 X203 Y2992 F2000
G1 X203 Y2990 F2000
G1 X204 Y2989 F2000
G1 X204 Y2987 F2000
G1 X205 Y2986 F2000
G1 X205 Y2982 F2000
G1 X204 Y2981 F2000
G1 X204 Y2980 F2000
G1 X200 Y2976 F2000
G1 X199 Y2976 F2000
G1 X198 Y2975 F2000
G1 X196 Y2975 F2000
G1 X195 Y2974 F2000
G0 Z2.0 F1000 ; Pen up
G0 X2013 Y2972 F3000
G0 Z0.0 F500 ; Pen down
G1 X2014 Y2972 F2000
G1 X2016 Y2974 F2000
G1 X2016 Y2983 F2000
G1 X2017 Y2984 F2000
G1 X2017 Y2986 F2000
G1 X2018 Y2987 F2000
G1 X2018 Y2991 F2000
G1 X2017 Y2992 F2000
G1 X2016 Y2992 F2000
G1 X2015 Y2993 F2000
G1 X2012 Y2993 F2000
G1 X2012 Y2994 F2000
G1 X2011 Y2995 F2000
G1 X2012 Y2996 F2000
G1 X2012 Y2997 F2000
G1 X2015 Y2997 F2000
G1 X2016 Y2996 F2000
G1 X2024 Y2996 F2000
G1 X2029 Y3001 F2000
G1 X2029 Y3013 F2000
G1 X2028 Y3014 F2000
G1 X2026 Y3012 F2000
G1 X2026 Y3010 F2000
G1 X2025 Y3009 F2000
G1 X2025 Y3002 F2000
G1 X2023 Y3000 F2000
G1 X2016 Y3000 F2000
G1 X2015 Y3001 F2000
G1 X2012 Y3001 F2000
G1 X2010 Y3003 F2000
G1 X2009 Y3003 F2000
G1 X2008 Y3004 F2000
G1 X2008 Y3006 F2000
G1 X2007 Y3007 F2000
G1 X2008 Y3008 F2000
G1 X2008 Y3010 F2000
G1 X2004 Y3014 F2000
G1 X2001 Y3014 F2000
G1 X2000 Y3015 F2000
G1 X1996 Y3015 F2000
G1 X1995 Y3014 F2000
G1 X1994 Y3014 F2000
G1 X1991 Y3011 F2000
G1 X1991 Y3010 F2000
G1 X1990 Y3009 F2000
G1 X1990 Y3001 F2000
G1 X1991 Y3000 F2000
G1 X1991 Y2994 F2000
G1 X1990 Y2993 F2000
G1 X1991 Y2992 F2000
G1 X1989 Y2994 F2000
G1 X1987 Y2994 F2000
G1 X1986 Y2995 F2000
G1 X1985 Y2995 F2000
G1 X1983 Y2993 F2000
G1 X1986 Y2990 F2000
G1 X1992 Y2990 F2000
G1 X1992 Y2988 F2000
G1 X1993 Y2987 F2000
G1 X1993 Y2982 F2000
G1 X1994 Y2981 F2000
G1 X1994 Y2980 F2000
G1 X1996 Y2978 F2000
G1 X1997 Y2978 F2000
G1 X1999 Y2980 F2000
G1 X1999 Y2984 F2000
G1 X1998 Y2985 F2000
G1 X1998 Y2987 F2000
G1 X1999 Y2988 F2000
G1 X1999 Y2989 F2000
G1 X2008 Y2989 F2000
G1 X2009 Y2988 F2000
G1 X2009 Y2986 F2000
G1 X2010 Y2985 F2000
G1 X2010 Y2976 F2000
G1 X2011 Y2975 F2000
G1 X2011 Y2974 F2000
G0 Z2.0 F1000 ; Pen up
G0 X1528 Y2973 F3000
G0 Z0.0 F500 ; Pen down
G1 X1527 Y2974 F2000
G1 X1524 Y2974 F2000
G1 X1523 Y2975 F2000
G1 X1521 Y2975 F2000
G1 X1515 Y2981 F2000
G1 X1515 Y2982 F2000
G1 X1514 Y2983 F2000
G1 X1514 Y2984 F2000
G1 X1511 Y2987 F2000
G1 X1508 Y2987 F2000
G1 X1507 Y2988 F2000
G1 X1503 Y2988 F2000
G1 X1502 Y2989 F2000
G1 X1499 Y2989 F2000
G1 X1493 Y2983 F2000
G1 X1492 Y2983 F2000
G1 X1491 Y2982 F2000
G1 X1490 Y2982 F2000
G1 X1489 Y2981 F2000
G1 X1481 Y2981 F2000
G1 X1480 Y2982 F2000
G1 X1479 Y2982 F2000
G1 X1478 Y2983 F2000
G1 X1477 Y2983 F2000
G1 X1476 Y2984 F2000
G1 X1467 Y2984 F2000
G1 X1476 Y2984 F2000
G1 X1477 Y2983 F2000
G1 X1479 Y2983 F2000
G1 X1480 Y2982 F2000
G1 X1481 Y2982 F2000
G1 X1482 Y2981 F2000
G1 X1488 Y2981 F2000
G1 X1489 Y2982 F2000
G1 X1490 Y2982 F2000
G1 X1491 Y2983 F2000
G1 X1492 Y2983 F2000
G1 X1498 Y2989 F2000
G1 X1502 Y2989 F2000
G1 X1503 Y2988 F2000
G1 X1507 Y2988 F2000
G1 X1508 Y2987 F2000
G1 X1512 Y2987 F2000
G1 X1514 Y2985 F2000
G1 X1514 Y2984 F2000
G1 X1515 Y2983 F2000
G1 X1515 Y2982 F2000
G1 X1522 Y2975 F2000
G1 X1523 Y2975 F2000
G1 X1524 Y2974 F2000
G1 X1527 Y2974 F2000
G1 X1528 Y2973 F2000
G1 X1536 Y2973 F2000
G1 X1537 Y2974 F2000
G1 X1538 Y2974 F2000
G1 X1539 Y2975 F2000
G1 X1540 Y2975 F2000
G1 X1541 Y2976 F2000
G1 X1542 Y2976 F2000
G1 X1545 Y2979 F2000
G1 X1545 Y2980 F2000
G1 X1547 Y2982 F2000
G1 X1547 Y2989 F2000
G1 X1545 Y2991 F2000
G1 X1544 Y2991 F2000
G1 X1542 Y2993 F2000
G1 X1541 Y2993 F2000
G1 X1540 Y2994 F2000
G1 X1539 Y2994 F2000
G1 X1538 Y2995 F2000
G1 X1534 Y2995 F2000
G1 X1533 Y2996 F2000
G1 X1530 Y2996 F2000
G1 X1529 Y2995 F2000
G1 X1528 Y2995 F2000
G1 X1527 Y2994 F2000
G1 X1527 Y2993 F2000
G1 X1526 Y2992 F2000
G1 X1526 Y2991 F2000
G1 X1524 Y2991 F2000
G1 X1523 Y2990 F2000
G1 X1517 Y2990 F2000
G1 X1516 Y2991 F2000
G1 X1516 Y2996 F2000
G1 X1517 Y2997 F2000
G1 X1517 Y2999 F2000
G1 X1518 Y3000 F2000
G1 X1518 Y3001 F2000
G1 X1519 Y3002 F2000
G1 X1519 Y3003 F2000
G1 X1520 Y3004 F2000
G1 X1521 Y3004 F2000
G1 X1522 Y3005 F2000
G1 X1523 Y3005 F2000
G1 X1524 Y3006 F2000
G1 X1525 Y3006 F2000
G1 X1526 Y3007 F2000
G1 X1527 Y3007 F2000
G1 X1526 Y3006 F2000
G1 X1525 Y3006 F2000
G1 X1524 Y3005 F2000
G1 X1523 Y3005 F2000
G1 X1522 Y3004 F2000
G1 X1521 Y3004 F2000
G1 X1519 Y3002 F2000
G1 X1519 Y3001 F2000
G1 X1518 Y3000 F2000
G1 X1518 Y2999 F2000
G1 X1517 Y2998 F2000
G1 X1517 Y2997 F2000
G1 X1516 Y2996 F2000
G1 X1516 Y2992 F2000
G1 X1518 Y2990 F2000
G1 X1523 Y2990 F2000
G1 X1524 Y2991 F2000
G1 X1525 Y2991 F2000
G1 X1527 Y2993 F2000
G1 X1527 Y2995 F2000
G1 X1529 Y2995 F2000
G1 X1530 Y2996 F2000
G1 X1533 Y2996 F2000
G1 X1534 Y2995 F2000
G1 X1539 Y2995 F2000
G1 X1540 Y2994 F2000
G1 X1541 Y2994 F2000
G1 X1542 Y2993 F2000
G1 X1543 Y2993 F2000
G1 X1545 Y2991 F2000
G1 X1546 Y2991 F2000
G1 X1547 Y2990 F2000
G1 X1547 Y2981 F2000
G1 X1545 Y2979 F2000
G1 X1545 Y2978 F2000
G1 X1543 Y2976 F2000
G1 X1542 Y2976 F2000
G1 X1541 Y2975 F2000
G1 X1540 Y2975 F2000
G1 X1539 Y2974 F2000
G1 X1537 Y2974 F2000
G1 X1536 Y2973 F2000
G0 Z2.0 F1000 ; Pen up
G0 X1196 Y2973 F3000
G0 Z0.0 F500 ; Pen down
G1 X1195 Y2974 F2000
G1 X1193 Y2974 F2000
G1 X1192 Y2975 F2000
G1 X1190 Y2975 F2000
G1 X1187 Y2978 F2000
G1 X1185 Y2978 F2000
G1 X1177 Y2986 F2000
G1 X1177 Y2987 F2000
G1 X1176 Y2988 F2000
G1 X1176 Y2989 F2000
G1 X1175 Y2990 F2000
G1 X1175 Y2997 F2000
G1 X1177 Y2999 F2000
G1 X1179 Y2999 F2000
G1 X1180 Y3000 F2000
G1 X1184 Y3000 F2000
G1 X1185 Y2999 F2000
G1 X1188 Y2999 F2000
G1 X1189 Y2998 F2000
G1 X1191 Y2998 F2000
G1 X1193 Y2996 F2000
G1 X1194 Y2996 F2000
G1 X1195 Y2995 F2000
G1 X1196 Y2995 F2000
G1 X1197 Y2994 F2000
G1 X1198 Y2994 F2000
G1 X1199 Y2993 F2000
G1 X1199 Y2990 F2000
G1 X1197 Y2988 F2000
G1 X1198 Y2987 F2000
G1 X1198 Y2985 F2000
G1 X1199 Y2984 F2000
G1 X1199 Y2975 F2000
G1 X1198 Y2974 F2000
G1 X1197 Y2974 F2000
G0 Z2.0 F1000 ; Pen up
G0 X2012 Y2972 F3000
G0 Z0.0 F500 ; Pen down
G1 X2011 Y2973 F2000
G1 X2011 Y2975 F2000
G1 X2010 Y2976 F2000
G1 X2010 Y2985 F2000
G1 X2009 Y2986 F2000
G1 X2009 Y2987 F2000
G1 X2007 Y2989 F2000
G1 X2000 Y2989 F2000
G1 X1998 Y2987 F2000
G1 X1998 Y2985 F2000
G1 X1999 Y2984 F2000
G1 X1999 Y2979 F2000
G1 X1998 Y2978 F2000
G1 X1995 Y2978 F2000
G1 X1994 Y2979 F2000
G1 X1994 Y2981 F2000
G1 X1993 Y2982 F2000
G1 X1993 Y2987 F2000
G1 X1992 Y2988 F2000
G1 X1992 Y2989 F2000
G1 X1991 Y2990 F2000
G1 X1986 Y2990 F2000
G1 X1985 Y2991 F2000
G1 X1984 Y2991 F2000
G1 X1983 Y2992 F2000
G1 X1983 Y2994 F2000
G1 X1984 Y2995 F2000
G1 X1984 Y2996 F2000
G1 X1985 Y2995 F2000
G1 X1986 Y2996 F2000
G1 X1988 Y2994 F2000
G1 X1990 Y2994 F2000
G1 X1991 Y2995 F2000
G1 X1991 Y3000 F2000
G1 X1990 Y3001 F2000
G1 X1990 Y3009 F2000
G1 X1991 Y3010 F2000
G1 X1991 Y3012 F2000
G1 X1994 Y3015 F2000
G1 X1995 Y3014 F2000
G1 X1996 Y3015 F2000
G1 X2000 Y3015 F2000
G1 X2001 Y3014 F2000
G1 X2004 Y3014 F2000
G1 X2005 Y3013 F2000
G1 X2006 Y3013 F2000
G1 X2008 Y3011 F2000
G1 X2009 Y3011 F2000
G1 X2008 Y3010 F2000
G1 X2008 Y3008 F2000
G1 X2007 Y3007 F2000
G1 X2008 Y3006 F2000
G1 X2008 Y3005 F2000
G1 X2010 Y3003 F2000
G1 X2011 Y3003 F2000
G1 X2013 Y3001 F2000
G1 X2015 Y3001 F2000
G1 X2016 Y3000 F2000
G1 X2022 Y3000 F2000
G1 X2025 Y3003 F2000
G1 X2025 Y3009 F2000
G1 X2026 Y3010 F2000
G1 X2026 Y3013 F2000
G1 X2027 Y3014 F2000
G1 X2029 Y3014 F2000
G1 X2029 Y3000 F2000
G1 X2025 Y2996 F2000
G1 X2016 Y2996 F2000
G1 X2015 Y2997 F2000
G1 X2013 Y2997 F2000
G1 X2011 Y2995 F2000
G1 X2013 Y2993 F2000
G1 X2015 Y2993 F2000
G1 X2016 Y2992 F2000
G1 X2018 Y2992 F2000
G1 X2018 Y2987 F2000
G1 X2017 Y2986 F2000
G1 X2017 Y2984 F2000
G1 X2016 Y2983 F2000
G1 X2016 Y2973 F2000
G1 X2015 Y2972 F2000
G0 Z2.0 F1000 ; Pen up
G0 X1433 Y2971 F3000
G0 Z0.0 F500 ; Pen down
G1 X1432 Y2972 F2000
G1 X1431 Y2972 F2000
G1 X1429 Y2974 F2000
G1 X1428 Y2974 F2000
G1 X1423 Y2979 F2000
G1 X1423 Y2981 F2000
G1 X1422 Y2982 F2000
G1 X1422 Y2985 F2000
G1 X1423 Y2986 F2000
G1 X1423 Y2988 F2000
G1 X1425 Y2990 F2000
G1 X1425 Y2991 F2000
G1 X1428 Y2994 F2000
G1 X1429 Y2994 F2000
G1 X1430 Y2995 F2000
G1 X1432 Y2995 F2000
G1 X1433 Y2996 F2000
G1 X1434 Y2996 F2000
G1 X1435 Y2997 F2000
G1 X1436 Y2997 F2000
G1 X1440 Y3001 F2000
G1 X1434 Y3007 F2000
G1 X1433 Y3007 F2000
G1 X1432 Y3008 F2000
G1 X1431 Y3008 F2000
G1 X1430 Y3009 F2000
G1 X1429 Y3009 F2000
G1 X1428 Y3010 F2000
G1 X1426 Y3010 F2000
G1 X1425 Y3011 F2000
G1 X1421 Y3011 F2000
G1 X1417 Y3007 F2000
G1 X1417 Y3005 F2000
G1 X1416 Y3004 F2000
G1 X1417 Y3003 F2000
G1 X1417 Y3000 F2000
G1 X1419 Y2998 F2000
G1 X1419 Y2997 F2000
G1 X1423 Y2993 F2000
G1 X1423 Y2992 F2000
G1 X1422 Y2991 F2000
G1 X1422 Y2990 F2000
G1 X1421 Y2990 F2000
G1 X1419 Y2992 F2000
G1 X1418 Y2992 F2000
G1 X1416 Y2994 F2000
G1 X1416 Y2995 F2000
G1 X1414 Y2997 F2000
G1 X1414 Y3000 F2000
G1 X1413 Y3001 F2000
G1 X1413 Y3006 F2000
G1 X1414 Y3007 F2000
G1 X1414 Y3010 F2000
G1 X1415 Y3011 F2000
G1 X1415 Y3012 F2000
G1 X1417 Y3014 F2000
G1 X1420 Y3014 F2000
G1 X1421 Y3015 F2000
G1 X1423 Y3015 F2000
G1 X1424 Y3014 F2000
G1 X1428 Y3014 F2000
G1 X1429 Y3013 F2000
G1 X1430 Y3013 F2000
G1 X1431 Y3012 F2000
G1 X1433 Y3012 F2000
G1 X1434 Y3011 F2000
G1 X1435 Y3011 F2000
G1 X1436 Y3010 F2000
G1 X1437 Y3010 F2000
G1 X1439 Y3008 F2000
G1 X1440 Y3008 F2000
G1 X1442 Y3006 F2000
G1 X1442 Y3005 F2000
G1 X1443 Y3004 F2000
G1 X1443 Y2998 F2000
G1 X1439 Y2994 F2000
G1 X1438 Y2994 F2000
G1 X1437 Y2993 F2000
G1 X1436 Y2993 F2000
G1 X1435 Y2992 F2000
G1 X1434 Y2992 F2000
G1 X1433 Y2991 F2000
G1 X1432 Y2991 F2000
G1 X1426 Y2985 F2000
G1 X1426 Y2982 F2000
G1 X1431 Y2977 F2000
G1 X1432 Y2977 F2000
G1 X1434 Y2975 F2000
G1 X1440 Y2975 F2000
G1 X1441 Y2976 F2000
G1 X1441 Y2977 F2000
G1 X1441 Y2976 F2000
G1 X1440 Y2975 F2000
G1 X1434 Y2975 F2000
G1 X1433 Y2976 F2000
G1 X1432 Y2976 F2000
G1 X1431 Y2977 F2000
G1 X1430 Y2977 F2000
G1 X1426 Y2981 F2000
G1 X1426 Y2986 F2000
G1 X1431 Y2991 F2000
G1 X1432 Y2991 F2000
G1 X1433 Y2992 F2000
G1 X1434 Y2992 F2000
G1 X1435 Y2993 F2000
G1 X1436 Y2993 F2000
G1 X1437 Y2994 F2000
G1 X1438 Y2994 F2000
G1 X1443 Y2999 F2000
G1 X1443 Y3003 F2000
G1 X1442 Y3004 F2000
G1 X1442 Y3005 F2000
G1 X1439 Y3008 F2000
G1 X1438 Y3008 F2000
G1 X1436 Y3010 F2000
G1 X1435 Y3010 F2000
G1 X1434 Y3011 F2000
G1 X1433 Y3011 F2000
G1 X1432 Y3012 F2000
G1 X1431 Y3012 F2000
G1 X1430 Y3013 F2000
G1 X1429 Y3013 F2000
G1 X1428 Y3014 F2000
G1 X1424 Y3014 F2000
G1 X1423 Y3015 F2000
G1 X1421 Y3015 F2000
G1 X1420 Y3014 F2000
G1 X1418 Y3014 F2000
G1 X1415 Y3011 F2000
G1 X1415 Y3010 F2000
G1 X1414 Y3009 F2000
G1 X1414 Y3007 F2000
G1 X1413 Y3006 F2000
G1 X1413 Y3001 F2000
G1 X1414 Y3000 F2000
G1 X1414 Y2998 F2000
G1 X1416 Y2996 F2000
G1 X1416 Y2995 F2000
G1 X1421 Y2990 F2000
G1 X1423 Y2992 F2000
G1 X1419 Y2996 F2000
G1 X1419 Y2997 F2000
G1 X1417 Y2999 F2000
G1 X1417 Y3003 F2000
G1 X1416 Y3004 F2000
G1 X1417 Y3005 F2000
G1 X1416 Y3006 F2000
G1 X1417 Y3007 F2000
G1 X1417 Y3008 F2000
G1 X1420 Y3011 F2000
G1 X1425 Y3011 F2000
G1 X1426 Y3010 F2000
G1 X1428 Y3010 F2000
G1 X1429 Y3009 F2000
G1 X1431 Y3009 F2000
G1 X1432 Y3008 F2000
G1 X1433 Y3008 F2000
G1 X1434 Y3007 F2000
G1 X1435 Y3007 F2000
G1 X1439 Y3003 F2000
G1 X1439 Y3002 F2000
G1 X1440 Y3001 F2000
G1 X1439 Y3000 F2000
G1 X1439 Y2999 F2000
G1 X1437 Y2997 F2000
G1 X1435 Y2997 F2000
G1 X1434 Y2996 F2000
G1 X1433 Y2996 F2000
G1 X1432 Y2995 F2000
G1 X1431 Y2995 F2000
G1 X1430 Y2994 F2000
G1 X1429 Y2994 F2000
G1 X1425 Y2990 F2000
G1 X1425 Y2989 F2000
G1 X1423 Y2987 F2000
G1 X1423 Y2986 F2000
G1 X1422 Y2985 F2000
G1 X1422 Y2982 F2000
G1 X1423 Y2981 F2000
G1 X1423 Y2980 F2000
G1 X1429 Y2974 F2000
G1 X1430 Y2974 F2000
G1 X1432 Y2972 F2000
G1 X1433 Y2972 F2000
G1 X1434 Y2971 F2000
G1 X1440 Y2971 F2000
G1 X1443 Y2974 F2000
G1 X1443 Y2977 F2000
G1 X1443 Y2973 F2000
G1 X1441 Y2971 F2000
G0 Z2.0 F1000 ; Pen up
G0 X918 Y2970 F3000
G0 Z0.0 F500 ; Pen down
G1 X922 Y2970 F2000
G1 X925 Y2973 F2000
G1 X925 Y2974 F2000
G1 X926 Y2975 F2000
G1 X926 Y2977 F2000
G1 X927 Y2978 F2000
G1 X927 Y2983 F2000
G1 X924 Y2986 F2000
G1 X924 Y2987 F2000
G1 X923 Y2988 F2000
G1 X922 Y2988 F2000
G1 X918 Y2992 F2000
G1 X917 Y2992 F2000
G1 X916 Y2993 F2000
G1 X915 Y2993 F2000
G1 X914 Y2994 F2000
G1 X913 Y2994 F2000
G1 X912 Y2995 F2000
G1 X908 Y2995 F2000
G1 X907 Y2994 F2000
G1 X906 Y2994 F2000
G1 X905 Y2993 F2000
G1 X905 Y2992 F2000
G1 X904 Y2991 F2000
G1 X904 Y2983 F2000
G1 X905 Y2982 F2000
G1 X905 Y2981 F2000
G1 X913 Y2973 F2000
G1 X914 Y2973 F2000
G1 X915 Y2972 F2000
G1 X916 Y2972 F2000
G0 Z2.0 F1000 ; Pen up
G0 X732 Y2971 F3000
G0 Z0.0 F500 ; Pen down
G1 X733 Y2970 F2000
G1 X738 Y2970 F2000
G1 X741 Y2973 F2000
G1 X741 Y2978 F2000
G1 X739 Y2980 F2000
G1 X739 Y2981 F2000
G1 X733 Y2987 F2000
G1 X732 Y2987 F2000
G1 X731 Y2988 F2000
G1 X730 Y2988 F2000
G1 X729 Y2989 F2000
G1 X728 Y2989 F2000
G1 X727 Y2990 F2000
G1 X726 Y2990 F2000
G1 X725 Y2991 F2000
G1 X722 Y2991 F2000
G1 X721 Y2990 F2000
G1 X721 Y2989 F2000
G1 X720 Y2988 F2000
G1 X720 Y2983 F2000
G1 X721 Y2982 F2000
G1 X721 Y2981 F2000
G1 X722 Y2980 F2000
G1 X722 Y2979 F2000
G1 X724 Y2977 F2000
G1 X724 Y2976 F2000
G1 X725 Y2975 F2000
G1 X726 Y2975 F2000
G1 X729 Y2972 F2000
G1 X730 Y2972 F2000
G1 X731 Y2971 F2000
G0 Z2.0 F1000 ; Pen up
G0 X318 Y2970 F3000
G0 Z0.0 F500 ; Pen down
G1 X323 Y2970 F2000
G1 X325 Y2972 F2000
G1 X326 Y2972 F2000
G1 X331 Y2977 F2000
G1 X331 Y2978 F2000
G1 X332 Y2979 F2000
G1 X332 Y2994 F2000
G1 X334 Y2996 F2000
G1 X333 Y2997 F2000
G1 X330 Y2997 F2000
G1 X328 Y2995 F2000
G1 X328 Y2981 F2000
G1 X327 Y2980 F2000
G1 X327 Y2979 F2000
G1 X326 Y2978 F2000
G1 X326 Y2977 F2000
G1 X325 Y2977 F2000
G1 X322 Y2974 F2000
G1 X318 Y2974 F2000
G1 X311 Y2981 F2000
G1 X311 Y2982 F2000
G1 X310 Y2983 F2000
G1 X310 Y2988 F2000
G1 X309 Y2989 F2000
G1 X309 Y2993 F2000
G1 X308 Y2994 F2000
G1 X308 Y2997 F2000
G1 X306 Y2999 F2000
G1 X305 Y2999 F2000
G1 X303 Y2997 F2000
G1 X303 Y2994 F2000
G1 X304 Y2993 F2000
G1 X304 Y2989 F2000
G1 X305 Y2988 F2000
G1 X305 Y2986 F2000
G1 X306 Y2985 F2000
G1 X306 Y2984 F2000
G1 X307 Y2983 F2000
G1 X307 Y2982 F2000
G1 X308 Y2981 F2000
G1 X308 Y2980 F2000
G1 X310 Y2978 F2000
G1 X310 Y2977 F2000
G1 X315 Y2972 F2000
G1 X316 Y2972 F2000
G0 Z2.0 F1000 ; Pen up
G0 X289 Y2971 F3000
G0 Z0.0 F500 ; Pen down
G1 X288 Y2972 F2000
G1 X288 Y2990 F2000
G1 X287 Y2991 F2000
G1 X287 Y2995 F2000
G1 X286 Y2996 F2000
G1 X286 Y2998 F2000
G1 X285 Y2999 F2000
G1 X285 Y3003 F2000
G1 X285 Y2999 F2000
G1 X286 Y2998 F2000
G1 X286 Y2996 F2000
G1 X287 Y2995 F2000
G1 X287 Y2991 F2000
G1 X288 Y2990 F2000
G1 X288 Y2973 F2000
G1 X289 Y2972 F2000
G1 X292 Y2972 F2000
G1 X293 Y2973 F2000
G1 X293 Y2974 F2000
G1 X294 Y2975 F2000
G1 X294 Y2991 F2000
G1 X291 Y2994 F2000
G1 X291 Y2996 F2000
G1 X290 Y2997 F2000
G1 X290 Y2999 F2000
G1 X288 Y3001 F2000
G1 X288 Y3002 F2000
G1 X287 Y3003 F2000
G1 X288 Y3003 F2000
G1 X288 Y3002 F2000
G1 X289 Y3001 F2000
G1 X289 Y3000 F2000
G1 X290 Y2999 F2000
G1 X290 Y2997 F2000
G1 X291 Y2996 F2000
G1 X291 Y2995 F2000
G1 X294 Y2992 F2000
G1 X294 Y2975 F2000
G1 X293 Y2974 F2000
G1 X293 Y2972 F2000
G1 X290 Y2972 F2000
G0 Z2.0 F1000 ; Pen up
G0 X1867 Y2970 F3000
G0 Z0.0 F500 ; Pen down
G1 X1868 Y2969 F2000
G1 X1869 Y2969 F2000
G1 X1873 Y2973 F2000
G1 X1873 Y2974 F2000
G1 X1874 Y2975 F2000
G1 X1873 Y2976 F2000
G1 X1873 Y2977 F2000
G1 X1867 Y2983 F2000
G1 X1866 Y2983 F2000
G1 X1864 Y2985 F2000
G1 X1862 Y2985 F2000
G1 X1861 Y2984 F2000
G1 X1861 Y2981 F2000
G1 X1862 Y2980 F2000
G1 X1862 Y2978 F2000
G1 X1863 Y2977 F2000
G1 X1863 Y2974 F2000
G1 X1864 Y2973 F2000
G1 X1864 Y2972 F2000
G1 X1866 Y2970 F2000
G0 Z2.0 F1000 ; Pen up
G0 X1673 Y2970 F3000
G0 Z0.0 F500 ; Pen down
G1 X1671 Y2972 F2000
G1 X1671 Y2973 F2000
G1 X1670 Y2974 F2000
G1 X1670 Y2976 F2000
G1 X1669 Y2977 F2000
G1 X1669 Y2981 F2000
G1 X1668 Y2982 F2000
G1 X1668 Y2984 F2000
G1 X1666 Y2986 F2000
G1 X1663 Y2986 F2000
G1 X1662 Y2987 F2000
G1 X1653 Y2987 F2000
G1 X1652 Y2986 F2000
G1 X1652 Y2984 F2000
G1 X1654 Y2982 F2000
G1 X1654 Y2975 F2000
G1 X1653 Y2974 F2000
G1 X1652 Y2975 F2000
G1 X1651 Y2974 F2000
G1 X1650 Y2975 F2000
G1 X1650 Y2976 F2000
G1 X1649 Y2977 F2000
G1 X1649 Y2979 F2000
G1 X1648 Y2980 F2000
G1 X1648 Y2984 F2000
G1 X1647 Y2985 F2000
G1 X1647 Y2986 F2000
G1 X1646 Y2987 F2000
G1 X1646 Y2988 F2000
G1 X1645 Y2989 F2000
G1 X1645 Y2991 F2000
G1 X1644 Y2992 F2000
G1 X1644 Y2994 F2000
G1 X1643 Y2995 F2000
G1 X1643 Y2996 F2000
G1 X1642 Y2997 F2000
G1 X1642 Y3001 F2000
G1 X1641 Y3002 F2000
G1 X1641 Y3006 F2000
G1 X1642 Y3007 F2000
G1 X1642 Y3009 F2000
G1 X1644 Y3011 F2000
G1 X1645 Y3011 F2000
G1 X1646 Y3012 F2000
G1 X1658 Y3012 F2000
G1 X1659 Y3011 F2000
G1 X1660 Y3011 F2000
G1 X1661 Y3012 F2000
G1 X1665 Y3012 F2000
G1 X1666 Y3011 F2000
G1 X1666 Y3010 F2000
G1 X1667 Y3009 F2000
G1 X1667 Y3008 F2000
G1 X1668 Y3007 F2000
G1 X1668 Y3006 F2000
G1 X1672 Y3002 F2000
G1 X1673 Y3002 F2000
G1 X1674 Y3001 F2000
G1 X1676 Y3001 F2000
G1 X1677 Y3000 F2000
G1 X1679 Y3000 F2000
G1 X1680 Y2999 F2000
G1 X1682 Y2999 F2000
G1 X1683 Y2998 F2000
G1 X1685 Y2998 F2000
G1 X1686 Y2997 F2000
G1 X1689 Y2997 F2000
G1 X1692 Y3000 F2000
G1 X1692 Y3006 F2000
G1 X1691 Y3007 F2000
G1 X1691 Y3011 F2000
G1 X1690 Y3012 F2000
G1 X1690 Y3014 F2000
G1 X1690 Y3012 F2000
G1 X1691 Y3011 F2000
G1 X1691 Y3007 F2000
G1 X1692 Y3006 F2000
G1 X1692 Y3000 F2000
G1 X1691 Y2999 F2000
G1 X1691 Y2998 F2000
G1 X1690 Y2998 F2000
G1 X1689 Y2997 F2000
G1 X1686 Y2997 F2000
G1 X1685 Y2998 F2000
G1 X1683 Y2998 F2000
G1 X1682 Y2999 F2000
G1 X1680 Y2999 F2000
G1 X1679 Y3000 F2000
G1 X1677 Y3000 F2000
G1 X1676 Y3001 F2000
G1 X1673 Y3001 F2000
G1 X1672 Y3002 F2000
G1 X1671 Y3002 F2000
G1 X1668 Y3005 F2000
G1 X1668 Y3006 F2000
G1 X1667 Y3007 F2000
G1 X1667 Y3008 F2000
G1 X1666 Y3009 F2000
G1 X1666 Y3010 F2000
G1 X1664 Y3012 F2000
G1 X1661 Y3012 F2000
G1 X1660 Y3011 F2000
G1 X1659 Y3011 F2000
G1 X1658 Y3012 F2000
G1 X1647 Y3012 F2000
G1 X1646 Y3011 F2000
G1 X1645 Y3011 F2000
G1 X1642 Y3008 F2000
G1 X1642 Y3007 F2000
G1 X1641 Y3006 F2000
G1 X1641 Y3002 F2000
G1 X1642 Y3001 F2000
G1 X1642 Y2997 F2000
G1 X1643 Y2996 F2000
G1 X1643 Y2995 F2000
G1 X1644 Y2994 F2000
G1 X1644 Y2992 F2000
G1 X1645 Y2991 F2000
G1 X1645 Y2990 F2000
G1 X1646 Y2989 F2000
G1 X1646 Y2988 F2000
G1 X1647 Y2987 F2000
G1 X1647 Y2985 F2000
G1 X1648 Y2984 F2000
G1 X1648 Y2980 F2000
G1 X1649 Y2979 F2000
G1 X1649 Y2978 F2000
G1 X1650 Y2977 F2000
G1 X1650 Y2976 F2000
G1 X1651 Y2975 F2000
G1 X1653 Y2975 F2000
G1 X1654 Y2976 F2000
G1 X1654 Y2981 F2000
G1 X1653 Y2982 F2000
G1 X1653 Y2983 F2000
G1 X1652 Y2984 F2000
G1 X1652 Y2987 F2000
G1 X1662 Y2987 F2000
G1 X1663 Y2986 F2000
G1 X1667 Y2986 F2000
G1 X1668 Y2985 F2000
G1 X1668 Y2982 F2000
G1 X1669 Y2981 F2000
G1 X1669 Y2977 F2000
G1 X1670 Y2976 F2000
G1 X1670 Y2975 F2000
G1 X1671 Y2974 F2000
G1 X1671 Y2973 F2000
G1 X1674 Y2970 F2000
G1 X1675 Y2970 F2000
G1 X1677 Y2972 F2000
G1 X1677 Y2973 F2000
G1 X1678 Y2974 F2000
G1 X1678 Y2981 F2000
G1 X1679 Y2982 F2000
G1 X1678 Y2983 F2000
G1 X1678 Y2984 F2000
G1 X1675 Y2987 F2000
G1 X1673 Y2987 F2000
G1 X1670 Y2990 F2000
G1 X1670 Y2993 F2000
G1 X1669 Y2994 F2000
G1 X1669 Y2995 F2000
G1 X1668 Y2996 F2000
G1 X1670 Y2998 F2000
G1 X1671 Y2998 F2000
G1 X1674 Y2995 F2000
G1 X1679 Y2995 F2000
G1 X1680 Y2994 F2000
G1 X1683 Y2994 F2000
G1 X1684 Y2993 F2000
G1 X1689 Y2993 F2000
G1 X1690 Y2994 F2000
G1 X1692 Y2994 F2000
G1 X1695 Y2997 F2000
G1 X1695 Y2998 F2000
G1 X1696 Y2999 F2000
G1 X1696 Y3002 F2000
G1 X1695 Y3003 F2000
G1 X1695 Y3009 F2000
G1 X1694 Y3010 F2000
G1 X1694 Y3011 F2000
G1 X1693 Y3012 F2000
G1 X1693 Y3013 F2000
G1 X1692 Y3014 F2000
G1 X1692 Y3016 F2000
G1 X1692 Y3015 F2000
G1 X1693 Y3014 F2000
G1 X1693 Y3013 F2000
G1 X1694 Y3012 F2000
G1 X1694 Y3010 F2000
G1 X1695 Y3009 F2000
G1 X1695 Y3003 F2000
G1 X1696 Y3002 F2000
G1 X1696 Y2999 F2000
G1 X1695 Y2998 F2000
G1 X1695 Y2996 F2000
G1 X1693 Y2994 F2000
G1 X1690 Y2994 F2000
G1 X1689 Y2993 F2000
G1 X1684 Y2993 F2000
G1 X1683 Y2994 F2000
G1 X1680 Y2994 F2000
G1 X1679 Y2995 F2000
G1 X1674 Y2995 F2000
G1 X1673 Y2996 F2000
G1 X1672 Y2996 F2000
G1 X1670 Y2998 F2000
G1 X1668 Y2996 F2000
G1 X1669 Y2995 F2000
G1 X1669 Y2994 F2000
G1 X1670 Y2993 F2000
G1 X1670 Y2991 F2000
G1 X1674 Y2987 F2000
G1 X1676 Y2987 F2000
G1 X1678 Y2985 F2000
G1 X1678 Y2983 F2000
G1 X1679 Y2982 F2000
G1 X1678 Y2981 F2000
G1 X1678 Y2974 F2000
G1 X1677 Y2973 F2000
G1 X1677 Y2971 F2000
G1 X1676 Y2970 F2000
G0 Z2.0 F1000 ; Pen up
G0 X918 Y2970 F3000
G0 Z0.0 F500 ; Pen down
G1 X917 Y2971 F2000
G1 X916 Y2971 F2000
G1 X915 Y2972 F2000
G1 X914 Y2972 F2000
G1 X913 Y2973 F2000
G1 X912 Y2973 F2000
G1 X905 Y2980 F2000
G1 X905 Y2982 F2000
G1 X904 Y2983 F2000
G1 X904 Y2992 F2000
G1 X905 Y2993 F2000
G1 X905 Y2994 F2000
G1 X907 Y2994 F2000
G1 X908 Y2995 F2000
G1 X912 Y2995 F2000
G1 X913 Y2994 F2000
G1 X915 Y2994 F2000
G1 X916 Y2993 F2000
G1 X917 Y2993 F2000
G1 X918 Y2992 F2000
G1 X919 Y2992 F2000
G1 X923 Y2988 F2000
G1 X924 Y2988 F2000
G1 X924 Y2987 F2000
G1 X926 Y2985 F2000
G1 X926 Y2984 F2000
G1 X927 Y2983 F2000
G1 X927 Y2978 F2000
G1 X926 Y2977 F2000
G1 X926 Y2975 F2000
G1 X925 Y2974 F2000
G1 X925 Y2972 F2000
G1 X923 Y2970 F2000
G0 Z2.0 F1000 ; Pen up
G0 X733 Y2970 F3000
G0 Z0.0 F500 ; Pen down
G1 X732 Y2971 F2000
G1 X730 Y2971 F2000
G1 X728 Y2973 F2000
G1 X727 Y2973 F2000
G1 X725 Y2975 F2000
G1 X724 Y2975 F2000
G1 X724 Y2976 F2000
G1 X722 Y2978 F2000
G1 X722 Y2979 F2000
G1 X721 Y2980 F2000
G1 X721 Y2982 F2000
G1 X720 Y2983 F2000
G1 X720 Y2988 F2000
G1 X721 Y2989 F2000
G1 X721 Y2991 F2000
G1 X725 Y2991 F2000
G1 X726 Y2990 F2000
G1 X728 Y2990 F2000
G1 X729 Y2989 F2000
G1 X730 Y2989 F2000
G1 X731 Y2988 F2000
G1 X732 Y2988 F2000
G1 X733 Y2987 F2000
G1 X734 Y2987 F2000
G1 X739 Y2982 F2000
G1 X739 Y2981 F2000
G1 X740 Y2980 F2000
G1 X740 Y2979 F2000
G1 X741 Y2978 F2000
G1 X741 Y2973 F2000
G1 X740 Y2972 F2000
G1 X740 Y2971 F2000
G1 X739 Y2970 F2000
G0 Z2.0 F1000 ; Pen up
G0 X318 Y2970 F3000
G0 Z0.0 F500 ; Pen down
G1 X317 Y2971 F2000
G1 X316 Y2971 F2000
G1 X315 Y2972 F2000
G1 X314 Y2972 F2000
G1 X310 Y2976 F2000
G1 X310 Y2977 F2000
G1 X308 Y2979 F2000
G1 X308 Y2980 F2000
G1 X307 Y2981 F2000
G1 X307 Y2982 F2000
G1 X306 Y2983 F2000
G1 X306 Y2985 F2000
G1 X305 Y2986 F2000
G1 X305 Y2988 F2000
G1 X304 Y2989 F2000
G1 X304 Y2993 F2000
G1 X303 Y2994 F2000
G1 X303 Y2997 F2000
G1 X304 Y2998 F2000
G1 X304 Y3000 F2000
G1 X305 Y2999 F2000
G1 X306 Y3000 F2000
G1 X308 Y2998 F2000
G1 X308 Y2994 F2000
G1 X309 Y2993 F2000
G1 X309 Y2989 F2000
G1 X310 Y2988 F2000
G1 X310 Y2984 F2000
G1 X311 Y2983 F2000
G1 X311 Y2982 F2000
G1 X319 Y2974 F2000
G1 X321 Y2974 F2000
G1 X324 Y2977 F2000
G1 X325 Y2977 F2000
G1 X326 Y2978 F2000
G1 X326 Y2979 F2000
G1 X328 Y2981 F2000
G1 X328 Y2996 F2000
G1 X329 Y2997 F2000
G1 X334 Y2997 F2000
G1 X334 Y2995 F2000
G1 X332 Y2993 F2000
G1 X332 Y2979 F2000
G1 X331 Y2978 F2000
G1 X331 Y2976 F2000
G1 X327 Y2972 F2000
G1 X326 Y2972 F2000
G1 X325 Y2971 F2000
G1 X324 Y2971 F2000
G1 X323 Y2970 F2000
G0 Z2.0 F1000 ; Pen up
G0 X1194 Y2969 F3000
G0 Z0.0 F500 ; Pen down
G1 X1193 Y2970 F2000
G1 X1191 Y2970 F2000
G1 X1190 Y2971 F2000
G1 X1189 Y2971 F2000
G1 X1188 Y2972 F2000
G1 X1187 Y2972 F2000
G1 X1185 Y2974 F2000
G1 X1184 Y2974 F2000
G1 X1181 Y2977 F2000
G1 X1180 Y2977 F2000
G1 X1175 Y2982 F2000
G1 X1175 Y2983 F2000
G1 X1173 Y2985 F2000
G1 X1173 Y2986 F2000
G1 X1172 Y2987 F2000
G1 X1172 Y2989 F2000
G1 X1171 Y2990 F2000
G1 X1171 Y2997 F2000
G1 X1172 Y2998 F2000
G1 X1172 Y3000 F2000
G1 X1174 Y3002 F2000
G1 X1175 Y3002 F2000
G1 X1176 Y3003 F2000
G1 X1178 Y3003 F2000
G1 X1179 Y3004 F2000
G1 X1186 Y3004 F2000
G1 X1187 Y3003 F2000
G1 X1189 Y3003 F2000
G1 X1190 Y3002 F2000
G1 X1191 Y3002 F2000
G1 X1192 Y3001 F2000
G1 X1193 Y3001 F2000
G1 X1194 Y3000 F2000
G1 X1195 Y3000 F2000
G1 X1196 Y2999 F2000
G1 X1197 Y2999 F2000
G1 X1199 Y2997 F2000
G1 X1202 Y3000 F2000
G1 X1207 Y3000 F2000
G1 X1203 Y3000 F2000
G1 X1201 Y2998 F2000
G1 X1200 Y2998 F2000
G1 X1199 Y2997 F2000
G1 X1198 Y2998 F2000
G1 X1197 Y2998 F2000
G1 X1196 Y2999 F2000
G1 X1195 Y2999 F2000
G1 X1194 Y3000 F2000
G1 X1193 Y3000 F2000
G1 X1192 Y3001 F2000
G1 X1191 Y3001 F2000
G1 X1190 Y3002 F2000
G1 X1189 Y3002 F2000
G1 X1188 Y3003 F2000
G1 X1187 Y3003 F2000
G1 X1186 Y3004 F2000
G1 X1179 Y3004 F2000
G1 X1178 Y3003 F2000
G1 X1177 Y3003 F2000
G1 X1176 Y3002 F2000
G1 X1175 Y3002 F2000
G1 X1172 Y2999 F2000
G1 X1172 Y2998 F2000
G1 X1171 Y2997 F2000
G1 X1171 Y2990 F2000
G1 X1172 Y2989 F2000
G1 X1172 Y2988 F2000
G1 X1173 Y2987 F2000
G1 X1173 Y2986 F2000
G1 X1175 Y2984 F2000
G1 X1175 Y2983 F2000
G1 X1182 Y2976 F2000
G1 X1183 Y2976 F2000
G1 X1185 Y2974 F2000
G1 X1186 Y2974 F2000
G1 X1188 Y2972 F2000
G1 X1189 Y2972 F2000
G1 X1190 Y2971 F2000
G1 X1191 Y2971 F2000
G1 X1192 Y2970 F2000
G1 X1193 Y2970 F2000
G1 X1194 Y2969 F2000
G1 X1198 Y2969 F2000
G1 X1202 Y2973 F2000
G1 X1202 Y2974 F2000
G1 X1203 Y2975 F2000
G1 X1203 Y2977 F2000
G1 X1204 Y2978 F2000
G1 X1206 Y2978 F2000
G1 X1207 Y2979 F2000
G1 X1207 Y2980 F2000
G1 X1208 Y2981 F2000
G1 X1208 Y2986 F2000
G1 X1207 Y2987 F2000
G1 X1207 Y2988 F2000
G1 X1206 Y2989 F2000
G1 X1206 Y2990 F2000
G1 X1203 Y2993 F2000
G1 X1203 Y2996 F2000
G1 X1205 Y2998 F2000
G1 X1207 Y2998 F2000
G1 X1206 Y2998 F2000
G1 X1203 Y2995 F2000
G1 X1203 Y2994 F2000
G1 X1206 Y2991 F2000
G1 X1206 Y2990 F2000
G1 X1207 Y2989 F2000
G1 X1207 Y2987 F2000
G1 X1208 Y2986 F2000
G1 X1208 Y2980 F2000
G1 X1207 Y2979 F2000
G1 X1207 Y2978 F2000
G1 X1205 Y2978 F2000
G1 X1203 Y2976 F2000
G1 X1203 Y2975 F2000
G1 X1202 Y2974 F2000
G1 X1202 Y2972 F2000
G1 X1199 Y2969 F2000
G0 Z2.0 F1000 ; Pen up
G0 X869 Y2969 F3000
G0 Z0.0 F500 ; Pen down
G1 X870 Y2968 F2000
G1 X871 Y2968 F2000
G1 X873 Y2970 F2000
G1 X873 Y2972 F2000
G1 X874 Y2973 F2000
G1 X874 Y2976 F2000
G1 X875 Y2977 F2000
G1 X875 Y2979 F2000
G1 X876 Y2980 F2000
G1 X876 Y2985 F2000
G1 X877 Y2986 F2000
G1 X877 Y2996 F2000
G1 X879 Y2996 F2000
G1 X879 Y2995 F2000
G1 X880 Y2994 F2000
G1 X880 Y2992 F2000
G1 X881 Y2991 F2000
G1 X881 Y2990 F2000
G1 X883 Y2988 F2000
G1 X883 Y2987 F2000
G1 X884 Y2986 F2000
G1 X884 Y2985 F2000
G1 X886 Y2983 F2000
G1 X886 Y2982 F2000
G1 X888 Y2980 F2000
G1 X888 Y2979 F2000
G1 X889 Y2978 F2000
G1 X889 Y2977 F2000
G1 X890 Y2976 F2000
G1 X890 Y2975 F2000
G1 X891 Y2974 F2000
G1 X891 Y2972 F2000
G1 X892 Y2971 F2000
G1 X892 Y2970 F2000
G1 X894 Y2968 F2000
G1 X896 Y2970 F2000
G1 X896 Y2973 F2000
G1 X895 Y2974 F2000
G1 X895 Y2975 F2000
G1 X893 Y2977 F2000
G1 X893 Y2978 F2000
G1 X891 Y2980 F2000
G1 X891 Y2981 F2000
G1 X889 Y2983 F2000
G1 X889 Y2984 F2000
G1 X888 Y2985 F2000
G1 X888 Y2986 F2000
G1 X886 Y2988 F2000
G1 X886 Y2989 F2000
G1 X885 Y2990 F2000
G1 X885 Y2991 F2000
G1 X883 Y2993 F2000
G1 X883 Y2994 F2000
G1 X882 Y2995 F2000
G1 X882 Y2996 F2000
G1 X881 Y2997 F2000
G1 X881 Y2998 F2000
G1 X880 Y2999 F2000
G1 X880 Y3000 F2000
G1 X878 Y3002 F2000
G1 X876 Y3002 F2000
G1 X875 Y3003 F2000
G1 X873 Y3001 F2000
G1 X873 Y2988 F2000
G1 X872 Y2987 F2000
G1 X872 Y2984 F2000
G1 X871 Y2983 F2000
G1 X871 Y2982 F2000
G1 X870 Y2981 F2000
G1 X870 Y2976 F2000
G1 X869 Y2975 F2000
G0 Z2.0 F1000 ; Pen up
G0 X869 Y2968 F3000
G0 Z0.0 F500 ; Pen down
G1 X869 Y2975 F2000
G1 X870 Y2976 F2000
G1 X870 Y2981 F2000
G1 X871 Y2982 F2000
G1 X871 Y2984 F2000
G1 X872 Y2985 F2000
G1 X872 Y2987 F2000
G1 X873 Y2988 F2000
G1 X873 Y3002 F2000
G1 X874 Y3003 F2000
G1 X875 Y3003 F2000
G1 X876 Y3004 F2000
G1 X876 Y3003 F2000
G1 X877 Y3002 F2000
G1 X879 Y3002 F2000
G1 X880 Y3001 F2000
G1 X880 Y3000 F2000
G1 X881 Y2999 F2000
G1 X881 Y2998 F2000
G1 X882 Y2997 F2000
G1 X882 Y2996 F2000
G1 X883 Y2995 F2000
G1 X883 Y2994 F2000
G1 X885 Y2992 F2000
G1 X885 Y2991 F2000
G1 X886 Y2990 F2000
G1 X886 Y2989 F2000
G1 X888 Y2987 F2000
G1 X888 Y2986 F2000
G1 X889 Y2985 F2000
G1 X889 Y2984 F2000
G1 X891 Y2982 F2000
G1 X891 Y2981 F2000
G1 X893 Y2979 F2000
G1 X893 Y2978 F2000
G1 X895 Y2976 F2000
G1 X895 Y2975 F2000
G1 X896 Y2974 F2000
G1 X896 Y2969 F2000
G1 X895 Y2968 F2000
G1 X893 Y2968 F2000
G1 X892 Y2969 F2000
G1 X892 Y2971 F2000
G1 X891 Y2972 F2000
G1 X891 Y2974 F2000
G1 X889 Y2976 F2000
G1 X889 Y2977 F2000
G1 X888 Y2978 F2000
G1 X888 Y2979 F2000
G1 X886 Y2981 F2000
G1 X886 Y2982 F2000
G1 X884 Y2984 F2000
G1 X884 Y2985 F2000
G1 X883 Y2986 F2000
G1 X883 Y2987 F2000
G1 X881 Y2989 F2000
G1 X881 Y2991 F2000
G1 X880 Y2992 F2000
G1 X880 Y2993 F2000
G1 X879 Y2994 F2000
G1 X879 Y2995 F2000
G1 X878 Y2996 F2000
G1 X877 Y2995 F2000
G1 X877 Y2986 F2000
G1 X876 Y2985 F2000
G1 X876 Y2980 F2000
G1 X875 Y2979 F2000
G1 X875 Y2977 F2000
G1 X874 Y2976 F2000
G1 X874 Y2973 F2000
G1 X873 Y2972 F2000
G1 X873 Y2969 F2000
G1 X872 Y2968 F2000
G0 Z2.0 F1000 ; Pen up
G0 X379 Y2968 F3000
G0 Z0.0 F500 ; Pen down
G1 X378 Y2969 F2000
G1 X376 Y2969 F2000
G1 X375 Y2970 F2000
G1 X375 Y2976 F2000
G1 X376 Y2977 F2000
G1 X376 Y2978 F2000
G1 X379 Y2981 F2000
G1 X379 Y2982 F2000
G1 X380 Y2981 F2000
G1 X381 Y2981 F2000
G1 X382 Y2980 F2000
G1 X381 Y2979 F2000
G1 X381 Y2978 F2000
G1 X380 Y2977 F2000
G1 X380 Y2975 F2000
G1 X382 Y2973 F2000
G1 X386 Y2973 F2000
G1 X388 Y2975 F2000
G1 X388 Y2977 F2000
G1 X386 Y2979 F2000
G1 X386 Y2980 F2000
G1 X385 Y2981 F2000
G1 X385 Y2982 F2000
G1 X384 Y2983 F2000
G1 X384 Y2985 F2000
G1 X383 Y2986 F2000
G1 X383 Y2992 F2000
G1 X384 Y2993 F2000
G1 X385 Y2992 F2000
G1 X386 Y2993 F2000
G1 X390 Y2989 F2000
G1 X390 Y2988 F2000
G1 X391 Y2987 F2000
G1 X391 Y2986 F2000
G1 X392 Y2985 F2000
G1 X392 Y2983 F2000
G1 X393 Y2982 F2000
G1 X393 Y2979 F2000
G1 X394 Y2978 F2000
G1 X394 Y2977 F2000
G1 X396 Y2975 F2000
G1 X397 Y2975 F2000
G1 X398 Y2974 F2000
G1 X399 Y2974 F2000
G1 X400 Y2973 F2000
G1 X403 Y2973 F2000
G1 X404 Y2972 F2000
G1 X409 Y2972 F2000
G1 X404 Y2972 F2000
G1 X403 Y2973 F2000
G1 X399 Y2973 F2000
G1 X398 Y2974 F2000
G1 X397 Y2974 F2000
G1 X395 Y2976 F2000
G1 X394 Y2976 F2000
G1 X394 Y2978 F2000
G1 X393 Y2979 F2000
G1 X393 Y2982 F2000
G1 X392 Y2983 F2000
G1 X392 Y2985 F2000
G1 X390 Y2987 F2000
G1 X390 Y2988 F2000
G1 X386 Y2992 F2000
G1 X384 Y2992 F2000
G1 X383 Y2991 F2000
G1 X383 Y2986 F2000
G1 X384 Y2985 F2000
G1 X384 Y2984 F2000
G1 X385 Y2983 F2000
G1 X385 Y2981 F2000
G1 X388 Y2978 F2000
G1 X388 Y2974 F2000
G1 X387 Y2973 F2000
G1 X381 Y2973 F2000
G1 X380 Y2974 F2000
G1 X380 Y2977 F2000
G1 X378 Y2979 F2000
G1 X375 Y2976 F2000
G1 X375 Y2971 F2000
G1 X377 Y2969 F2000
G1 X378 Y2969 F2000
G1 X379 Y2968 F2000
G1 X385 Y2968 F2000
G1 X386 Y2969 F2000
G1 X387 Y2969 F2000
G1 X388 Y2970 F2000
G1 X389 Y2970 F2000
G1 X391 Y2972 F2000
G1 X395 Y2972 F2000
G1 X396 Y2971 F2000
G1 X397 Y2971 F2000
G1 X398 Y2970 F2000
G1 X401 Y2970 F2000
G1 X402 Y2969 F2000
G1 X410 Y2969 F2000
G1 X402 Y2969 F2000
G1 X401 Y2970 F2000
G1 X398 Y2970 F2000
G1 X397 Y2971 F2000
G1 X396 Y2971 F2000
G1 X395 Y2972 F2000
G1 X392 Y2972 F2000
G1 X390 Y2970 F2000
G1 X389 Y2970 F2000
G1 X388 Y2969 F2000
G1 X386 Y2969 F2000
G1 X385 Y2968 F2000
G0 Z2.0 F1000 ; Pen up
G0 X1868 Y2967 F3000
G0 Z0.0 F500 ; Pen down
G1 X1868 Y2969 F2000
G1 X1867 Y2970 F2000
G1 X1866 Y2969 F2000
G1 X1865 Y2970 F2000
G1 X1865 Y2971 F2000
G1 X1864 Y2972 F2000
G1 X1864 Y2973 F2000
G1 X1863 Y2974 F2000
G1 X1863 Y2977 F2000
G1 X1862 Y2978 F2000
G1 X1862 Y2980 F2000
G1 X1861 Y2981 F2000
G1 X1861 Y2985 F2000
G1 X1864 Y2985 F2000
G1 X1865 Y2984 F2000
G1 X1866 Y2984 F2000
G1 X1867 Y2983 F2000
G1 X1868 Y2983 F2000
G1 X1874 Y2977 F2000
G1 X1873 Y2976 F2000
G1 X1874 Y2975 F2000
G1 X1873 Y2974 F2000
G1 X1873 Y2972 F2000
G1 X1870 Y2969 F2000
G1 X1869 Y2969 F2000
G1 X1868 Y2968 F2000
G0 Z2.0 F1000 ; Pen up
G0 X454 Y2967 F3000
G0 Z0.0 F500 ; Pen down
G1 X455 Y2966 F2000
G1 X456 Y2966 F2000
G1 X457 Y2967 F2000
G1 X458 Y2967 F2000
G1 X462 Y2971 F2000
G1 X462 Y2975 F2000
G1 X461 Y2976 F2000
G1 X461 Y2979 F2000
G1 X460 Y2980 F2000
G1 X460 Y2984 F2000
G1 X455 Y2989 F2000
G1 X454 Y2989 F2000
G1 X452 Y2991 F2000
G1 X449 Y2991 F2000
G1 X448 Y2992 F2000
G1 X446 Y2992 F2000
G1 X445 Y2991 F2000
G1 X443 Y2991 F2000
G1 X441 Y2989 F2000
G1 X441 Y2987 F2000
G1 X440 Y2986 F2000
G1 X440 Y2985 F2000
G1 X441 Y2984 F2000
G1 X441 Y2980 F2000
G1 X443 Y2978 F2000
G1 X443 Y2977 F2000
G1 X453 Y2967 F2000
G0 Z2.0 F1000 ; Pen up
G0 X1464 Y2966 F3000
G0 Z0.0 F500 ; Pen down
G1 X1464 Y2967 F2000
G1 X1463 Y2968 F2000
G1 X1463 Y2971 F2000
G1 X1462 Y2972 F2000
G1 X1462 Y2976 F2000
G1 X1461 Y2977 F2000
G1 X1461 Y2982 F2000
G1 X1460 Y2983 F2000
G1 X1460 Y2984 F2000
G1 X1458 Y2986 F2000
G1 X1449 Y2986 F2000
G1 X1449 Y2989 F2000
G1 X1450 Y2990 F2000
G1 X1457 Y2990 F2000
G1 X1458 Y2991 F2000
G1 X1458 Y2993 F2000
G1 X1457 Y2994 F2000
G1 X1457 Y2998 F2000
G1 X1456 Y2999 F2000
G1 X1456 Y3003 F2000
G1 X1455 Y3004 F2000
G1 X1455 Y3007 F2000
G1 X1456 Y3008 F2000
G1 X1456 Y3010 F2000
G1 X1457 Y3011 F2000
G1 X1459 Y3011 F2000
G1 X1460 Y3012 F2000
G1 X1462 Y3012 F2000
G1 X1463 Y3011 F2000
G1 X1468 Y3011 F2000
G1 X1469 Y3010 F2000
G1 X1472 Y3010 F2000
G1 X1473 Y3009 F2000
G1 X1475 Y3009 F2000
G1 X1476 Y3008 F2000
G1 X1477 Y3008 F2000
G1 X1478 Y3007 F2000
G1 X1479 Y3007 F2000
G1 X1481 Y3005 F2000
G1 X1481 Y3002 F2000
G1 X1479 Y3002 F2000
G1 X1478 Y3003 F2000
G1 X1477 Y3003 F2000
G1 X1475 Y3005 F2000
G1 X1473 Y3005 F2000
G1 X1472 Y3006 F2000
G1 X1469 Y3006 F2000
G1 X1468 Y3007 F2000
G1 X1466 Y3007 F2000
G1 X1465 Y3008 F2000
G1 X1461 Y3008 F2000
G1 X1460 Y3007 F2000
G1 X1460 Y2999 F2000
G1 X1461 Y2998 F2000
G1 X1461 Y2995 F2000
G1 X1462 Y2994 F2000
G1 X1462 Y2992 F2000
G1 X1466 Y2988 F2000
G1 X1468 Y2988 F2000
G1 X1469 Y2987 F2000
G1 X1479 Y2987 F2000
G1 X1480 Y2986 F2000
G1 X1486 Y2986 F2000
G1 X1487 Y2985 F2000
G1 X1488 Y2985 F2000
G1 X1493 Y2990 F2000
G1 X1493 Y2992 F2000
G1 X1491 Y2994 F2000
G1 X1491 Y2995 F2000
G1 X1489 Y2997 F2000
G1 X1489 Y2998 F2000
G1 X1488 Y2999 F2000
G1 X1488 Y3003 F2000
G1 X1487 Y3004 F2000
G1 X1487 Y3006 F2000
G1 X1488 Y3007 F2000
G1 X1488 Y3009 F2000
G1 X1493 Y3009 F2000
G1 X1497 Y3005 F2000
G1 X1497 Y3002 F2000
G1 X1498 Y3001 F2000
G1 X1498 Y2998 F2000
G1 X1499 Y2997 F2000
G1 X1499 Y2996 F2000
G1 X1503 Y2992 F2000
G1 X1504 Y2992 F2000
G1 X1505 Y2991 F2000
G1 X1511 Y2991 F2000
G1 X1512 Y2992 F2000
G1 X1512 Y2996 F2000
G1 X1513 Y2997 F2000
G1 X1513 Y2999 F2000
G1 X1514 Y3000 F2000
G1 X1514 Y3002 F2000
G1 X1515 Y3003 F2000
G1 X1515 Y3004 F2000
G1 X1518 Y3007 F2000
G1 X1519 Y3007 F2000
G1 X1520 Y3008 F2000
G1 X1522 Y3008 F2000
G1 X1523 Y3009 F2000
G1 X1526 Y3009 F2000
G1 X1523 Y3009 F2000
G1 X1522 Y3008 F2000
G1 X1521 Y3008 F2000
G1 X1520 Y3007 F2000
G1 X1519 Y3007 F2000
G1 X1515 Y3003 F2000
G1 X1515 Y3002 F2000
G1 X1514 Y3001 F2000
G1 X1514 Y3000 F2000
G1 X1513 Y2999 F2000
G1 X1513 Y2997 F2000
G1 X1512 Y2996 F2000
G1 X1512 Y2991 F2000
G1 X1511 Y2990 F2000
G1 X1511 Y2989 F2000
G1 X1511 Y2990 F2000
G1 X1510 Y2991 F2000
G1 X1505 Y2991 F2000
G1 X1504 Y2992 F2000
G1 X1502 Y2992 F2000
G1 X1499 Y2995 F2000
G1 X1499 Y2997 F2000
G1 X1498 Y2998 F2000
G1 X1498 Y3001 F2000
G1 X1497 Y3002 F2000
G1 X1497 Y3004 F2000
G1 X1492 Y3009 F2000
G1 X1489 Y3009 F2000
G1 X1488 Y3008 F2000
G1 X1488 Y3007 F2000
G1 X1487 Y3006 F2000
G1 X1487 Y3004 F2000
G1 X1488 Y3003 F2000
G1 X1488 Y3000 F2000
G1 X1489 Y2999 F2000
G1 X1489 Y2998 F2000
G1 X1491 Y2996 F2000
G1 X1491 Y2995 F2000
G1 X1493 Y2993 F2000
G1 X1493 Y2989 F2000
G1 X1490 Y2986 F2000
G1 X1489 Y2986 F2000
G1 X1488 Y2985 F2000
G1 X1487 Y2985 F2000
G1 X1486 Y2986 F2000
G1 X1480 Y2986 F2000
G1 X1479 Y2987 F2000
G1 X1469 Y2987 F2000
G1 X1468 Y2988 F2000
G1 X1465 Y2988 F2000
G1 X1463 Y2990 F2000
G1 X1463 Y2991 F2000
G1 X1462 Y2992 F2000
G1 X1462 Y2994 F2000
G1 X1461 Y2995 F2000
G1 X1461 Y2998 F2000
G1 X1460 Y2999 F2000
G1 X1460 Y3008 F2000
G1 X1465 Y3008 F2000
G1 X1466 Y3007 F2000
G1 X1469 Y3007 F2000
G1 X1470 Y3006 F2000
G1 X1472 Y3006 F2000
G1 X1473 Y3005 F2000
G1 X1475 Y3005 F2000
G1 X1476 Y3004 F2000
G1 X1477 Y3004 F2000
G1 X1479 Y3002 F2000
G1 X1480 Y3002 F2000
G1 X1481 Y3003 F2000
G1 X1481 Y3004 F2000
G1 X1478 Y3007 F2000
G1 X1477 Y3007 F2000
G1 X1476 Y3008 F2000
G1 X1475 Y3008 F2000
G1 X1474 Y3009 F2000
G1 X1473 Y3009 F2000
G1 X1472 Y3010 F2000
G1 X1469 Y3010 F2000
G1 X1468 Y3011 F2000
G1 X1463 Y3011 F2000
G1 X1462 Y3012 F2000
G1 X1460 Y3012 F2000
G1 X1459 Y3011 F2000
G1 X1458 Y3011 F2000
G1 X1456 Y3009 F2000
G1 X1456 Y3008 F2000
G1 X1455 Y3007 F2000
G1 X1455 Y3004 F2000
G1 X1456 Y3003 F2000
G1 X1456 Y2999 F2000
G1 X1457 Y2998 F2000
G1 X1457 Y2994 F2000
G1 X1458 Y2993 F2000
G1 X1458 Y2990 F2000
G1 X1451 Y2990 F2000
G1 X1449 Y2988 F2000
G1 X1449 Y2987 F2000
G1 X1450 Y2986 F2000
G1 X1459 Y2986 F2000
G1 X1460 Y2985 F2000
G1 X1460 Y2983 F2000
G1 X1461 Y2982 F2000
G1 X1461 Y2977 F2000
G1 X1462 Y2976 F2000
G1 X1462 Y2972 F2000
G1 X1463 Y2971 F2000
G1 X1463 Y2968 F2000
G1 X1465 Y2966 F2000
G1 X1466 Y2966 F2000
G1 X1468 Y2968 F2000
G1 X1468 Y2971 F2000
G1 X1467 Y2972 F2000
G1 X1467 Y2976 F2000
G1 X1466 Y2977 F2000
G1 X1466 Y2979 F2000
G1 X1465 Y2980 F2000
G1 X1465 Y2982 F2000
G1 X1464 Y2983 F2000
G1 X1465 Y2984 F2000
G1 X1465 Y2985 F2000
G1 X1465 Y2984 F2000
G1 X1464 Y2983 F2000
G1 X1465 Y2982 F2000
G1 X1465 Y2980 F2000
G1 X1466 Y2979 F2000
G1 X1466 Y2978 F2000
G1 X1467 Y2977 F2000
G1 X1467 Y2972 F2000
G1 X1468 Y2971 F2000
G1 X1468 Y2968 F2000
G1 X1467 Y2967 F2000
G1 X1467 Y2966 F2000
G0 Z2.0 F1000 ; Pen up
G0 X916 Y2965 F3000
G0 Z0.0 F500 ; Pen down
G1 X922 Y2965 F2000
G1 X923 Y2966 F2000
G1 X924 Y2966 F2000
G1 X925 Y2967 F2000
G1 X926 Y2967 F2000
G1 X929 Y2970 F2000
G1 X929 Y2971 F2000
G1 X930 Y2972 F2000
G1 X930 Y2974 F2000
G1 X931 Y2975 F2000
G1 X931 Y2977 F2000
G1 X932 Y2978 F2000
G1 X932 Y2984 F2000
G1 X923 Y2993 F2000
G1 X922 Y2993 F2000
G1 X919 Y2996 F2000
G1 X918 Y2996 F2000
G1 X917 Y2997 F2000
G1 X916 Y2997 F2000
G1 X915 Y2998 F2000
G1 X914 Y2998 F2000
G1 X913 Y2999 F2000
G1 X906 Y2999 F2000
G1 X905 Y2998 F2000
G1 X904 Y2998 F2000
G1 X902 Y2996 F2000
G1 X902 Y2995 F2000
G1 X900 Y2993 F2000
G1 X900 Y2983 F2000
G1 X901 Y2982 F2000
G1 X901 Y2981 F2000
G1 X902 Y2980 F2000
G1 X902 Y2979 F2000
G1 X903 Y2978 F2000
G1 X903 Y2977 F2000
G1 X910 Y2970 F2000
G1 X911 Y2970 F2000
G0 Z2.0 F1000 ; Pen up
G0 X454 Y2966 F3000
G0 Z0.0 F500 ; Pen down
G1 X453 Y2967 F2000
G1 X452 Y2967 F2000
G1 X443 Y2976 F2000
G1 X443 Y2977 F2000
G1 X442 Y2978 F2000
G1 X442 Y2979 F2000
G1 X441 Y2980 F2000
G1 X441 Y2984 F2000
G1 X440 Y2985 F2000
G1 X440 Y2986 F2000
G1 X441 Y2987 F2000
G1 X441 Y2990 F2000
G1 X442 Y2991 F2000
G1 X445 Y2991 F2000
G1 X446 Y2992 F2000
G1 X448 Y2992 F2000
G1 X449 Y2991 F2000
G1 X453 Y2991 F2000
G1 X455 Y2989 F2000
G1 X456 Y2989 F2000
G1 X460 Y2985 F2000
G1 X460 Y2980 F2000
G1 X461 Y2979 F2000
G1 X461 Y2976 F2000
G1 X462 Y2975 F2000
G1 X462 Y2970 F2000
G1 X459 Y2967 F2000
G1 X458 Y2967 F2000
G1 X457 Y2966 F2000
G0 Z2.0 F1000 ; Pen up
G0 X916 Y2965 F3000
G0 Z0.0 F500 ; Pen down
G1 X915 Y2966 F2000
G1 X914 Y2966 F2000
G1 X910 Y2970 F2000
G1 X909 Y2970 F2000
G1 X903 Y2976 F2000
G1 X903 Y2977 F2000
G1 X902 Y2978 F2000
G1 X902 Y2979 F2000
G1 X901 Y2980 F2000
G1 X901 Y2982 F2000
G1 X900 Y2983 F2000
G1 X900 Y2994 F2000
G1 X902 Y2996 F2000
G1 X902 Y2997 F2000
G1 X903 Y2998 F2000
G1 X904 Y2998 F2000
G1 X905 Y2999 F2000
G1 X913 Y2999 F2000
G1 X914 Y2998 F2000
G1 X916 Y2998 F2000
G1 X917 Y2997 F2000
G1 X918 Y2997 F2000
G1 X919 Y2996 F2000
G1 X920 Y2996 F2000
G1 X923 Y2993 F2000
G1 X924 Y2993 F2000
G1 X932 Y2985 F2000
G1 X932 Y2978 F2000
G1 X931 Y2977 F2000
G1 X931 Y2975 F2000
G1 X930 Y2974 F2000
G1 X930 Y2971 F2000
G1 X929 Y2970 F2000
G1 X929 Y2969 F2000
G1 X927 Y2967 F2000
G1 X926 Y2967 F2000
G1 X925 Y2966 F2000
G1 X923 Y2966 F2000
G1 X922 Y2965 F2000
G0 Z2.0 F1000 ; Pen up
G0 X1865 Y2964 F3000
G0 Z0.0 F500 ; Pen down
G1 X1863 Y2966 F2000
G1 X1862 Y2966 F2000
G1 X1862 Y2967 F2000
G1 X1860 Y2969 F2000
G1 X1860 Y2970 F2000
G1 X1859 Y2971 F2000
G1 X1859 Y2973 F2000
G1 X1858 Y2974 F2000
G1 X1858 Y2976 F2000
G1 X1857 Y2977 F2000
G1 X1857 Y2979 F2000
G1 X1856 Y2980 F2000
G1 X1856 Y2985 F2000
G1 X1855 Y2986 F2000
G1 X1855 Y2987 F2000
G1 X1854 Y2988 F2000
G1 X1854 Y2992 F2000
G1 X1852 Y2994 F2000
G1 X1848 Y2994 F2000
G1 X1848 Y2995 F2000
G1 X1847 Y2996 F2000
G1 X1847 Y2998 F2000
G1 X1848 Y2999 F2000
G1 X1849 Y2999 F2000
G1 X1850 Y2998 F2000
G1 X1850 Y2997 F2000
G1 X1850 Y2998 F2000
G1 X1849 Y2999 F2000
G1 X1847 Y2997 F2000
G1 X1847 Y2996 F2000
G1 X1849 Y2994 F2000
G1 X1852 Y2994 F2000
G1 X1854 Y2996 F2000
G1 X1853 Y2997 F2000
G1 X1853 Y3003 F2000
G1 X1852 Y3004 F2000
G1 X1852 Y3009 F2000
G1 X1851 Y3010 F2000
G1 X1851 Y3017 F2000
G1 X1850 Y3018 F2000
G1 X1850 Y3020 F2000
G1 X1851 Y3021 F2000
G1 X1851 Y3023 F2000
G1 X1853 Y3023 F2000
G1 X1854 Y3022 F2000
G1 X1854 Y3020 F2000
G1 X1855 Y3019 F2000
G1 X1855 Y3014 F2000
G1 X1856 Y3013 F2000
G1 X1856 Y3008 F2000
G1 X1857 Y3007 F2000
G1 X1857 Y3002 F2000
G1 X1858 Y3001 F2000
G1 X1858 Y2998 F2000
G1 X1859 Y2997 F2000
G1 X1860 Y2997 F2000
G1 X1861 Y2996 F2000
G1 X1868 Y2996 F2000
G1 X1869 Y2995 F2000
G1 X1880 Y2995 F2000
G1 X1881 Y2996 F2000
G1 X1904 Y2996 F2000
G1 X1881 Y2996 F2000
G1 X1880 Y2995 F2000
G1 X1869 Y2995 F2000
G1 X1868 Y2996 F2000
G1 X1861 Y2996 F2000
G1 X1860 Y2997 F2000
G1 X1858 Y2997 F2000
G1 X1858 Y3001 F2000
G1 X1857 Y3002 F2000
G1 X1857 Y3007 F2000
G1 X1856 Y3008 F2000
G1 X1856 Y3013 F2000
G1 X1855 Y3014 F2000
G1 X1855 Y3019 F2000
G1 X1854 Y3020 F2000
G1 X1854 Y3021 F2000
G1 X1852 Y3023 F2000
G1 X1851 Y3022 F2000
G1 X1851 Y3021 F2000
G1 X1850 Y3020 F2000
G1 X1850 Y3018 F2000
G1 X1851 Y3017 F2000
G1 X1851 Y3010 F2000
G1 X1852 Y3009 F2000
G1 X1852 Y3004 F2000
G1 X1853 Y3003 F2000
G1 X1853 Y2997 F2000
G1 X1854 Y2996 F2000
G1 X1853 Y2995 F2000
G1 X1853 Y2994 F2000
G1 X1854 Y2993 F2000
G1 X1854 Y2989 F2000
G1 X1855 Y2988 F2000
G1 X1855 Y2986 F2000
G1 X1856 Y2985 F2000
G1 X1856 Y2980 F2000
G1 X1857 Y2979 F2000
G1 X1857 Y2977 F2000
G1 X1858 Y2976 F2000
G1 X1858 Y2974 F2000
G1 X1859 Y2973 F2000
G1 X1859 Y2972 F2000
G1 X1860 Y2971 F2000
G1 X1860 Y2970 F2000
G1 X1862 Y2968 F2000
G1 X1862 Y2967 F2000
G1 X1863 Y2966 F2000
G1 X1864 Y2966 F2000
G1 X1866 Y2964 F2000
G1 X1870 Y2964 F2000
G1 X1871 Y2965 F2000
G1 X1872 Y2965 F2000
G1 X1876 Y2969 F2000
G1 X1876 Y2970 F2000
G1 X1878 Y2972 F2000
G1 X1878 Y2979 F2000
G1 X1875 Y2982 F2000
G1 X1874 Y2982 F2000
G1 X1869 Y2987 F2000
G1 X1868 Y2987 F2000
G1 X1867 Y2988 F2000
G1 X1865 Y2988 F2000
G1 X1864 Y2989 F2000
