; Generated for Writing Machine
G21 ; Millimeters
G90 ; Absolute positioning
G28 ; Home all axes
G0 Z2.0 F1000 ; Pen up
G0 X165 Y405 F3000
G0 Z0.0 F500 ; Pen down
G1 X164 Y406 F2000
G1 X165 Y406 F2000
G1 X166 Y405 F2000
G1 X178 Y405 F2000
G1 X179 Y406 F2000
G1 X179 Y405 F2000
G0 Z2.0 F1000 ; Pen up
G0 X179 Y400 F3000
G0 Z0.0 F500 ; Pen down
G1 X178 Y401 F2000
G1 X172 Y401 F2000
G1 X171 Y402 F2000
G1 X164 Y402 F2000
G1 X171 Y402 F2000
G1 X172 Y401 F2000
G1 X179 Y401 F2000
G0 Z2.0 F1000 ; Pen up
G0 X236 Y398 F3000
G0 Z0.0 F500 ; Pen down
G1 X237 Y397 F2000
G1 X239 Y397 F2000
G1 X240 Y398 F2000
G1 X241 Y398 F2000
G1 X242 Y399 F2000
G1 X240 Y401 F2000
G1 X229 Y401 F2000
G1 X228 Y400 F2000
G1 X229 Y399 F2000
G1 X230 Y399 F2000
G1 X231 Y398 F2000
G0 Z2.0 F1000 ; Pen up
G0 X169 Y398 F3000
G0 Z0.0 F500 ; Pen down
G1 X168 Y399 F2000
G1 X165 Y399 F2000
G1 X164 Y400 F2000
G1 X165 Y400 F2000
G1 X166 Y399 F2000
G1 X168 Y399 F2000
G1 X169 Y398 F2000
G1 X180 Y398 F2000
G0 Z2.0 F1000 ; Pen up
G0 X260 Y397 F3000
G0 Z0.0 F500 ; Pen down
G1 X259 Y398 F2000
G1 X260 Y399 F2000
G0 Z2.0 F1000 ; Pen up
G0 X237 Y397 F3000
G0 Z0.0 F500 ; Pen down
G1 X236 Y398 F2000
G1 X229 Y398 F2000
G1 X228 Y399 F2000
G1 X228 Y401 F2000
G1 X241 Y401 F2000
G1 X242 Y400 F2000
G1 X242 Y398 F2000
G1 X240 Y398 F2000
G1 X239 Y397 F2000
G0 Z2.0 F1000 ; Pen up
G0 X90 Y396 F3000
G0 Z0.0 F500 ; Pen down
G1 X88 Y398 F2000
G1 X88 Y399 F2000
G1 X87 Y400 F2000
G1 X87 Y404 F2000
G1 X87 Y403 F2000
G1 X88 Y402 F2000
G1 X89 Y402 F2000
G1 X88 Y402 F2000
G1 X87 Y401 F2000
G1 X87 Y400 F2000
G1 X89 Y398 F2000
G1 X89 Y397 F2000
G1 X90 Y396 F2000
G1 X91 Y397 F2000
G1 X91 Y399 F2000
G1 X90 Y400 F2000
G1 X91 Y399 F2000
G1 X91 Y396 F2000
G0 Z2.0 F1000 ; Pen up
G0 X66 Y395 F3000
G0 Z0.0 F500 ; Pen down
G1 X67 Y394 F2000
G1 X68 Y394 F2000
G1 X69 Y395 F2000
G1 X69 Y396 F2000
G1 X70 Y397 F2000
G1 X70 Y402 F2000
G1 X69 Y403 F2000
G1 X69 Y410 F2000
G1 X70 Y411 F2000
G1 X68 Y413 F2000
G1 X67 Y413 F2000
G1 X66 Y412 F2000
G1 X66 Y411 F2000
G1 X65 Y410 F2000
G1 X65 Y407 F2000
G1 X66 Y406 F2000
G1 X66 Y399 F2000
G1 X64 Y399 F2000
G1 X60 Y403 F2000
G1 X60 Y404 F2000
G1 X59 Y405 F2000
G1 X59 Y406 F2000
G1 X58 Y407 F2000
G1 X58 Y408 F2000
G1 X56 Y410 F2000
G1 X56 Y411 F2000
G1 X55 Y412 F2000
G1 X54 Y411 F2000
G1 X54 Y407 F2000
G1 X56 Y405 F2000
G1 X56 Y399 F2000
G1 X55 Y400 F2000
G1 X54 Y400 F2000
G1 X52 Y402 F2000
G1 X51 Y402 F2000
G1 X49 Y400 F2000
G1 X50 Y399 F2000
G1 X51 Y399 F2000
G1 X52 Y398 F2000
G1 X53 Y398 F2000
G1 X55 Y396 F2000
G1 X58 Y396 F2000
G1 X60 Y398 F2000
G1 X60 Y397 F2000
G1 X61 Y396 F2000
G1 X62 Y397 F2000
G1 X63 Y397 F2000
G1 X65 Y395 F2000
G0 Z2.0 F1000 ; Pen up
G0 X298 Y394 F3000
G0 Z0.0 F500 ; Pen down
G1 X298 Y397 F2000
G1 X296 Y399 F2000
G1 X296 Y400 F2000
G1 X293 Y403 F2000
G1 X293 Y404 F2000
G1 X296 Y401 F2000
G1 X296 Y400 F2000
G1 X298 Y398 F2000
G0 Z2.0 F1000 ; Pen up
G0 X296 Y394 F3000
G0 Z0.0 F500 ; Pen down
G1 X293 Y397 F2000
G1 X293 Y398 F2000
G1 X292 Y399 F2000
G1 X292 Y400 F2000
G1 X291 Y401 F2000
G1 X291 Y405 F2000
G1 X291 Y401 F2000
G1 X292 Y400 F2000
G1 X292 Y399 F2000
G1 X296 Y395 F2000
G0 Z2.0 F1000 ; Pen up
G0 X255 Y393 F3000
G0 Z0.0 F500 ; Pen down
G1 X257 Y395 F2000
G1 X257 Y400 F2000
G1 X256 Y401 F2000
G1 X256 Y404 F2000
G1 X255 Y405 F2000
G1 X255 Y409 F2000
G1 X256 Y409 F2000
G1 X255 Y408 F2000
G1 X255 Y405 F2000
G1 X256 Y404 F2000
G1 X256 Y401 F2000
G1 X257 Y400 F2000
G1 X257 Y394 F2000
G1 X256 Y393 F2000
G0 Z2.0 F1000 ; Pen up
G0 X318 Y391 F3000
G0 Z0.0 F500 ; Pen down
G1 X319 Y391 F2000
G1 X320 Y392 F2000
G1 X317 Y395 F2000
G1 X316 Y394 F2000
G1 X316 Y393 F2000
G0 Z2.0 F1000 ; Pen up
G0 X89 Y392 F3000
G0 Z0.0 F500 ; Pen down
G1 X86 Y395 F2000
G1 X86 Y396 F2000
G1 X85 Y397 F2000
G1 X85 Y398 F2000
G1 X84 Y399 F2000
G1 X84 Y401 F2000
G1 X83 Y402 F2000
G1 X83 Y403 F2000
G1 X82 Y404 F2000
G1 X80 Y404 F2000
G1 X80 Y408 F2000
G1 X85 Y413 F2000
G1 X92 Y413 F2000
G1 X93 Y412 F2000
G1 X93 Y409 F2000
G1 X93 Y411 F2000
G1 X91 Y413 F2000
G1 X86 Y413 F2000
G1 X80 Y407 F2000
G1 X80 Y405 F2000
G1 X81 Y404 F2000
G1 X83 Y404 F2000
G1 X83 Y402 F2000
G1 X84 Y401 F2000
G1 X84 Y400 F2000
G1 X85 Y399 F2000
G1 X85 Y398 F2000
G1 X86 Y397 F2000
G1 X86 Y396 F2000
G1 X90 Y392 F2000
G1 X92 Y392 F2000
G1 X94 Y394 F2000
G1 X94 Y399 F2000
G1 X92 Y401 F2000
G1 X92 Y402 F2000
G1 X91 Y403 F2000
G1 X91 Y404 F2000
G1 X90 Y405 F2000
G1 X89 Y405 F2000
G1 X87 Y407 F2000
G1 X87 Y408 F2000
G1 X88 Y409 F2000
G1 X88 Y410 F2000
G1 X90 Y410 F2000
G1 X91 Y409 F2000
G1 X90 Y410 F2000
G1 X89 Y410 F2000
G1 X87 Y408 F2000
G1 X92 Y403 F2000
G1 X92 Y402 F2000
G1 X93 Y401 F2000
G1 X93 Y400 F2000
G1 X94 Y399 F2000
G1 X94 Y394 F2000
G1 X93 Y393 F2000
G1 X93 Y392 F2000
G0 Z2.0 F1000 ; Pen up
G0 X43 Y392 F3000
G0 Z0.0 F500 ; Pen down
G1 X42 Y393 F2000
G1 X41 Y393 F2000
G1 X40 Y394 F2000
G1 X40 Y400 F2000
G1 X40 Y395 F2000
G1 X42 Y393 F2000
G1 X43 Y393 F2000
G1 X44 Y392 F2000
G1 X47 Y392 F2000
G1 X48 Y393 F2000
G1 X48 Y395 F2000
G1 X49 Y396 F2000
G1 X49 Y400 F2000
G1 X51 Y402 F2000
G1 X49 Y404 F2000
G1 X49 Y405 F2000
G1 X48 Y406 F2000
G1 X48 Y408 F2000
G1 X47 Y409 F2000
G1 X47 Y410 F2000
G1 X46 Y411 F2000
G1 X46 Y412 F2000
G1 X44 Y414 F2000
G1 X43 Y413 F2000
G1 X43 Y410 F2000
G1 X44 Y409 F2000
G1 X44 Y408 F2000
G1 X45 Y407 F2000
G1 X45 Y401 F2000
G1 X46 Y400 F2000
G1 X46 Y397 F2000
G1 X45 Y396 F2000
G1 X45 Y395 F2000
G1 X44 Y395 F2000
G1 X42 Y397 F2000
G1 X42 Y400 F2000
G1 X42 Y398 F2000
G1 X43 Y397 F2000
G1 X43 Y396 F2000
G1 X44 Y395 F2000
G1 X46 Y397 F2000
G1 X46 Y400 F2000
G1 X45 Y401 F2000
G1 X45 Y407 F2000
G1 X42 Y410 F2000
G1 X43 Y411 F2000
G1 X43 Y412 F2000
G1 X42 Y413 F2000
G1 X43 Y414 F2000
G1 X44 Y414 F2000
G1 X45 Y415 F2000
G1 X45 Y414 F2000
G1 X46 Y413 F2000
G1 X46 Y412 F2000
G1 X47 Y411 F2000
G1 X47 Y410 F2000
G1 X48 Y409 F2000
G1 X48 Y407 F2000
G1 X49 Y406 F2000
G1 X49 Y405 F2000
G1 X52 Y402 F2000
G1 X53 Y402 F2000
G1 X55 Y400 F2000
G1 X56 Y401 F2000
G1 X56 Y404 F2000
G1 X55 Y405 F2000
G1 X55 Y406 F2000
G1 X53 Y408 F2000
G1 X54 Y409 F2000
G1 X54 Y411 F2000
G1 X55 Y412 F2000
G1 X56 Y412 F2000
G1 X56 Y411 F2000
G1 X58 Y409 F2000
G1 X58 Y407 F2000
G1 X60 Y405 F2000
G1 X60 Y404 F2000
G1 X65 Y399 F2000
G1 X66 Y400 F2000
G1 X66 Y406 F2000
G1 X65 Y407 F2000
G1 X65 Y410 F2000
G1 X66 Y411 F2000
G1 X66 Y413 F2000
G1 X67 Y414 F2000
G1 X68 Y413 F2000
G1 X69 Y414 F2000
G1 X69 Y412 F2000
G1 X70 Y411 F2000
G1 X69 Y410 F2000
G1 X69 Y403 F2000
G1 X70 Y402 F2000
G1 X70 Y397 F2000
G1 X69 Y396 F2000
G1 X70 Y395 F2000
G1 X69 Y394 F2000
G1 X66 Y394 F2000
G1 X65 Y395 F2000
G1 X64 Y395 F2000
G1 X62 Y397 F2000
G1 X61 Y396 F2000
G1 X60 Y397 F2000
G1 X59 Y396 F2000
G1 X54 Y396 F2000
G1 X51 Y399 F2000
G1 X50 Y399 F2000
G1 X49 Y398 F2000
G1 X49 Y396 F2000
G1 X48 Y395 F2000
G1 X48 Y392 F2000
G0 Z2.0 F1000 ; Pen up
G0 X296 Y390 F3000
G0 Z0.0 F500 ; Pen down
G1 X298 Y390 F2000
G1 X301 Y393 F2000
G1 X301 Y394 F2000
G1 X302 Y395 F2000
G1 X302 Y396 F2000
G1 X301 Y397 F2000
G1 X301 Y401 F2000
G1 X300 Y402 F2000
G1 X301 Y403 F2000
G1 X301 Y404 F2000
G1 X302 Y404 F2000
G1 X303 Y405 F2000
G1 X304 Y404 F2000
G1 X305 Y405 F2000
G1 X305 Y406 F2000
G1 X303 Y408 F2000
G1 X301 Y408 F2000
G1 X299 Y406 F2000
G1 X295 Y406 F2000
G1 X293 Y408 F2000
G1 X292 Y408 F2000
G1 X291 Y409 F2000
G1 X289 Y409 F2000
G1 X288 Y408 F2000
G1 X287 Y408 F2000
G1 X286 Y407 F2000
G1 X286 Y402 F2000
G1 X287 Y401 F2000
G1 X287 Y400 F2000
G1 X288 Y399 F2000
G1 X288 Y398 F2000
G1 X289 Y397 F2000
G1 X289 Y396 F2000
G1 X292 Y393 F2000
G1 X293 Y393 F2000
G0 Z2.0 F1000 ; Pen up
G0 X216 Y390 F3000
G0 Z0.0 F500 ; Pen down
G1 X217 Y390 F2000
G1 X218 Y391 F2000
G1 X218 Y392 F2000
G1 X212 Y398 F2000
G1 X212 Y399 F2000
G1 X211 Y400 F2000
G1 X211 Y401 F2000
G1 X210 Y402 F2000
G1 X210 Y404 F2000
G1 X211 Y405 F2000
G1 X211 Y406 F2000
G1 X212 Y407 F2000
G1 X214 Y407 F2000
G1 X216 Y409 F2000
G1 X214 Y411 F2000
G1 X212 Y411 F2000
G1 X208 Y407 F2000
G1 X208 Y406 F2000
G1 X207 Y405 F2000
G1 X208 Y404 F2000
G1 X207 Y405 F2000
G1 X206 Y404 F2000
G1 X207 Y405 F2000
G1 X206 Y406 F2000
G1 X205 Y406 F2000
G1 X205 Y407 F2000
G1 X203 Y409 F2000
G1 X201 Y409 F2000
G1 X200 Y408 F2000
G1 X201 Y407 F2000
G1 X201 Y406 F2000
G1 X204 Y403 F2000
G1 X204 Y402 F2000
G1 X205 Y401 F2000
G1 X204 Y400 F2000
G1 X204 Y398 F2000
G1 X201 Y395 F2000
G1 X200 Y395 F2000
G1 X199 Y396 F2000
G1 X198 Y396 F2000
G1 X195 Y399 F2000
G1 X194 Y399 F2000
G1 X193 Y398 F2000
G1 X193 Y397 F2000
G1 X198 Y392 F2000
G1 X199 Y392 F2000
G1 X200 Y391 F2000
G1 X201 Y392 F2000
G1 X202 Y392 F2000
G1 X204 Y394 F2000
G1 X205 Y394 F2000
G1 X206 Y395 F2000
G1 X206 Y396 F2000
G1 X207 Y397 F2000
G1 X208 Y397 F2000
G1 X209 Y398 F2000
G1 X209 Y397 F2000
G0 Z2.0 F1000 ; Pen up
G0 X253 Y390 F3000
G0 Z0.0 F500 ; Pen down
G1 X252 Y391 F2000
G1 X252 Y397 F2000
G1 X252 Y392 F2000
G1 X254 Y390 F2000
G1 X258 Y390 F2000
G1 X260 Y392 F2000
G1 X260 Y395 F2000
G1 X261 Y394 F2000
G1 X262 Y395 F2000
G1 X262 Y396 F2000
G1 X265 Y393 F2000
G1 X266 Y393 F2000
G1 X267 Y392 F2000
G1 X268 Y392 F2000
G1 X269 Y393 F2000
G1 X272 Y393 F2000
G1 X274 Y391 F2000
G1 X277 Y391 F2000
G1 X278 Y392 F2000
G1 X278 Y405 F2000
G1 X276 Y407 F2000
G1 X275 Y407 F2000
G1 X274 Y406 F2000
G1 X274 Y400 F2000
G1 X275 Y399 F2000
G1 X275 Y397 F2000
G1 X274 Y397 F2000
G1 X273 Y396 F2000
G1 X273 Y395 F2000
G1 X272 Y396 F2000
G1 X272 Y397 F2000
G1 X271 Y398 F2000
G1 X271 Y399 F2000
G1 X270 Y400 F2000
G1 X270 Y402 F2000
G1 X269 Y403 F2000
G1 X269 Y404 F2000
G1 X268 Y405 F2000
G1 X267 Y405 F2000
G1 X266 Y404 F2000
G1 X266 Y401 F2000
G1 X267 Y400 F2000
G1 X267 Y396 F2000
G1 X266 Y397 F2000
G1 X265 Y397 F2000
G1 X259 Y403 F2000
G1 X259 Y406 F2000
G1 X258 Y407 F2000
G1 X258 Y409 F2000
G1 X258 Y408 F2000
G1 X259 Y407 F2000
G1 X259 Y404 F2000
G1 X264 Y399 F2000
G1 X264 Y398 F2000
G1 X265 Y397 F2000
G1 X266 Y397 F2000
G1 X267 Y398 F2000
G1 X267 Y400 F2000
G1 X266 Y401 F2000
G1 X266 Y405 F2000
G1 X269 Y405 F2000
G1 X269 Y403 F2000
G1 X270 Y402 F2000
G1 X270 Y401 F2000
G1 X271 Y400 F2000
G1 X271 Y399 F2000
G1 X272 Y398 F2000
G1 X272 Y397 F2000
G1 X273 Y396 F2000
G1 X275 Y398 F2000
G1 X275 Y399 F2000
G1 X274 Y400 F2000
G1 X274 Y407 F2000
G1 X275 Y408 F2000
G1 X276 Y407 F2000
G1 X277 Y407 F2000
G1 X278 Y406 F2000
G1 X278 Y391 F2000
G1 X273 Y391 F2000
G1 X271 Y393 F2000
G1 X270 Y393 F2000
G1 X269 Y392 F2000
G1 X266 Y392 F2000
G1 X265 Y393 F2000
G1 X264 Y393 F2000
G1 X262 Y395 F2000
G1 X260 Y393 F2000
G1 X260 Y391 F2000
G1 X259 Y390 F2000
G0 Z2.0 F1000 ; Pen up
G0 X216 Y390 F3000
G0 Z0.0 F500 ; Pen down
G1 X215 Y391 F2000
G1 X214 Y391 F2000
G1 X208 Y397 F2000
G1 X206 Y395 F2000
G1 X206 Y394 F2000
G1 X205 Y394 F2000
G1 X203 Y392 F2000
G1 X201 Y392 F2000
G1 X200 Y391 F2000
G1 X199 Y392 F2000
G1 X198 Y391 F2000
G1 X193 Y396 F2000
G1 X193 Y399 F2000
G1 X194 Y399 F2000
G1 X195 Y400 F2000
G1 X200 Y395 F2000
G1 X204 Y399 F2000
G1 X204 Y400 F2000
G1 X205 Y401 F2000
G1 X201 Y405 F2000
G1 X201 Y406 F2000
G1 X200 Y407 F2000
G1 X200 Y409 F2000
G1 X202 Y409 F2000
G1 X203 Y410 F2000
G1 X205 Y408 F2000
G1 X205 Y407 F2000
G1 X206 Y406 F2000
G1 X207 Y406 F2000
G1 X208 Y407 F2000
G1 X208 Y408 F2000
G1 X211 Y411 F2000
G1 X215 Y411 F2000
G1 X216 Y410 F2000
G1 X216 Y408 F2000
G1 X215 Y407 F2000
G1 X213 Y407 F2000
G1 X211 Y405 F2000
G1 X211 Y404 F2000
G1 X210 Y403 F2000
G1 X210 Y402 F2000
G1 X212 Y400 F2000
G1 X212 Y399 F2000
G1 X218 Y393 F2000
G1 X219 Y393 F2000
G1 X218 Y392 F2000
G1 X218 Y390 F2000
G0 Z2.0 F1000 ; Pen up
G0 X147 Y389 F3000
G0 Z0.0 F500 ; Pen down
G1 X147 Y399 F2000
G1 X145 Y401 F2000
G1 X143 Y401 F2000
G1 X142 Y400 F2000
G1 X141 Y401 F2000
G1 X140 Y401 F2000
G1 X141 Y401 F2000
G1 X142 Y400 F2000
G1 X143 Y401 F2000
G1 X146 Y401 F2000
G1 X147 Y400 F2000
G0 Z2.0 F1000 ; Pen up
G0 X316 Y388 F3000
G0 Z0.0 F500 ; Pen down
G1 X311 Y393 F2000
G1 X311 Y400 F2000
G1 X312 Y401 F2000
G1 X312 Y402 F2000
G1 X315 Y405 F2000
G1 X314 Y406 F2000
G1 X313 Y406 F2000
G1 X312 Y407 F2000
G1 X311 Y406 F2000
G1 X310 Y406 F2000
G1 X309 Y405 F2000
G1 X309 Y404 F2000
G1 X308 Y403 F2000
G1 X306 Y403 F2000
G1 X305 Y404 F2000
G1 X304 Y404 F2000
G1 X303 Y405 F2000
G1 X300 Y402 F2000
G1 X301 Y401 F2000
G1 X301 Y397 F2000
G1 X302 Y396 F2000
G1 X302 Y395 F2000
G1 X301 Y394 F2000
G1 X301 Y392 F2000
G1 X299 Y390 F2000
G1 X295 Y390 F2000
G1 X292 Y393 F2000
G1 X291 Y393 F2000
G1 X289 Y395 F2000
G1 X289 Y396 F2000
G1 X288 Y397 F2000
G1 X288 Y399 F2000
G1 X287 Y400 F2000
G1 X287 Y401 F2000
G1 X286 Y402 F2000
G1 X286 Y408 F2000
G1 X288 Y408 F2000
G1 X289 Y409 F2000
G1 X292 Y409 F2000
G1 X293 Y408 F2000
G1 X294 Y408 F2000
G1 X296 Y406 F2000
G1 X298 Y406 F2000
G1 X300 Y408 F2000
G1 X304 Y408 F2000
G1 X305 Y407 F2000
G1 X305 Y404 F2000
G1 X306 Y403 F2000
G1 X307 Y403 F2000
G1 X309 Y405 F2000
G1 X308 Y406 F2000
G1 X308 Y407 F2000
G1 X307 Y408 F2000
G1 X307 Y409 F2000
G1 X309 Y409 F2000
G1 X310 Y410 F2000
G1 X316 Y410 F2000
G1 X317 Y409 F2000
G1 X319 Y409 F2000
G1 X320 Y408 F2000
G1 X320 Y405 F2000
G1 X319 Y404 F2000
G1 X319 Y403 F2000
G1 X315 Y399 F2000
G1 X315 Y398 F2000
G1 X314 Y397 F2000
G1 X315 Y396 F2000
G1 X315 Y395 F2000
G1 X316 Y394 F2000
G1 X317 Y395 F2000
G1 X318 Y395 F2000
G1 X318 Y394 F2000
G1 X320 Y392 F2000
G1 X319 Y391 F2000
G1 X318 Y391 F2000
G1 X317 Y392 F2000
G1 X316 Y392 F2000
G1 X316 Y393 F2000
G1 X315 Y394 F2000
G1 X315 Y396 F2000
G1 X314 Y397 F2000
G1 X315 Y398 F2000
G1 X315 Y400 F2000
G1 X319 Y404 F2000
G1 X319 Y405 F2000
G1 X320 Y406 F2000
G1 X320 Y407 F2000
G1 X318 Y409 F2000
G1 X317 Y409 F2000
G1 X316 Y410 F2000
G1 X311 Y410 F2000
G1 X310 Y409 F2000
G1 X309 Y409 F2000
G1 X308 Y408 F2000
G1 X308 Y406 F2000
G1 X309 Y405 F2000
G1 X310 Y406 F2000
G1 X311 Y406 F2000
G1 X312 Y407 F2000
G1 X313 Y406 F2000
G1 X314 Y406 F2000
G1 X315 Y405 F2000
G1 X315 Y404 F2000
G1 X312 Y401 F2000
G1 X312 Y400 F2000
G1 X311 Y399 F2000
G1 X311 Y394 F2000
G1 X317 Y388 F2000
G1 X320 Y388 F2000
G1 X321 Y389 F2000
G1 X322 Y389 F2000
G1 X323 Y390 F2000
G1 X323 Y391 F2000
G1 X324 Y392 F2000
G1 X320 Y396 F2000
G1 X321 Y395 F2000
G1 X322 Y395 F2000
G1 X323 Y394 F2000
G1 X323 Y393 F2000
G1 X324 Y392 F2000
G1 X323 Y391 F2000
G1 X323 Y389 F2000
G1 X322 Y389 F2000
G1 X321 Y388 F2000
G0 Z2.0 F1000 ; Pen up
G0 X142 Y378 F3000
G0 Z0.0 F500 ; Pen down
G1 X141 Y379 F2000
G1 X140 Y379 F2000
G1 X140 Y385 F2000
G1 X139 Y386 F2000
G1 X139 Y389 F2000
G1 X138 Y390 F2000
G1 X138 Y391 F2000
G1 X139 Y392 F2000
G1 X139 Y394 F2000
G1 X141 Y394 F2000
G1 X142 Y395 F2000
G1 X144 Y393 F2000
G1 X144 Y392 F2000
G1 X145 Y391 F2000
G1 X144 Y391 F2000
G1 X144 Y392 F2000
G1 X142 Y394 F2000
G1 X140 Y394 F2000
G1 X139 Y393 F2000
G1 X139 Y392 F2000
G1 X138 Y391 F2000
G1 X138 Y390 F2000
G1 X139 Y389 F2000
G1 X139 Y386 F2000
G1 X140 Y385 F2000
G1 X140 Y380 F2000
G1 X142 Y378 F2000
G1 X143 Y379 F2000
G1 X143 Y380 F2000
G1 X144 Y381 F2000
G1 X143 Y382 F2000
G1 X143 Y386 F2000
G1 X142 Y387 F2000
G1 X142 Y391 F2000
G1 X142 Y387 F2000
G1 X143 Y386 F2000
G1 X143 Y382 F2000
G1 X144 Y381 F2000
G1 X143 Y380 F2000
G1 X143 Y378 F2000
G0 Z2.0 F1000 ; Pen up
G0 X129 Y378 F3000
G0 Z0.0 F500 ; Pen down
G1 X130 Y377 F2000
G1 X131 Y377 F2000
G1 X132 Y378 F2000
G1 X133 Y378 F2000
G1 X135 Y380 F2000
G1 X134 Y381 F2000
G1 X129 Y381 F2000
G1 X127 Y383 F2000
G1 X127 Y384 F2000
G1 X126 Y385 F2000
G1 X126 Y388 F2000
G1 X125 Y389 F2000
G1 X125 Y391 F2000
G1 X124 Y392 F2000
G1 X124 Y393 F2000
G1 X122 Y395 F2000
G1 X121 Y394 F2000
G1 X121 Y389 F2000
G1 X122 Y388 F2000
G1 X122 Y381 F2000
G1 X121 Y380 F2000
G1 X123 Y378 F2000
G0 Z2.0 F1000 ; Pen up
G0 X104 Y377 F3000
G0 Z0.0 F500 ; Pen down
G1 X106 Y377 F2000
G1 X108 Y379 F2000
G1 X110 Y379 F2000
G1 X111 Y378 F2000
G1 X112 Y378 F2000
G1 X113 Y379 F2000
G1 X114 Y379 F2000
G1 X115 Y380 F2000
G1 X113 Y382 F2000
G1 X111 Y382 F2000
G1 X110 Y383 F2000
G1 X109 Y383 F2000
G1 X109 Y384 F2000
G1 X108 Y385 F2000
G1 X108 Y392 F2000
G1 X106 Y394 F2000
G1 X104 Y392 F2000
G1 X104 Y387 F2000
G1 X105 Y386 F2000
G1 X105 Y385 F2000
G1 X104 Y384 F2000
G1 X104 Y382 F2000
G1 X103 Y381 F2000
G1 X103 Y380 F2000
G1 X102 Y379 F2000
G0 Z2.0 F1000 ; Pen up
G0 X130 Y377 F3000
G0 Z0.0 F500 ; Pen down
G1 X129 Y378 F2000
G1 X122 Y378 F2000
G1 X122 Y379 F2000
G1 X121 Y380 F2000
G1 X122 Y381 F2000
G1 X122 Y387 F2000
G1 X121 Y388 F2000
G1 X121 Y395 F2000
G1 X123 Y395 F2000
G1 X124 Y394 F2000
G1 X124 Y392 F2000
G1 X125 Y391 F2000
G1 X125 Y389 F2000
G1 X126 Y388 F2000
G1 X126 Y385 F2000
G1 X130 Y381 F2000
G1 X133 Y381 F2000
G1 X134 Y382 F2000
G1 X135 Y381 F2000
G1 X135 Y380 F2000
G1 X134 Y379 F2000
G1 X134 Y378 F2000
G1 X132 Y378 F2000
G1 X131 Y377 F2000
G0 Z2.0 F1000 ; Pen up
G0 X103 Y377 F3000
G0 Z0.0 F500 ; Pen down
G1 X103 Y378 F2000
G1 X102 Y379 F2000
G1 X102 Y380 F2000
G1 X104 Y382 F2000
G1 X104 Y384 F2000
G1 X105 Y385 F2000
G1 X105 Y386 F2000
G1 X104 Y387 F2000
G1 X104 Y393 F2000
G1 X105 Y394 F2000
G1 X107 Y394 F2000
G1 X107 Y393 F2000
G1 X108 Y392 F2000
G1 X108 Y386 F2000
G1 X109 Y385 F2000
G1 X109 Y384 F2000
G1 X110 Y383 F2000
G1 X111 Y383 F2000
G1 X112 Y382 F2000
G1 X114 Y382 F2000
G1 X115 Y381 F2000
G1 X115 Y379 F2000
G1 X113 Y379 F2000
G1 X112 Y378 F2000
G1 X111 Y378 F2000
G1 X110 Y379 F2000
G1 X109 Y379 F2000
G1 X108 Y378 F2000
G1 X107 Y378 F2000
G1 X106 Y377 F2000
G0 Z2.0 F1000 ; Pen up
G0 X149 Y376 F3000
G0 Z0.0 F500 ; Pen down
G1 X149 Y377 F2000
G1 X148 Y378 F2000
G1 X148 Y381 F2000
G1 X147 Y382 F2000
G1 X147 Y383 F2000
G1 X146 Y384 F2000
G1 X146 Y385 F2000
G1 X145 Y386 F2000
G1 X145 Y387 F2000
G1 X144 Y388 F2000
G1 X146 Y386 F2000
G1 X146 Y385 F2000
G1 X147 Y384 F2000
G1 X147 Y382 F2000
G1 X148 Y381 F2000
G1 X148 Y379 F2000
G1 X149 Y378 F2000
G1 X149 Y377 F2000
G1 X150 Y376 F2000
G1 X152 Y378 F2000
G1 X152 Y379 F2000
G1 X151 Y380 F2000
G1 X151 Y398 F2000
G1 X150 Y399 F2000
G1 X150 Y402 F2000
G1 X148 Y404 F2000
G1 X147 Y404 F2000
G1 X146 Y405 F2000
G1 X143 Y405 F2000
G1 X142 Y404 F2000
G1 X141 Y404 F2000
G1 X140 Y403 F2000
G1 X140 Y404 F2000
G1 X141 Y404 F2000
G1 X142 Y405 F2000
G1 X146 Y405 F2000
G1 X147 Y404 F2000
G1 X149 Y404 F2000
G1 X150 Y403 F2000
G1 X150 Y399 F2000
G1 X151 Y398 F2000
G1 X151 Y381 F2000
G1 X152 Y380 F2000
G1 X152 Y377 F2000
G1 X151 Y376 F2000
G0 Z2.0 F1000 ; Pen up
G0 X147 Y343 F3000
G0 Z0.0 F500 ; Pen down
G1 X148 Y342 F2000
G1 X157 Y342 F2000
G1 X158 Y343 F2000
G1 X158 Y344 F2000
G1 X157 Y345 F2000
G1 X148 Y345 F2000
G1 X147 Y344 F2000
G0 Z2.0 F1000 ; Pen up
G0 X145 Y342 F3000
G0 Z0.0 F500 ; Pen down
G1 X146 Y342 F2000
G1 X147 Y343 F2000
G1 X146 Y344 F2000
G1 X145 Y344 F2000
G1 X146 Y344 F2000
G1 X147 Y345 F2000
G1 X157 Y345 F2000
G1 X158 Y344 F2000
G1 X159 Y344 F2000
G1 X158 Y343 F2000
G1 X159 Y342 F2000
G0 Z2.0 F1000 ; Pen up
G0 X226 Y338 F3000
G0 Z0.0 F500 ; Pen down
G1 X227 Y337 F2000
G1 X233 Y337 F2000
G1 X234 Y338 F2000
G1 X234 Y339 F2000
G1 X232 Y341 F2000
G1 X222 Y341 F2000
G1 X221 Y340 F2000
G1 X221 Y339 F2000
G1 X222 Y338 F2000
G0 Z2.0 F1000 ; Pen up
G0 X227 Y337 F3000
G0 Z0.0 F500 ; Pen down
G1 X226 Y338 F2000
G1 X221 Y338 F2000
G1 X221 Y341 F2000
G1 X233 Y341 F2000
G1 X234 Y340 F2000
G1 X234 Y338 F2000
G1 X233 Y337 F2000
G0 Z2.0 F1000 ; Pen up
G0 X151 Y336 F3000
G0 Z0.0 F500 ; Pen down
G1 X152 Y335 F2000
G1 X153 Y335 F2000
G1 X154 Y336 F2000
G1 X158 Y336 F2000
G1 X159 Y337 F2000
G1 X157 Y339 F2000
G1 X149 Y339 F2000
G1 X148 Y338 F2000
G1 X146 Y338 F2000
G1 X145 Y337 F2000
G1 X146 Y336 F2000
G0 Z2.0 F1000 ; Pen up
G0 X152 Y335 F3000
G0 Z0.0 F500 ; Pen down
G1 X151 Y336 F2000
G1 X144 Y336 F2000
G1 X145 Y337 F2000
G1 X145 Y339 F2000
G1 X146 Y339 F2000
G1 X147 Y338 F2000
G1 X148 Y339 F2000
G1 X148 Y340 F2000
G1 X149 Y339 F2000
G1 X157 Y339 F2000
G1 X158 Y340 F2000
G1 X158 Y339 F2000
G1 X159 Y338 F2000
G1 X159 Y337 F2000
G1 X158 Y336 F2000
G1 X154 Y336 F2000
G1 X153 Y335 F2000
G0 Z2.0 F1000 ; Pen up
G0 X314 Y333 F3000
G0 Z0.0 F500 ; Pen down
G1 X315 Y333 F2000
G1 X316 Y334 F2000
G1 X316 Y335 F2000
G1 X315 Y336 F2000
G1 X315 Y337 F2000
G1 X314 Y338 F2000
G1 X314 Y339 F2000
G1 X312 Y341 F2000
G1 X312 Y342 F2000
G1 X310 Y344 F2000
G1 X308 Y344 F2000
G1 X307 Y343 F2000
G1 X308 Y342 F2000
G1 X308 Y341 F2000
G1 X309 Y340 F2000
G1 X309 Y339 F2000
G1 X312 Y336 F2000
G1 X312 Y335 F2000
G0 Z2.0 F1000 ; Pen up
G0 X259 Y334 F3000
G0 Z0.0 F500 ; Pen down
G1 X259 Y335 F2000
G1 X254 Y340 F2000
G1 X254 Y343 F2000
G1 X252 Y345 F2000
G1 X253 Y345 F2000
G1 X254 Y344 F2000
G1 X254 Y341 F2000
G1 X259 Y336 F2000
G1 X259 Y335 F2000
G1 X260 Y334 F2000
G0 Z2.0 F1000 ; Pen up
G0 X88 Y334 F3000
G0 Z0.0 F500 ; Pen down
G1 X86 Y336 F2000
G1 X86 Y338 F2000
G1 X84 Y340 F2000
G1 X84 Y343 F2000
G1 X86 Y343 F2000
G1 X88 Y341 F2000
G1 X88 Y340 F2000
G1 X89 Y339 F2000
G1 X89 Y338 F2000
G1 X90 Y337 F2000
G1 X90 Y334 F2000
G1 X90 Y337 F2000
G1 X89 Y338 F2000
G1 X89 Y339 F2000
G1 X87 Y341 F2000
G1 X87 Y342 F2000
G1 X86 Y343 F2000
G1 X85 Y343 F2000
G1 X84 Y342 F2000
G1 X84 Y341 F2000
G1 X85 Y340 F2000
G1 X85 Y339 F2000
G1 X86 Y338 F2000
G1 X86 Y337 F2000
G1 X88 Y335 F2000
G0 Z2.0 F1000 ; Pen up
G0 X44 Y332 F3000
G0 Z0.0 F500 ; Pen down
G1 X43 Y333 F2000
G1 X42 Y333 F2000
G1 X42 Y336 F2000
G1 X42 Y334 F2000
G1 X43 Y333 F2000
G1 X44 Y333 F2000
G1 X45 Y332 F2000
G1 X47 Y332 F2000
G1 X49 Y334 F2000
G1 X49 Y335 F2000
G1 X50 Y336 F2000
G1 X50 Y337 F2000
G1 X53 Y337 F2000
G1 X55 Y335 F2000
G1 X58 Y335 F2000
G1 X59 Y336 F2000
G1 X59 Y337 F2000
G1 X60 Y338 F2000
G1 X62 Y338 F2000
G1 X65 Y335 F2000
G1 X66 Y335 F2000
G1 X67 Y334 F2000
G1 X68 Y334 F2000
G1 X69 Y335 F2000
G1 X69 Y343 F2000
G1 X68 Y344 F2000
G1 X68 Y348 F2000
G1 X69 Y349 F2000
G1 X67 Y351 F2000
G1 X64 Y348 F2000
G1 X64 Y347 F2000
G1 X65 Y346 F2000
G1 X65 Y340 F2000
G1 X63 Y340 F2000
G1 X59 Y344 F2000
G1 X59 Y345 F2000
G1 X58 Y346 F2000
G1 X58 Y347 F2000
G1 X56 Y349 F2000
G1 X56 Y350 F2000
G1 X54 Y352 F2000
G1 X53 Y352 F2000
G1 X52 Y351 F2000
G1 X53 Y350 F2000
G1 X53 Y349 F2000
G1 X54 Y348 F2000
G1 X54 Y347 F2000
G1 X55 Y346 F2000
G1 X55 Y344 F2000
G1 X56 Y343 F2000
G1 X56 Y342 F2000
G1 X57 Y341 F2000
G1 X57 Y339 F2000
G1 X56 Y338 F2000
G1 X53 Y341 F2000
G1 X52 Y341 F2000
G1 X48 Y345 F2000
G1 X48 Y347 F2000
G1 X47 Y348 F2000
G1 X47 Y349 F2000
G1 X45 Y351 F2000
G1 X44 Y350 F2000
G1 X44 Y349 F2000
G1 X43 Y348 F2000
G1 X44 Y347 F2000
G1 X44 Y346 F2000
G1 X45 Y345 F2000
G1 X45 Y343 F2000
G1 X46 Y342 F2000
G1 X46 Y341 F2000
G1 X47 Y340 F2000
G1 X47 Y337 F2000
G1 X46 Y336 F2000
G1 X46 Y335 F2000
G1 X44 Y335 F2000
G1 X45 Y335 F2000
G1 X47 Y337 F2000
G1 X47 Y339 F2000
G1 X46 Y340 F2000
G1 X46 Y342 F2000
G1 X45 Y343 F2000
G1 X45 Y345 F2000
G1 X44 Y346 F2000
G1 X44 Y347 F2000
G1 X43 Y348 F2000
G1 X44 Y349 F2000
G1 X43 Y350 F2000
G1 X44 Y350 F2000
G1 X45 Y351 F2000
G1 X46 Y351 F2000
G1 X47 Y350 F2000
G1 X47 Y349 F2000
G1 X48 Y348 F2000
G1 X48 Y346 F2000
G1 X53 Y341 F2000
G1 X54 Y341 F2000
G1 X54 Y340 F2000
G1 X55 Y339 F2000
G1 X56 Y339 F2000
G1 X57 Y340 F2000
G1 X57 Y341 F2000
G1 X55 Y343 F2000
G1 X55 Y345 F2000
G1 X54 Y346 F2000
G1 X54 Y348 F2000
G1 X53 Y349 F2000
G1 X53 Y350 F2000
G1 X52 Y351 F2000
G1 X52 Y352 F2000
G1 X55 Y352 F2000
G1 X56 Y351 F2000
G1 X56 Y350 F2000
G1 X58 Y348 F2000
G1 X58 Y347 F2000
G1 X59 Y346 F2000
G1 X59 Y345 F2000
G1 X64 Y340 F2000
G1 X65 Y341 F2000
G1 X65 Y346 F2000
G1 X64 Y347 F2000
G1 X64 Y349 F2000
G1 X66 Y351 F2000
G1 X68 Y351 F2000
G1 X68 Y350 F2000
G1 X69 Y349 F2000
G1 X68 Y348 F2000
G1 X68 Y344 F2000
G1 X69 Y343 F2000
G1 X69 Y334 F2000
G1 X66 Y334 F2000
G1 X65 Y335 F2000
G1 X64 Y335 F2000
G1 X61 Y338 F2000
G1 X59 Y336 F2000
G1 X59 Y335 F2000
G1 X54 Y335 F2000
G1 X52 Y337 F2000
G1 X51 Y337 F2000
G1 X49 Y335 F2000
G1 X49 Y333 F2000
G1 X48 Y333 F2000
G1 X47 Y332 F2000
G0 Z2.0 F1000 ; Pen up
G0 X316 Y331 F3000
G0 Z0.0 F500 ; Pen down
G1 X314 Y333 F2000
G1 X313 Y333 F2000
G1 X312 Y334 F2000
G1 X312 Y335 F2000
G1 X310 Y337 F2000
G1 X310 Y338 F2000
G1 X308 Y340 F2000
G1 X308 Y342 F2000
G1 X307 Y343 F2000
G1 X307 Y344 F2000
G1 X311 Y344 F2000
G1 X312 Y343 F2000
G1 X312 Y342 F2000
G1 X314 Y340 F2000
G1 X314 Y339 F2000
G1 X315 Y338 F2000
G1 X315 Y336 F2000
G1 X316 Y335 F2000
G1 X316 Y333 F2000
G1 X315 Y332 F2000
G0 Z2.0 F1000 ; Pen up
G0 X204 Y330 F3000
G0 Z0.0 F500 ; Pen down
G1 X206 Y330 F2000
G1 X207 Y331 F2000
G1 X204 Y334 F2000
G1 X202 Y332 F2000
G0 Z2.0 F1000 ; Pen up
G0 X88 Y330 F3000
G0 Z0.0 F500 ; Pen down
G1 X90 Y330 F2000
G1 X93 Y333 F2000
G1 X93 Y338 F2000
G1 X91 Y340 F2000
G1 X91 Y341 F2000
G1 X85 Y347 F2000
G1 X85 Y349 F2000
G1 X88 Y349 F2000
G1 X90 Y347 F2000
G1 X91 Y347 F2000
G1 X92 Y348 F2000
G1 X92 Y349 F2000
G1 X90 Y351 F2000
G1 X89 Y351 F2000
G1 X88 Y352 F2000
G1 X83 Y352 F2000
G1 X81 Y350 F2000
G1 X80 Y350 F2000
G1 X79 Y349 F2000
G1 X77 Y349 F2000
G1 X76 Y348 F2000
G1 X76 Y347 F2000
G1 X75 Y346 F2000
G1 X76 Y345 F2000
G1 X76 Y344 F2000
G1 X77 Y343 F2000
G1 X77 Y342 F2000
G1 X78 Y341 F2000
G1 X80 Y341 F2000
G1 X81 Y342 F2000
G1 X81 Y345 F2000
G1 X80 Y346 F2000
G1 X80 Y347 F2000
G1 X81 Y346 F2000
G1 X81 Y339 F2000
G1 X83 Y337 F2000
G1 X83 Y336 F2000
G1 X85 Y334 F2000
G1 X85 Y333 F2000
G0 Z2.0 F1000 ; Pen up
G0 X189 Y330 F3000
G0 Z0.0 F500 ; Pen down
G1 X185 Y334 F2000
G1 X185 Y339 F2000
G1 X186 Y338 F2000
G1 X187 Y339 F2000
G1 X187 Y338 F2000
G1 X192 Y333 F2000
G1 X193 Y333 F2000
G1 X196 Y336 F2000
G1 X196 Y338 F2000
G1 X192 Y342 F2000
G1 X192 Y346 F2000
G1 X194 Y346 F2000
G1 X195 Y345 F2000
G1 X195 Y344 F2000
G1 X197 Y342 F2000
G1 X198 Y342 F2000
G1 X199 Y343 F2000
G1 X199 Y344 F2000
G1 X203 Y348 F2000
G1 X206 Y348 F2000
G1 X207 Y347 F2000
G1 X208 Y347 F2000
G1 X207 Y346 F2000
G1 X207 Y345 F2000
G1 X206 Y345 F2000
G1 X203 Y342 F2000
G1 X203 Y341 F2000
G1 X201 Y339 F2000
G1 X201 Y338 F2000
G1 X207 Y332 F2000
G1 X207 Y330 F2000
G1 X203 Y330 F2000
G1 X203 Y331 F2000
G1 X202 Y332 F2000
G1 X201 Y332 F2000
G1 X200 Y333 F2000
G1 X201 Y333 F2000
G1 X202 Y332 F2000
G1 X204 Y334 F2000
G1 X202 Y336 F2000
G1 X202 Y337 F2000
G1 X201 Y338 F2000
G1 X201 Y339 F2000
G1 X202 Y340 F2000
G1 X202 Y341 F2000
G1 X203 Y342 F2000
G1 X203 Y343 F2000
G1 X205 Y345 F2000
G1 X206 Y345 F2000
G1 X207 Y346 F2000
G1 X205 Y348 F2000
G1 X204 Y348 F2000
G1 X199 Y343 F2000
G1 X199 Y342 F2000
G1 X197 Y340 F2000
G1 X198 Y341 F2000
G1 X197 Y342 F2000
G1 X196 Y342 F2000
G1 X195 Y343 F2000
G1 X195 Y344 F2000
G1 X193 Y346 F2000
G1 X192 Y345 F2000
G1 X192 Y343 F2000
G1 X195 Y340 F2000
G1 X195 Y339 F2000
G1 X196 Y338 F2000
G1 X196 Y335 F2000
G1 X194 Y333 F2000
G1 X192 Y333 F2000
G1 X191 Y334 F2000
G1 X190 Y334 F2000
G1 X186 Y338 F2000
G1 X185 Y337 F2000
G1 X185 Y335 F2000
G1 X190 Y330 F2000
G1 X195 Y330 F2000
G1 X198 Y333 F2000
G1 X198 Y334 F2000
G1 X198 Y332 F2000
G1 X196 Y330 F2000
G0 Z2.0 F1000 ; Pen up
G0 X88 Y330 F3000
G0 Z0.0 F500 ; Pen down
G1 X87 Y331 F2000
G1 X86 Y331 F2000
G1 X85 Y332 F2000
G1 X85 Y333 F2000
G1 X83 Y335 F2000
G1 X83 Y336 F2000
G1 X81 Y338 F2000
G1 X81 Y339 F2000
G1 X79 Y341 F2000
G1 X77 Y341 F2000
G1 X77 Y342 F2000
G1 X76 Y343 F2000
G1 X76 Y345 F2000
G1 X75 Y346 F2000
G1 X76 Y347 F2000
G1 X76 Y349 F2000
G1 X78 Y349 F2000
G1 X79 Y350 F2000
G1 X80 Y350 F2000
G1 X82 Y352 F2000
G1 X89 Y352 F2000
G1 X90 Y351 F2000
G1 X91 Y351 F2000
G1 X92 Y350 F2000
G1 X92 Y347 F2000
G1 X90 Y347 F2000
G1 X88 Y349 F2000
G1 X86 Y349 F2000
G1 X85 Y348 F2000
G1 X91 Y342 F2000
G1 X91 Y341 F2000
G1 X93 Y339 F2000
G1 X93 Y332 F2000
G1 X91 Y330 F2000
G0 Z2.0 F1000 ; Pen up
G0 X315 Y329 F3000
G0 Z0.0 F500 ; Pen down
G1 X316 Y328 F2000
G1 X317 Y329 F2000
G1 X318 Y329 F2000
G1 X319 Y330 F2000
G1 X319 Y332 F2000
G1 X320 Y333 F2000
G1 X320 Y336 F2000
G1 X319 Y337 F2000
G1 X319 Y344 F2000
G1 X320 Y345 F2000
G1 X324 Y345 F2000
G1 X325 Y344 F2000
G1 X327 Y344 F2000
G1 X328 Y345 F2000
G1 X326 Y347 F2000
G1 X325 Y347 F2000
G1 X323 Y349 F2000
G1 X320 Y349 F2000
G1 X316 Y345 F2000
G1 X313 Y345 F2000
G1 X310 Y348 F2000
G1 X306 Y348 F2000
G1 X303 Y345 F2000
G1 X303 Y341 F2000
G1 X304 Y340 F2000
G1 X304 Y338 F2000
G1 X305 Y337 F2000
G1 X305 Y336 F2000
G1 X307 Y334 F2000
G1 X308 Y334 F2000
G1 X312 Y330 F2000
G1 X313 Y330 F2000
G1 X314 Y329 F2000
G0 Z2.0 F1000 ; Pen up
G0 X316 Y328 F3000
G0 Z0.0 F500 ; Pen down
G1 X315 Y329 F2000
G1 X313 Y329 F2000
G1 X312 Y330 F2000
G1 X311 Y330 F2000
G1 X307 Y334 F2000
G1 X306 Y334 F2000
G1 X305 Y335 F2000
G1 X305 Y336 F2000
G1 X304 Y337 F2000
G1 X304 Y340 F2000
G1 X303 Y341 F2000
G1 X303 Y346 F2000
G1 X305 Y348 F2000
G1 X310 Y348 F2000
G1 X311 Y347 F2000
G1 X312 Y347 F2000
G1 X314 Y345 F2000
G1 X315 Y345 F2000
G1 X318 Y348 F2000
G1 X319 Y348 F2000
G1 X320 Y349 F2000
G1 X323 Y349 F2000
G1 X324 Y348 F2000
G1 X325 Y348 F2000
G1 X326 Y347 F2000
G1 X327 Y347 F2000
G1 X327 Y346 F2000
G1 X328 Y345 F2000
G1 X328 Y344 F2000
G1 X325 Y344 F2000
G1 X324 Y345 F2000
G1 X321 Y345 F2000
G1 X319 Y343 F2000
G1 X319 Y337 F2000
G1 X320 Y336 F2000
G1 X320 Y333 F2000
G1 X319 Y332 F2000
G1 X319 Y330 F2000
G1 X318 Y329 F2000
G1 X318 Y328 F2000
G1 X317 Y329 F2000
G0 Z2.0 F1000 ; Pen up
G0 X271 Y328 F3000
G0 Z0.0 F500 ; Pen down
G1 X270 Y329 F2000
G1 X269 Y329 F2000
G1 X267 Y331 F2000
G1 X266 Y331 F2000
G1 X265 Y330 F2000
G1 X264 Y330 F2000
G1 X263 Y329 F2000
G1 X262 Y330 F2000
G1 X260 Y330 F2000
G1 X259 Y331 F2000
G1 X258 Y331 F2000
G1 X256 Y333 F2000
G1 X253 Y330 F2000
G1 X253 Y329 F2000
G1 X247 Y329 F2000
G1 X245 Y331 F2000
G1 X245 Y332 F2000
G1 X244 Y333 F2000
G1 X244 Y335 F2000
G1 X245 Y336 F2000
G1 X246 Y336 F2000
G1 X247 Y337 F2000
G1 X247 Y336 F2000
G1 X249 Y334 F2000
G1 X248 Y333 F2000
G1 X249 Y332 F2000
G1 X250 Y332 F2000
G1 X251 Y333 F2000
G1 X251 Y334 F2000
G1 X252 Y335 F2000
G1 X252 Y338 F2000
G1 X251 Y339 F2000
G1 X251 Y340 F2000
G1 X250 Y341 F2000
G1 X250 Y346 F2000
G1 X250 Y341 F2000
G1 X251 Y340 F2000
G1 X251 Y339 F2000
G1 X252 Y338 F2000
G1 X252 Y335 F2000
G1 X251 Y334 F2000
G1 X251 Y332 F2000
G1 X250 Y331 F2000
G1 X248 Y333 F2000
G1 X248 Y334 F2000
G1 X246 Y336 F2000
G1 X244 Y334 F2000
G1 X245 Y333 F2000
G1 X245 Y332 F2000
G1 X248 Y329 F2000
G1 X252 Y329 F2000
G1 X253 Y330 F2000
G1 X253 Y331 F2000
G1 X255 Y333 F2000
G1 X257 Y333 F2000
G1 X259 Y331 F2000
G1 X260 Y331 F2000
G1 X261 Y330 F2000
G1 X262 Y330 F2000
G1 X263 Y329 F2000
G1 X265 Y331 F2000
G1 X265 Y332 F2000
G1 X266 Y331 F2000
G1 X267 Y331 F2000
G1 X268 Y330 F2000
G1 X269 Y330 F2000
G1 X270 Y329 F2000
G1 X271 Y329 F2000
G1 X272 Y328 F2000
G1 X274 Y330 F2000
G1 X274 Y344 F2000
G1 X273 Y345 F2000
G1 X272 Y345 F2000
G1 X271 Y344 F2000
G1 X271 Y341 F2000
G1 X270 Y340 F2000
G1 X271 Y339 F2000
G1 X271 Y334 F2000
G1 X270 Y333 F2000
G1 X269 Y333 F2000
G1 X266 Y336 F2000
G1 X266 Y337 F2000
G1 X265 Y338 F2000
G1 X265 Y339 F2000
G1 X263 Y341 F2000
G1 X263 Y343 F2000
G1 X261 Y345 F2000
G1 X259 Y343 F2000
G1 X260 Y342 F2000
G1 X260 Y340 F2000
G1 X261 Y339 F2000
G1 X261 Y338 F2000
G1 X262 Y337 F2000
G1 X262 Y333 F2000
G1 X262 Y337 F2000
G1 X261 Y338 F2000
G1 X261 Y339 F2000
G1 X260 Y340 F2000
G1 X260 Y342 F2000
G1 X259 Y343 F2000
G1 X259 Y344 F2000
G1 X260 Y345 F2000
G1 X262 Y345 F2000
G1 X263 Y344 F2000
G1 X263 Y342 F2000
G1 X265 Y340 F2000
G1 X265 Y338 F2000
G1 X268 Y335 F2000
G1 X268 Y334 F2000
G1 X269 Y333 F2000
G1 X271 Y335 F2000
G1 X271 Y339 F2000
G1 X270 Y340 F2000
G1 X271 Y341 F2000
G1 X271 Y345 F2000
G1 X274 Y345 F2000
G1 X274 Y329 F2000
G1 X273 Y329 F2000
G1 X272 Y328 F2000
G0 Z2.0 F1000 ; Pen up
G0 X105 Y327 F3000
G0 Z0.0 F500 ; Pen down
G1 X106 Y326 F2000
G1 X107 Y327 F2000
G1 X106 Y328 F2000
G0 Z2.0 F1000 ; Pen up
G0 X292 Y325 F3000
G0 Z0.0 F500 ; Pen down
G1 X291 Y326 F2000
G1 X290 Y326 F2000
G1 X286 Y330 F2000
G1 X286 Y340 F2000
G1 X287 Y341 F2000
G1 X287 Y342 F2000
G1 X287 Y341 F2000
G1 X286 Y340 F2000
G1 X286 Y331 F2000
G1 X292 Y325 F2000
G1 X296 Y325 F2000
G1 X298 Y327 F2000
G1 X298 Y329 F2000
G1 X295 Y332 F2000
G1 X294 Y332 F2000
G1 X293 Y333 F2000
G1 X291 Y333 F2000
G1 X290 Y332 F2000
G1 X289 Y333 F2000
G1 X289 Y338 F2000
G1 X291 Y340 F2000
G1 X291 Y342 F2000
G1 X292 Y343 F2000
G1 X292 Y345 F2000
G1 X290 Y347 F2000
G1 X288 Y347 F2000
G1 X287 Y348 F2000
G1 X286 Y348 F2000
G1 X285 Y347 F2000
G1 X283 Y347 F2000
G1 X280 Y344 F2000
G1 X280 Y342 F2000
G1 X281 Y341 F2000
G1 X284 Y344 F2000
G1 X288 Y344 F2000
G1 X285 Y344 F2000
G1 X281 Y340 F2000
G1 X281 Y341 F2000
G1 X280 Y342 F2000
G1 X280 Y344 F2000
G1 X281 Y345 F2000
G1 X281 Y346 F2000
G1 X282 Y346 F2000
G1 X283 Y347 F2000
G1 X285 Y347 F2000
G1 X286 Y348 F2000
G1 X287 Y348 F2000
G1 X288 Y347 F2000
G1 X291 Y347 F2000
G1 X292 Y346 F2000
G1 X293 Y346 F2000
G1 X292 Y345 F2000
G1 X292 Y343 F2000
G1 X291 Y342 F2000
G1 X291 Y340 F2000
G1 X290 Y339 F2000
G1 X290 Y338 F2000
G1 X289 Y337 F2000
G1 X289 Y334 F2000
G1 X290 Y333 F2000
G1 X293 Y333 F2000
G1 X294 Y332 F2000
G1 X296 Y332 F2000
G1 X298 Y330 F2000
G1 X298 Y326 F2000
G1 X297 Y325 F2000
G0 Z2.0 F1000 ; Pen up
G0 X125 Y315 F3000
G0 Z0.0 F500 ; Pen down
G1 X127 Y317 F2000
G1 X129 Y317 F2000
G1 X130 Y316 F2000
G1 X131 Y316 F2000
G1 X132 Y317 F2000
G1 X132 Y318 F2000
G1 X129 Y321 F2000
G1 X129 Y322 F2000
G1 X128 Y323 F2000
G1 X128 Y326 F2000
G1 X127 Y327 F2000
G1 X127 Y329 F2000
G1 X125 Y331 F2000
G1 X124 Y330 F2000
G1 X124 Y325 F2000
G1 X125 Y324 F2000
G1 X125 Y321 F2000
G1 X124 Y320 F2000
G1 X124 Y319 F2000
G1 X123 Y318 F2000
G1 X123 Y317 F2000
G0 Z2.0 F1000 ; Pen up
G0 X141 Y315 F3000
G0 Z0.0 F500 ; Pen down
G1 X139 Y317 F2000
G1 X139 Y319 F2000
G1 X140 Y320 F2000
G1 X143 Y320 F2000
G1 X144 Y319 F2000
G1 X147 Y319 F2000
G1 X144 Y319 F2000
G1 X143 Y320 F2000
G1 X141 Y320 F2000
G1 X139 Y318 F2000
G1 X142 Y315 F2000
G0 Z2.0 F1000 ; Pen up
G0 X124 Y315 F3000
G0 Z0.0 F500 ; Pen down
G1 X123 Y316 F2000
G1 X123 Y319 F2000
G1 X125 Y321 F2000
G1 X125 Y324 F2000
G1 X124 Y325 F2000
G1 X124 Y331 F2000
G1 X125 Y331 F2000
G1 X126 Y330 F2000
G1 X127 Y330 F2000
G1 X127 Y327 F2000
G1 X128 Y326 F2000
G1 X128 Y323 F2000
G1 X133 Y318 F2000
G1 X134 Y318 F2000
G1 X133 Y318 F2000
G1 X132 Y317 F2000
G1 X133 Y316 F2000
G1 X134 Y316 F2000
G1 X131 Y316 F2000
G1 X130 Y315 F2000
G1 X128 Y317 F2000
G1 X126 Y315 F2000
G0 Z2.0 F1000 ; Pen up
G0 X113 Y315 F3000
G0 Z0.0 F500 ; Pen down
G1 X113 Y316 F2000
G1 X112 Y317 F2000
G1 X112 Y319 F2000
G1 X111 Y320 F2000
G1 X111 Y321 F2000
G1 X110 Y322 F2000
G1 X110 Y323 F2000
G1 X109 Y324 F2000
G1 X109 Y325 F2000
G1 X107 Y327 F2000
G1 X106 Y326 F2000
G1 X106 Y324 F2000
G1 X107 Y323 F2000
G1 X107 Y317 F2000
G1 X106 Y316 F2000
G1 X103 Y316 F2000
G1 X103 Y319 F2000
G1 X104 Y320 F2000
G1 X104 Y322 F2000
G1 X103 Y323 F2000
G1 X103 Y325 F2000
G1 X102 Y326 F2000
G1 X102 Y329 F2000
G1 X103 Y330 F2000
G1 X103 Y331 F2000
G1 X104 Y331 F2000
G1 X105 Y332 F2000
G1 X106 Y332 F2000
G1 X107 Y331 F2000
G1 X108 Y331 F2000
G1 X108 Y330 F2000
G1 X109 Y329 F2000
G1 X111 Y331 F2000
G1 X111 Y337 F2000
G1 X110 Y338 F2000
G1 X110 Y339 F2000
G1 X108 Y341 F2000
G1 X107 Y341 F2000
G1 X106 Y340 F2000
G1 X105 Y340 F2000
G1 X106 Y340 F2000
G1 X107 Y341 F2000
G1 X109 Y341 F2000
G1 X110 Y340 F2000
G1 X110 Y338 F2000
G1 X111 Y337 F2000
G1 X111 Y329 F2000
G1 X110 Y330 F2000
G1 X109 Y329 F2000
G1 X106 Y332 F2000
G1 X105 Y332 F2000
G1 X102 Y329 F2000
G1 X102 Y326 F2000
G1 X103 Y325 F2000
G1 X103 Y323 F2000
G1 X104 Y322 F2000
G1 X104 Y319 F2000
G1 X103 Y318 F2000
G1 X103 Y317 F2000
G1 X104 Y316 F2000
G1 X105 Y316 F2000
G1 X107 Y318 F2000
G1 X107 Y323 F2000
G1 X106 Y324 F2000
G1 X106 Y326 F2000
G1 X105 Y327 F2000
G1 X105 Y328 F2000
G1 X106 Y329 F2000
G1 X106 Y328 F2000
G1 X107 Y327 F2000
G1 X108 Y327 F2000
G1 X108 Y326 F2000
G1 X110 Y324 F2000
G1 X110 Y323 F2000
G1 X111 Y322 F2000
G1 X111 Y320 F2000
G1 X112 Y319 F2000
G1 X112 Y318 F2000
G1 X113 Y317 F2000
G1 X113 Y316 F2000
G1 X114 Y315 F2000
G1 X115 Y315 F2000
G1 X116 Y316 F2000
G1 X116 Y318 F2000
G1 X115 Y319 F2000
G1 X115 Y322 F2000
G1 X114 Y323 F2000
G1 X114 Y341 F2000
G1 X111 Y344 F2000
G1 X106 Y344 F2000
G1 X103 Y341 F2000
G1 X103 Y339 F2000
G1 X103 Y341 F2000
G1 X104 Y342 F2000
G1 X104 Y343 F2000
G1 X105 Y344 F2000
G1 X112 Y344 F2000
G1 X113 Y343 F2000
G1 X113 Y342 F2000
G1 X114 Y341 F2000
G1 X114 Y323 F2000
G1 X115 Y322 F2000
G1 X115 Y319 F2000
G1 X116 Y318 F2000
G1 X116 Y315 F2000
G0 Z2.0 F1000 ; Pen up
G0 X141 Y307 F3000
G0 Z0.0 F500 ; Pen down
G1 X140 Y308 F2000
G1 X139 Y308 F2000
G1 X138 Y309 F2000
G1 X142 Y313 F2000
G1 X142 Y312 F2000
G1 X140 Y310 F2000
G1 X139 Y310 F2000
G1 X138 Y309 F2000
G1 X139 Y308 F2000
G1 X140 Y308 F2000
G1 X141 Y307 F2000
G1 X142 Y308 F2000
G1 X143 Y308 F2000
G1 X146 Y311 F2000
G1 X146 Y312 F2000
G1 X145 Y313 F2000
G1 X145 Y315 F2000
G1 X144 Y316 F2000
G1 X145 Y316 F2000
G1 X146 Y317 F2000
G1 X146 Y316 F2000
G1 X145 Y315 F2000
G1 X145 Y314 F2000
G1 X146 Y313 F2000
G1 X146 Y310 F2000
G1 X144 Y308 F2000
G1 X142 Y308 F2000
G0 Z2.0 F1000 ; Pen up
G0 X207 Y280 F3000
G0 Z0.0 F500 ; Pen down
G1 X210 Y280 F2000
G1 X211 Y281 F2000
G1 X211 Y286 F2000
G1 X212 Y287 F2000
G1 X212 Y288 F2000
G1 X213 Y289 F2000
G1 X213 Y290 F2000
G1 X212 Y291 F2000
G1 X210 Y291 F2000
G1 X208 Y289 F2000
G1 X208 Y283 F2000
G1 X207 Y284 F2000
G1 X205 Y284 F2000
G1 X204 Y283 F2000
G0 Z2.0 F1000 ; Pen up
G0 X191 Y280 F3000
G0 Z0.0 F500 ; Pen down
G1 X192 Y279 F2000
G1 X193 Y279 F2000
G1 X195 Y281 F2000
G1 X195 Y283 F2000
G1 X198 Y283 F2000
G1 X201 Y280 F2000
G1 X203 Y282 F2000
G1 X203 Y283 F2000
G1 X202 Y284 F2000
G1 X203 Y283 F2000
G1 X204 Y284 F2000
G1 X205 Y284 F2000
G1 X206 Y285 F2000
G1 X204 Y287 F2000
G1 X204 Y289 F2000
G1 X202 Y291 F2000
G1 X202 Y292 F2000
G1 X201 Y293 F2000
G1 X200 Y293 F2000
G1 X199 Y292 F2000
G1 X199 Y290 F2000
G1 X200 Y289 F2000
G1 X200 Y284 F2000
G1 X199 Y285 F2000
G1 X198 Y285 F2000
G1 X196 Y287 F2000
G1 X196 Y288 F2000
G1 X194 Y290 F2000
G1 X194 Y291 F2000
G1 X193 Y292 F2000
G1 X193 Y293 F2000
G1 X192 Y294 F2000
G1 X191 Y294 F2000
G1 X190 Y293 F2000
G1 X190 Y291 F2000
G1 X191 Y290 F2000
G1 X191 Y287 F2000
G1 X192 Y286 F2000
G1 X191 Y285 F2000
G0 Z2.0 F1000 ; Pen up
G0 X191 Y279 F3000
G0 Z0.0 F500 ; Pen down
G1 X191 Y285 F2000
G1 X192 Y286 F2000
G1 X191 Y287 F2000
G1 X191 Y289 F2000
G1 X190 Y290 F2000
G1 X190 Y295 F2000
G1 X191 Y294 F2000
G1 X192 Y295 F2000
G1 X193 Y294 F2000
G1 X193 Y293 F2000
G1 X194 Y292 F2000
G1 X194 Y291 F2000
G1 X196 Y289 F2000
G1 X196 Y288 F2000
G1 X199 Y285 F2000
G1 X200 Y286 F2000
G1 X200 Y289 F2000
G1 X199 Y290 F2000
G1 X199 Y293 F2000
G1 X200 Y294 F2000
G1 X201 Y293 F2000
G1 X202 Y293 F2000
G1 X202 Y292 F2000
G1 X204 Y290 F2000
G1 X204 Y288 F2000
G1 X206 Y286 F2000
G1 X206 Y285 F2000
G1 X207 Y284 F2000
G1 X208 Y285 F2000
G1 X208 Y290 F2000
G1 X210 Y292 F2000
G1 X211 Y291 F2000
G1 X213 Y291 F2000
G1 X213 Y288 F2000
G1 X211 Y286 F2000
G1 X211 Y280 F2000
G1 X209 Y280 F2000
G1 X208 Y279 F2000
G1 X207 Y280 F2000
G1 X206 Y280 F2000
G1 X205 Y281 F2000
G1 X205 Y282 F2000
G1 X204 Y283 F2000
G1 X203 Y282 F2000
G1 X203 Y281 F2000
G1 X202 Y281 F2000
G1 X201 Y280 F2000
G1 X200 Y281 F2000
G1 X199 Y281 F2000
G1 X197 Y283 F2000
G1 X196 Y283 F2000
G1 X195 Y282 F2000
G1 X195 Y281 F2000
G1 X194 Y280 F2000
G1 X194 Y279 F2000
G0 Z2.0 F1000 ; Pen up
G0 X140 Y278 F3000
G0 Z0.0 F500 ; Pen down
G1 X149 Y278 F2000
G1 X150 Y279 F2000
G1 X149 Y280 F2000
G1 X148 Y280 F2000
G1 X147 Y281 F2000
G1 X142 Y281 F2000
G1 X141 Y280 F2000
G1 X140 Y280 F2000
G1 X141 Y281 F2000
G1 X147 Y281 F2000
G1 X148 Y280 F2000
G1 X150 Y280 F2000
G1 X150 Y279 F2000
G1 X149 Y278 F2000
G0 Z2.0 F1000 ; Pen up
G0 X143 Y272 F3000
G0 Z0.0 F500 ; Pen down
G1 X144 Y271 F2000
G1 X149 Y271 F2000
G1 X151 Y273 F2000
G1 X149 Y275 F2000
G1 X141 Y275 F2000
G1 X140 Y274 F2000
G1 X140 Y273 F2000
G1 X141 Y272 F2000
G0 Z2.0 F1000 ; Pen up
G0 X144 Y271 F3000
G0 Z0.0 F500 ; Pen down
G1 X143 Y272 F2000
G1 X139 Y272 F2000
G1 X140 Y273 F2000
G1 X139 Y274 F2000
G1 X138 Y274 F2000
G1 X139 Y274 F2000
G1 X140 Y275 F2000
G1 X150 Y275 F2000
G1 X151 Y274 F2000
G1 X152 Y274 F2000
G1 X151 Y273 F2000
G1 X152 Y272 F2000
G1 X150 Y272 F2000
G1 X149 Y271 F2000
G0 Z2.0 F1000 ; Pen up
G0 X286 Y269 F3000
G0 Z0.0 F500 ; Pen down
G1 X287 Y268 F2000
G1 X288 Y268 F2000
G1 X289 Y269 F2000
G1 X289 Y271 F2000
G1 X287 Y273 F2000
G1 X287 Y274 F2000
G1 X283 Y278 F2000
G1 X282 Y277 F2000
G1 X282 Y275 F2000
G1 X285 Y272 F2000
G1 X285 Y271 F2000
G1 X286 Y270 F2000
G0 Z2.0 F1000 ; Pen up
G0 X237 Y269 F3000
G0 Z0.0 F500 ; Pen down
G1 X236 Y270 F2000
G1 X234 Y270 F2000
G1 X236 Y270 F2000
G1 X237 Y269 F2000
G1 X246 Y269 F2000
G1 X247 Y270 F2000
G1 X247 Y271 F2000
G1 X246 Y272 F2000
G1 X244 Y272 F2000
G1 X243 Y273 F2000
G1 X233 Y273 F2000
G1 X243 Y273 F2000
G1 X244 Y272 F2000
G1 X248 Y272 F2000
G1 X247 Y271 F2000
G1 X247 Y269 F2000
G0 Z2.0 F1000 ; Pen up
G0 X221 Y269 F3000
G0 Z0.0 F500 ; Pen down
G1 X220 Y270 F2000
G1 X197 Y270 F2000
G1 X196 Y271 F2000
G1 X195 Y270 F2000
G1 X174 Y270 F2000
G1 X174 Y271 F2000
G1 X175 Y270 F2000
G1 X195 Y270 F2000
G1 X196 Y271 F2000
G1 X197 Y270 F2000
G1 X220 Y270 F2000
G1 X221 Y269 F2000
G1 X222 Y269 F2000
G1 X223 Y270 F2000
G1 X224 Y270 F2000
G1 X225 Y271 F2000
G1 X223 Y273 F2000
G1 X210 Y273 F2000
G1 X209 Y274 F2000
G1 X187 Y274 F2000
G1 X186 Y273 F2000
G1 X184 Y273 F2000
G1 X183 Y274 F2000
G1 X181 Y274 F2000
G1 X180 Y273 F2000
G1 X174 Y273 F2000
G1 X180 Y273 F2000
G1 X181 Y274 F2000
G1 X183 Y274 F2000
G1 X184 Y273 F2000
G1 X186 Y273 F2000
G1 X187 Y274 F2000
G1 X209 Y274 F2000
G1 X210 Y273 F2000
G1 X223 Y273 F2000
G1 X224 Y272 F2000
G1 X226 Y272 F2000
G1 X225 Y271 F2000
G1 X226 Y270 F2000
G1 X223 Y270 F2000
G1 X222 Y269 F2000
G0 Z2.0 F1000 ; Pen up
G0 X287 Y268 F3000
G0 Z0.0 F500 ; Pen down
G1 X285 Y270 F2000
G1 X284 Y269 F2000
G1 X285 Y270 F2000
G1 X285 Y271 F2000
G1 X282 Y274 F2000
G1 X282 Y277 F2000
G1 X281 Y278 F2000
G1 X284 Y278 F2000
G1 X287 Y275 F2000
G1 X287 Y274 F2000
G1 X288 Y273 F2000
G1 X288 Y272 F2000
G1 X289 Y271 F2000
G1 X289 Y268 F2000
G0 Z2.0 F1000 ; Pen up
G0 X76 Y267 F3000
G0 Z0.0 F500 ; Pen down
G1 X77 Y266 F2000
G1 X78 Y267 F2000
G1 X78 Y271 F2000
G1 X76 Y273 F2000
G1 X76 Y274 F2000
G1 X74 Y276 F2000
G1 X73 Y275 F2000
G1 X73 Y273 F2000
G1 X74 Y272 F2000
G1 X74 Y271 F2000
G1 X75 Y270 F2000
G1 X75 Y269 F2000
G1 X76 Y268 F2000
G0 Z2.0 F1000 ; Pen up
G0 X76 Y266 F3000
G0 Z0.0 F500 ; Pen down
G1 X76 Y267 F2000
G1 X75 Y268 F2000
G1 X75 Y269 F2000
G1 X74 Y270 F2000
G1 X74 Y271 F2000
G1 X73 Y272 F2000
G1 X73 Y276 F2000
G1 X75 Y276 F2000
G1 X76 Y275 F2000
G1 X76 Y274 F2000
G1 X77 Y273 F2000
G1 X77 Y272 F2000
G1 X78 Y271 F2000
G1 X78 Y266 F2000
G0 Z2.0 F1000 ; Pen up
G0 X288 Y264 F3000
G0 Z0.0 F500 ; Pen down
G1 X289 Y263 F2000
G1 X290 Y263 F2000
G1 X292 Y265 F2000
G1 X292 Y266 F2000
G1 X293 Y267 F2000
G1 X293 Y271 F2000
G1 X292 Y272 F2000
G1 X292 Y277 F2000
G1 X293 Y278 F2000
G1 X299 Y278 F2000
G1 X300 Y279 F2000
G1 X299 Y280 F2000
G1 X298 Y280 F2000
G1 X297 Y281 F2000
G1 X296 Y281 F2000
G1 X295 Y282 F2000
G1 X293 Y282 F2000
G1 X288 Y277 F2000
G1 X289 Y278 F2000
G1 X288 Y279 F2000
G1 X287 Y279 F2000
G1 X285 Y281 F2000
G1 X284 Y281 F2000
G1 X283 Y282 F2000
G1 X280 Y282 F2000
G1 X277 Y279 F2000
G1 X277 Y276 F2000
G1 X278 Y275 F2000
G1 X278 Y274 F2000
G1 X279 Y273 F2000
G1 X279 Y272 F2000
G1 X280 Y271 F2000
G1 X280 Y270 F2000
G1 X283 Y267 F2000
G1 X284 Y267 F2000
G1 X287 Y264 F2000
G0 Z2.0 F1000 ; Pen up
G0 X289 Y263 F3000
G0 Z0.0 F500 ; Pen down
G1 X288 Y264 F2000
G1 X286 Y264 F2000
G1 X283 Y267 F2000
G1 X282 Y267 F2000
G1 X280 Y269 F2000
G1 X280 Y270 F2000
G1 X279 Y271 F2000
G1 X279 Y272 F2000
G1 X278 Y273 F2000
G1 X278 Y275 F2000
G1 X277 Y276 F2000
G1 X277 Y279 F2000
G1 X278 Y280 F2000
G1 X278 Y281 F2000
G1 X279 Y282 F2000
G1 X284 Y282 F2000
G1 X285 Y281 F2000
G1 X286 Y281 F2000
G1 X288 Y279 F2000
G1 X289 Y279 F2000
G1 X291 Y281 F2000
G1 X292 Y281 F2000
G1 X293 Y282 F2000
G1 X295 Y282 F2000
G1 X296 Y281 F2000
G1 X298 Y281 F2000
G1 X299 Y280 F2000
G1 X300 Y280 F2000
G1 X300 Y279 F2000
G1 X299 Y278 F2000
G1 X294 Y278 F2000
G1 X292 Y276 F2000
G1 X292 Y272 F2000
G1 X293 Y271 F2000
G1 X293 Y267 F2000
G1 X292 Y266 F2000
G1 X292 Y264 F2000
G1 X291 Y264 F2000
G1 X290 Y263 F2000
G0 Z2.0 F1000 ; Pen up
G0 X267 Y263 F3000
G0 Z0.0 F500 ; Pen down
G1 X265 Y265 F2000
G1 X265 Y266 F2000
G1 X265 Y265 F2000
G1 X266 Y264 F2000
G1 X267 Y264 F2000
G1 X268 Y263 F2000
G1 X269 Y264 F2000
G1 X269 Y265 F2000
G1 X269 Y264 F2000
G1 X268 Y263 F2000
G0 Z2.0 F1000 ; Pen up
G0 X76 Y262 F3000
G0 Z0.0 F500 ; Pen down
G1 X72 Y266 F2000
G1 X72 Y267 F2000
G1 X71 Y268 F2000
G1 X71 Y269 F2000
G1 X70 Y270 F2000
G1 X70 Y272 F2000
G1 X69 Y273 F2000
G1 X69 Y276 F2000
G1 X67 Y278 F2000
G1 X66 Y278 F2000
G1 X65 Y277 F2000
G1 X65 Y274 F2000
G1 X65 Y276 F2000
G1 X64 Y277 F2000
G1 X65 Y278 F2000
G1 X68 Y278 F2000
G1 X69 Y277 F2000
G1 X69 Y273 F2000
G1 X70 Y272 F2000
G1 X70 Y271 F2000
G1 X71 Y270 F2000
G1 X71 Y269 F2000
G1 X72 Y268 F2000
G1 X72 Y267 F2000
G1 X77 Y262 F2000
G1 X79 Y262 F2000
G1 X81 Y264 F2000
G1 X81 Y265 F2000
G1 X82 Y266 F2000
G1 X82 Y268 F2000
G1 X81 Y269 F2000
G1 X81 Y272 F2000
G1 X79 Y274 F2000
G1 X79 Y275 F2000
G1 X75 Y279 F2000
G1 X74 Y279 F2000
G1 X73 Y280 F2000
G1 X72 Y280 F2000
G1 X71 Y281 F2000
G1 X72 Y282 F2000
G1 X72 Y284 F2000
G1 X73 Y285 F2000
G1 X77 Y285 F2000
G1 X78 Y284 F2000
G1 X79 Y284 F2000
G1 X80 Y283 F2000
G1 X82 Y285 F2000
G1 X81 Y286 F2000
G1 X80 Y286 F2000
G1 X78 Y288 F2000
G1 X77 Y288 F2000
G1 X76 Y289 F2000
G1 X74 Y289 F2000
G1 X73 Y288 F2000
G1 X72 Y288 F2000
G1 X68 Y284 F2000
G1 X68 Y282 F2000
G1 X65 Y282 F2000
G1 X62 Y279 F2000
G1 X62 Y276 F2000
G1 X63 Y275 F2000
G1 X62 Y275 F2000
G1 X62 Y279 F2000
G1 X63 Y280 F2000
G1 X63 Y281 F2000
G1 X64 Y281 F2000
G1 X65 Y282 F2000
G1 X67 Y282 F2000
G1 X68 Y283 F2000
G1 X68 Y284 F2000
G1 X69 Y285 F2000
G1 X69 Y286 F2000
G1 X71 Y288 F2000
G1 X73 Y288 F2000
G1 X74 Y289 F2000
G1 X76 Y289 F2000
G1 X77 Y288 F2000
G1 X79 Y288 F2000
G1 X81 Y286 F2000
G1 X82 Y286 F2000
G1 X82 Y285 F2000
G1 X80 Y283 F2000
G1 X81 Y282 F2000
G1 X82 Y282 F2000
G1 X83 Y281 F2000
G1 X84 Y281 F2000
G1 X85 Y282 F2000
G1 X84 Y283 F2000
G1 X85 Y282 F2000
G1 X84 Y281 F2000
G1 X82 Y281 F2000
G1 X79 Y284 F2000
G1 X78 Y284 F2000
G1 X77 Y285 F2000
G1 X74 Y285 F2000
G1 X72 Y283 F2000
G1 X72 Y281 F2000
G1 X73 Y280 F2000
G1 X74 Y280 F2000
G1 X75 Y279 F2000
G1 X76 Y279 F2000
G1 X79 Y276 F2000
G1 X79 Y275 F2000
G1 X80 Y274 F2000
G1 X80 Y273 F2000
G1 X81 Y272 F2000
G1 X81 Y269 F2000
G1 X82 Y268 F2000
G1 X82 Y266 F2000
G1 X81 Y265 F2000
G1 X81 Y263 F2000
G1 X80 Y262 F2000
G0 Z2.0 F1000 ; Pen up
G0 X267 Y260 F3000
G0 Z0.0 F500 ; Pen down
G1 X266 Y261 F2000
G1 X265 Y261 F2000
G1 X262 Y264 F2000
G1 X262 Y273 F2000
G1 X263 Y274 F2000
G1 X263 Y275 F2000
G1 X264 Y276 F2000
G1 X264 Y277 F2000
G1 X264 Y276 F2000
G1 X263 Y275 F2000
G1 X263 Y274 F2000
G1 X262 Y273 F2000
G1 X262 Y265 F2000
G1 X266 Y261 F2000
G1 X267 Y261 F2000
G1 X268 Y260 F2000
G1 X269 Y260 F2000
G1 X272 Y263 F2000
G1 X272 Y264 F2000
G1 X271 Y265 F2000
G1 X271 Y266 F2000
G1 X270 Y267 F2000
G1 X269 Y267 F2000
G1 X268 Y268 F2000
G1 X266 Y268 F2000
G1 X266 Y269 F2000
G1 X265 Y270 F2000
G1 X266 Y271 F2000
G1 X266 Y274 F2000
G1 X267 Y275 F2000
G1 X267 Y276 F2000
G1 X268 Y277 F2000
G1 X268 Y278 F2000
G1 X269 Y279 F2000
G1 X269 Y280 F2000
G1 X267 Y282 F2000
G1 X261 Y282 F2000
G1 X257 Y278 F2000
G1 X257 Y277 F2000
G1 X259 Y275 F2000
G1 X260 Y276 F2000
G1 X260 Y277 F2000
G1 X262 Y279 F2000
G1 X264 Y279 F2000
G1 X262 Y279 F2000
G1 X261 Y278 F2000
G1 X261 Y277 F2000
G1 X259 Y275 F2000
G1 X260 Y274 F2000
G1 X260 Y273 F2000
G1 X260 Y274 F2000
G1 X259 Y275 F2000
G1 X258 Y275 F2000
G1 X257 Y276 F2000
G1 X257 Y278 F2000
G1 X258 Y279 F2000
G1 X258 Y280 F2000
G1 X259 Y281 F2000
G1 X260 Y281 F2000
G1 X261 Y282 F2000
G1 X267 Y282 F2000
G1 X268 Y281 F2000
G1 X269 Y281 F2000
G1 X269 Y278 F2000
G1 X268 Y277 F2000
G1 X268 Y276 F2000
G1 X267 Y275 F2000
G1 X267 Y274 F2000
G1 X266 Y273 F2000
G1 X266 Y271 F2000
G1 X265 Y270 F2000
G1 X267 Y268 F2000
G1 X268 Y268 F2000
G1 X269 Y267 F2000
G1 X271 Y267 F2000
G1 X271 Y266 F2000
G1 X272 Y265 F2000
G1 X272 Y262 F2000
G1 X270 Y260 F2000
G0 Z2.0 F1000 ; Pen up
G0 X207 Y246 F3000
G0 Z0.0 F500 ; Pen down
G1 X203 Y250 F2000
G1 X203 Y251 F2000
G1 X202 Y252 F2000
G1 X200 Y252 F2000
G1 X196 Y248 F2000
G1 X192 Y248 F2000
G1 X191 Y249 F2000
G1 X190 Y249 F2000
G1 X190 Y250 F2000
G1 X189 Y251 F2000
G1 X189 Y252 F2000
G1 X188 Y253 F2000
G1 X188 Y255 F2000
G1 X188 Y253 F2000
G1 X189 Y252 F2000
G1 X189 Y251 F2000
G1 X191 Y249 F2000
G1 X192 Y249 F2000
G1 X193 Y248 F2000
G1 X195 Y248 F2000
G1 X199 Y252 F2000
G1 X202 Y252 F2000
G1 X207 Y247 F2000
G1 X208 Y247 F2000
G1 X209 Y248 F2000
G1 X209 Y249 F2000
G1 X203 Y255 F2000
G1 X203 Y258 F2000
G1 X204 Y259 F2000
G1 X204 Y260 F2000
G1 X206 Y262 F2000
G1 X207 Y262 F2000
G1 X208 Y263 F2000
G1 X207 Y264 F2000
G1 X204 Y264 F2000
G1 X201 Y261 F2000
G1 X201 Y260 F2000
G1 X198 Y260 F2000
G1 X197 Y261 F2000
G1 X197 Y262 F2000
G1 X195 Y264 F2000
G1 X194 Y263 F2000
G1 X194 Y261 F2000
G1 X195 Y260 F2000
G1 X195 Y259 F2000
G1 X197 Y257 F2000
G1 X197 Y254 F2000
G1 X195 Y252 F2000
G1 X192 Y252 F2000
G1 X191 Y253 F2000
G1 X191 Y254 F2000
G1 X190 Y255 F2000
G1 X191 Y256 F2000
G1 X191 Y258 F2000
G1 X191 Y254 F2000
G1 X193 Y252 F2000
G1 X194 Y252 F2000
G1 X197 Y255 F2000
G1 X197 Y256 F2000
G1 X195 Y258 F2000
G1 X195 Y259 F2000
G1 X194 Y260 F2000
G1 X194 Y264 F2000
G1 X196 Y264 F2000
G1 X197 Y263 F2000
G1 X197 Y262 F2000
G1 X199 Y260 F2000
G1 X200 Y260 F2000
G1 X201 Y261 F2000
G1 X201 Y262 F2000
G1 X202 Y263 F2000
G1 X203 Y263 F2000
G1 X204 Y264 F2000
G1 X207 Y264 F2000
G1 X208 Y263 F2000
G1 X209 Y263 F2000
G1 X208 Y262 F2000
G1 X207 Y262 F2000
G1 X204 Y259 F2000
G1 X204 Y258 F2000
G1 X203 Y257 F2000
G1 X203 Y256 F2000
G1 X209 Y250 F2000
G1 X209 Y248 F2000
G1 X210 Y247 F2000
G1 X208 Y247 F2000
G0 Z2.0 F1000 ; Pen up
G0 X103 Y244 F3000
G0 Z0.0 F500 ; Pen down
G1 X104 Y244 F2000
G1 X105 Y245 F2000
G1 X105 Y250 F2000
G1 X104 Y251 F2000
G1 X104 Y265 F2000
G1 X103 Y266 F2000
G1 X103 Y269 F2000
G1 X99 Y273 F2000
G1 X97 Y273 F2000
G1 X96 Y274 F2000
G1 X95 Y274 F2000
G1 X92 Y271 F2000
G1 X92 Y270 F2000
G1 X93 Y269 F2000
G1 X94 Y270 F2000
G1 X95 Y270 F2000
G1 X96 Y271 F2000
G1 X97 Y270 F2000
G1 X98 Y270 F2000
G1 X99 Y269 F2000
G1 X99 Y267 F2000
G1 X100 Y266 F2000
G1 X100 Y258 F2000
G1 X101 Y257 F2000
G1 X101 Y254 F2000
G1 X100 Y254 F2000
G1 X99 Y253 F2000
G1 X99 Y252 F2000
G1 X100 Y251 F2000
G1 X100 Y250 F2000
G1 X101 Y249 F2000
G1 X101 Y246 F2000
G0 Z2.0 F1000 ; Pen up
G0 X120 Y243 F3000
G0 Z0.0 F500 ; Pen down
G1 X122 Y243 F2000
G1 X123 Y244 F2000
G1 X123 Y245 F2000
G1 X121 Y247 F2000
G1 X120 Y247 F2000
G1 X119 Y248 F2000
G1 X118 Y248 F2000
G1 X118 Y249 F2000
G1 X117 Y250 F2000
G1 X117 Y256 F2000
G1 X116 Y257 F2000
G1 X116 Y258 F2000
G1 X115 Y259 F2000
G1 X114 Y259 F2000
G1 X113 Y258 F2000
G1 X113 Y251 F2000
G1 X112 Y250 F2000
G1 X112 Y249 F2000
G1 X110 Y247 F2000
G1 X110 Y246 F2000
G1 X111 Y245 F2000
G1 X112 Y245 F2000
G1 X113 Y244 F2000
G1 X115 Y246 F2000
G1 X116 Y246 F2000
G1 X117 Y245 F2000
G1 X118 Y245 F2000
G0 Z2.0 F1000 ; Pen up
G0 X120 Y243 F3000
G0 Z0.0 F500 ; Pen down
G1 X119 Y244 F2000
G1 X118 Y244 F2000
G1 X116 Y246 F2000
G1 X115 Y246 F2000
G1 X113 Y244 F2000
G1 X112 Y245 F2000
G1 X110 Y245 F2000
G1 X110 Y248 F2000
G1 X113 Y251 F2000
G1 X113 Y259 F2000
G1 X116 Y259 F2000
G1 X116 Y257 F2000
G1 X117 Y256 F2000
G1 X117 Y250 F2000
G1 X119 Y248 F2000
G1 X120 Y248 F2000
G1 X121 Y247 F2000
G1 X122 Y247 F2000
G1 X123 Y246 F2000
G1 X123 Y245 F2000
G1 X124 Y244 F2000
G1 X125 Y244 F2000
G1 X124 Y244 F2000
G1 X123 Y243 F2000
G0 Z2.0 F1000 ; Pen up
G0 X103 Y243 F3000
G0 Z0.0 F500 ; Pen down
G1 X101 Y245 F2000
G1 X101 Y248 F2000
G1 X100 Y249 F2000
G1 X100 Y250 F2000
G1 X99 Y251 F2000
G1 X99 Y252 F2000
G1 X97 Y254 F2000
G1 X97 Y255 F2000
G1 X96 Y256 F2000
G1 X95 Y255 F2000
G1 X95 Y252 F2000
G1 X96 Y251 F2000
G1 X96 Y246 F2000
G1 X94 Y244 F2000
G1 X93 Y245 F2000
G1 X92 Y245 F2000
G1 X91 Y246 F2000
G1 X91 Y247 F2000
G1 X92 Y248 F2000
G1 X92 Y250 F2000
G1 X93 Y251 F2000
G1 X92 Y252 F2000
G1 X92 Y256 F2000
G1 X91 Y257 F2000
G1 X92 Y258 F2000
G1 X92 Y259 F2000
G1 X93 Y260 F2000
G1 X96 Y260 F2000
G1 X98 Y258 F2000
G1 X97 Y258 F2000
G1 X95 Y260 F2000
G1 X94 Y260 F2000
G1 X91 Y257 F2000
G1 X92 Y256 F2000
G1 X92 Y252 F2000
G1 X93 Y251 F2000
G1 X92 Y250 F2000
G1 X93 Y249 F2000
G1 X91 Y247 F2000
G1 X94 Y244 F2000
G1 X95 Y245 F2000
G1 X95 Y246 F2000
G1 X96 Y247 F2000
G1 X96 Y251 F2000
G1 X95 Y252 F2000
G1 X95 Y256 F2000
G1 X96 Y256 F2000
G1 X99 Y253 F2000
G1 X101 Y255 F2000
G1 X101 Y257 F2000
G1 X100 Y258 F2000
G1 X100 Y266 F2000
G1 X99 Y267 F2000
G1 X99 Y268 F2000
G1 X97 Y270 F2000
G1 X94 Y270 F2000
G1 X93 Y269 F2000
G1 X93 Y268 F2000
G1 X94 Y267 F2000
G1 X94 Y264 F2000
G1 X94 Y267 F2000
G1 X93 Y268 F2000
G1 X93 Y269 F2000
G1 X92 Y270 F2000
G1 X92 Y272 F2000
G1 X93 Y273 F2000
G1 X94 Y273 F2000
G1 X95 Y274 F2000
G1 X96 Y274 F2000
G1 X97 Y273 F2000
G1 X100 Y273 F2000
G1 X102 Y271 F2000
G1 X102 Y270 F2000
G1 X103 Y269 F2000
G1 X103 Y266 F2000
G1 X104 Y265 F2000
G1 X104 Y251 F2000
G1 X105 Y250 F2000
G1 X105 Y243 F2000
G1 X104 Y244 F2000
G0 Z2.0 F1000 ; Pen up
G0 X129 Y234 F3000
G0 Z0.0 F500 ; Pen down
G1 X131 Y234 F2000
G1 X134 Y237 F2000
G1 X134 Y239 F2000
G1 X136 Y241 F2000
G1 X137 Y241 F2000
G1 X138 Y242 F2000
G1 X137 Y243 F2000
G1 X136 Y243 F2000
G1 X135 Y244 F2000
G1 X131 Y244 F2000
G1 X129 Y242 F2000
G1 X131 Y240 F2000
G1 X131 Y238 F2000
G1 X129 Y236 F2000
G1 X128 Y236 F2000
G1 X131 Y239 F2000
G1 X129 Y241 F2000
G1 X129 Y242 F2000
G1 X130 Y243 F2000
G1 X130 Y244 F2000
G1 X136 Y244 F2000
G1 X137 Y243 F2000
G1 X138 Y243 F2000
G1 X138 Y242 F2000
G1 X139 Y241 F2000
G1 X137 Y241 F2000
G1 X136 Y240 F2000
G1 X135 Y240 F2000
G1 X134 Y239 F2000
G1 X134 Y236 F2000
G1 X132 Y234 F2000
G0 Z2.0 F1000 ; Pen up
G0 X292 Y194 F3000
G0 Z0.0 F500 ; Pen down
G1 X294 Y196 F2000
G1 X294 Y198 F2000
G1 X293 Y199 F2000
G1 X293 Y203 F2000
G1 X294 Y204 F2000
G1 X295 Y204 F2000
G1 X296 Y205 F2000
G1 X295 Y206 F2000
G1 X294 Y206 F2000
G1 X293 Y207 F2000
G1 X292 Y207 F2000
G1 X290 Y205 F2000
G1 X290 Y202 F2000
G1 X291 Y201 F2000
G1 X289 Y203 F2000
G1 X288 Y202 F2000
G1 X288 Y201 F2000
G1 X289 Y200 F2000
G1 X288 Y201 F2000
G1 X286 Y199 F2000
G1 X286 Y198 F2000
G1 X287 Y197 F2000
G1 X288 Y197 F2000
G1 X289 Y196 F2000
G1 X290 Y196 F2000
G0 Z2.0 F1000 ; Pen up
G0 X233 Y194 F3000
G0 Z0.0 F500 ; Pen down
G1 X234 Y194 F2000
G1 X235 Y195 F2000
G1 X235 Y199 F2000
G1 X233 Y201 F2000
G1 X233 Y202 F2000
G1 X232 Y203 F2000
G1 X231 Y203 F2000
G1 X230 Y204 F2000
G1 X230 Y205 F2000
G1 X229 Y206 F2000
G1 X230 Y205 F2000
G1 X231 Y206 F2000
G1 X230 Y205 F2000
G1 X232 Y203 F2000
G1 X233 Y203 F2000
G1 X234 Y204 F2000
G1 X233 Y205 F2000
G1 X234 Y206 F2000
G1 X234 Y207 F2000
G1 X232 Y209 F2000
G1 X229 Y209 F2000
G1 X226 Y206 F2000
G1 X225 Y206 F2000
G1 X223 Y204 F2000
G1 X225 Y202 F2000
G1 X226 Y202 F2000
G1 X227 Y203 F2000
G1 X228 Y202 F2000
G1 X228 Y201 F2000
G1 X229 Y200 F2000
G1 X229 Y199 F2000
G1 X231 Y197 F2000
G1 X231 Y196 F2000
G0 Z2.0 F1000 ; Pen up
G0 X291 Y194 F3000
G0 Z0.0 F500 ; Pen down
G1 X289 Y196 F2000
G1 X288 Y196 F2000
G1 X287 Y197 F2000
G1 X286 Y197 F2000
G1 X285 Y196 F2000
G1 X282 Y196 F2000
G1 X281 Y197 F2000
G1 X280 Y197 F2000
G1 X280 Y198 F2000
G1 X279 Y199 F2000
G1 X281 Y197 F2000
G1 X282 Y197 F2000
G1 X283 Y196 F2000
G1 X284 Y196 F2000
G1 X286 Y198 F2000
G1 X286 Y199 F2000
G1 X288 Y201 F2000
G1 X288 Y202 F2000
G1 X286 Y204 F2000
G1 X286 Y205 F2000
G1 X285 Y206 F2000
G1 X284 Y206 F2000
G1 X283 Y205 F2000
G1 X283 Y199 F2000
G1 X282 Y199 F2000
G1 X283 Y200 F2000
G1 X283 Y206 F2000
G1 X286 Y206 F2000
G1 X286 Y205 F2000
G1 X288 Y203 F2000
G1 X289 Y203 F2000
G1 X290 Y204 F2000
G1 X290 Y205 F2000
G1 X291 Y206 F2000
G1 X291 Y207 F2000
G1 X294 Y207 F2000
G1 X295 Y206 F2000
G1 X296 Y206 F2000
G1 X296 Y205 F2000
G1 X293 Y202 F2000
G1 X293 Y199 F2000
G1 X294 Y198 F2000
G1 X294 Y196 F2000
G1 X293 Y195 F2000
G1 X293 Y194 F2000
G0 Z2.0 F1000 ; Pen up
G0 X232 Y194 F3000
G0 Z0.0 F500 ; Pen down
G1 X231 Y195 F2000
G1 X231 Y196 F2000
G1 X229 Y198 F2000
G1 X229 Y200 F2000
G1 X227 Y202 F2000
G1 X224 Y202 F2000
G1 X223 Y203 F2000
G1 X223 Y205 F2000
G1 X224 Y206 F2000
G1 X225 Y206 F2000
G1 X227 Y208 F2000
G1 X228 Y208 F2000
G1 X229 Y209 F2000
G1 X233 Y209 F2000
G1 X234 Y208 F2000
G1 X234 Y204 F2000
G1 X233 Y203 F2000
G1 X233 Y202 F2000
G1 X234 Y201 F2000
G1 X234 Y200 F2000
G1 X235 Y199 F2000
G1 X235 Y194 F2000
G0 Z2.0 F1000 ; Pen up
G0 X274 Y193 F3000
G0 Z0.0 F500 ; Pen down
G1 X274 Y194 F2000
G1 X273 Y195 F2000
G1 X274 Y196 F2000
G1 X274 Y207 F2000
G1 X277 Y207 F2000
G1 X277 Y206 F2000
G1 X280 Y203 F2000
G1 X280 Y202 F2000
G1 X281 Y201 F2000
G1 X280 Y201 F2000
G1 X280 Y202 F2000
G1 X277 Y205 F2000
G1 X277 Y206 F2000
G1 X276 Y207 F2000
G1 X275 Y207 F2000
G1 X274 Y206 F2000
G1 X274 Y196 F2000
G1 X273 Y195 F2000
G1 X275 Y193 F2000
G1 X277 Y195 F2000
G1 X277 Y202 F2000
G1 X277 Y194 F2000
G1 X276 Y193 F2000
G0 Z2.0 F1000 ; Pen up
G0 X145 Y192 F3000
G0 Z0.0 F500 ; Pen down
G1 X144 Y193 F2000
G1 X137 Y193 F2000
G1 X144 Y193 F2000
G1 X145 Y192 F2000
G1 X146 Y193 F2000
G1 X148 Y193 F2000
G1 X149 Y194 F2000
G1 X147 Y196 F2000
G1 X139 Y196 F2000
G1 X138 Y195 F2000
G1 X137 Y195 F2000
G1 X138 Y196 F2000
G1 X147 Y196 F2000
G1 X148 Y195 F2000
G1 X150 Y195 F2000
G1 X149 Y194 F2000
G1 X150 Y193 F2000
G1 X146 Y193 F2000
G0 Z2.0 F1000 ; Pen up
G0 X194 Y189 F3000
G0 Z0.0 F500 ; Pen down
G1 X195 Y190 F2000
G1 X195 Y193 F2000
G1 X193 Y195 F2000
G1 X193 Y196 F2000
G1 X191 Y198 F2000
G1 X190 Y198 F2000
G1 X189 Y197 F2000
G1 X190 Y196 F2000
G1 X190 Y195 F2000
G1 X192 Y193 F2000
G1 X192 Y191 F2000
G0 Z2.0 F1000 ; Pen up
G0 X193 Y189 F3000
G0 Z0.0 F500 ; Pen down
G1 X192 Y190 F2000
G1 X192 Y192 F2000
G1 X190 Y194 F2000
G1 X190 Y195 F2000
G1 X189 Y196 F2000
G1 X189 Y198 F2000
G1 X190 Y199 F2000
G1 X194 Y195 F2000
G1 X194 Y194 F2000
G1 X195 Y193 F2000
G1 X195 Y189 F2000
G0 Z2.0 F1000 ; Pen up
G0 X362 Y186 F3000
G0 Z0.0 F500 ; Pen down
G1 X363 Y186 F2000
G1 X364 Y187 F2000
G1 X364 Y188 F2000
G1 X363 Y189 F2000
G1 X363 Y190 F2000
G1 X358 Y195 F2000
G1 X357 Y195 F2000
G1 X356 Y194 F2000
G1 X357 Y193 F2000
G1 X357 Y192 F2000
G1 X360 Y189 F2000
G1 X360 Y188 F2000
G0 Z2.0 F1000 ; Pen up
G0 X315 Y187 F3000
G0 Z0.0 F500 ; Pen down
G1 X314 Y188 F2000
G1 X313 Y188 F2000
G1 X313 Y190 F2000
G1 X315 Y190 F2000
G1 X316 Y191 F2000
G1 X317 Y190 F2000
G1 X326 Y190 F2000
G1 X317 Y190 F2000
G1 X316 Y191 F2000
G1 X315 Y190 F2000
G1 X314 Y190 F2000
G1 X313 Y189 F2000
G1 X315 Y187 F2000
G1 X324 Y187 F2000
G1 X325 Y188 F2000
G1 X326 Y188 F2000
G1 X325 Y187 F2000
G0 Z2.0 F1000 ; Pen up
G0 X295 Y187 F3000
G0 Z0.0 F500 ; Pen down
G1 X296 Y186 F2000
G1 X302 Y186 F2000
G1 X304 Y188 F2000
G1 X303 Y189 F2000
G1 X302 Y189 F2000
G1 X301 Y190 F2000
G1 X262 Y190 F2000
G1 X260 Y188 F2000
G1 X261 Y187 F2000
G0 Z2.0 F1000 ; Pen up
G0 X192 Y186 F3000
G0 Z0.0 F500 ; Pen down
G1 X196 Y186 F2000
G1 X198 Y188 F2000
G1 X198 Y194 F2000
G1 X195 Y197 F2000
G1 X195 Y198 F2000
G1 X193 Y200 F2000
G1 X192 Y200 F2000
G1 X190 Y202 F2000
G1 X188 Y202 F2000
G1 X186 Y200 F2000
G1 X186 Y196 F2000
G1 X187 Y195 F2000
G1 X187 Y194 F2000
G1 X188 Y193 F2000
G1 X188 Y192 F2000
G1 X189 Y191 F2000
G1 X189 Y190 F2000
G1 X190 Y189 F2000
G1 X190 Y188 F2000
G0 Z2.0 F1000 ; Pen up
G0 X296 Y186 F3000
G0 Z0.0 F500 ; Pen down
G1 X295 Y187 F2000
G1 X260 Y187 F2000
G1 X260 Y188 F2000
G1 X259 Y189 F2000
G1 X260 Y189 F2000
G1 X261 Y190 F2000
G1 X301 Y190 F2000
G1 X302 Y189 F2000
G1 X304 Y189 F2000
G1 X304 Y187 F2000
G1 X303 Y186 F2000
G0 Z2.0 F1000 ; Pen up
G0 X191 Y186 F3000
G0 Z0.0 F500 ; Pen down
G1 X190 Y187 F2000
G1 X190 Y188 F2000
G1 X189 Y189 F2000
G1 X189 Y191 F2000
G1 X187 Y193 F2000
G1 X187 Y194 F2000
G1 X186 Y195 F2000
G1 X186 Y201 F2000
G1 X187 Y202 F2000
G1 X190 Y202 F2000
G1 X191 Y201 F2000
G1 X192 Y201 F2000
G1 X193 Y200 F2000
G1 X194 Y200 F2000
G1 X195 Y199 F2000
G1 X195 Y198 F2000
G1 X198 Y195 F2000
G1 X198 Y187 F2000
G1 X197 Y186 F2000
G0 Z2.0 F1000 ; Pen up
G0 X140 Y186 F3000
G0 Z0.0 F500 ; Pen down
G1 X141 Y185 F2000
G1 X146 Y185 F2000
G1 X148 Y187 F2000
G1 X146 Y189 F2000
G1 X139 Y189 F2000
G1 X137 Y187 F2000
G1 X138 Y186 F2000
G0 Z2.0 F1000 ; Pen up
G0 X363 Y185 F3000
G0 Z0.0 F500 ; Pen down
G1 X362 Y186 F2000
G1 X361 Y186 F2000
G1 X360 Y187 F2000
G1 X360 Y188 F2000
G1 X357 Y191 F2000
G1 X357 Y192 F2000
G1 X356 Y193 F2000
G1 X356 Y196 F2000
G1 X357 Y195 F2000
G1 X359 Y195 F2000
G1 X363 Y191 F2000
G1 X363 Y189 F2000
G1 X364 Y188 F2000
G1 X364 Y186 F2000
G0 Z2.0 F1000 ; Pen up
G0 X212 Y185 F3000
G0 Z0.0 F500 ; Pen down
G1 X213 Y184 F2000
G1 X215 Y186 F2000
G1 X214 Y187 F2000
G1 X214 Y189 F2000
G1 X207 Y196 F2000
G1 X206 Y195 F2000
G1 X206 Y194 F2000
G1 X207 Y193 F2000
G1 X207 Y192 F2000
G1 X210 Y189 F2000
G1 X210 Y188 F2000
G1 X212 Y186 F2000
G0 Z2.0 F1000 ; Pen up
G0 X141 Y185 F3000
G0 Z0.0 F500 ; Pen down
G1 X140 Y186 F2000
G1 X137 Y186 F2000
G1 X137 Y187 F2000
G1 X136 Y188 F2000
G1 X137 Y188 F2000
G1 X138 Y189 F2000
G1 X147 Y189 F2000
G1 X148 Y188 F2000
G1 X149 Y188 F2000
G1 X148 Y187 F2000
G1 X148 Y186 F2000
G1 X147 Y186 F2000
G1 X146 Y185 F2000
G0 Z2.0 F1000 ; Pen up
G0 X213 Y184 F3000
G0 Z0.0 F500 ; Pen down
G1 X210 Y187 F2000
G1 X210 Y188 F2000
G1 X208 Y190 F2000
G1 X208 Y191 F2000
G1 X207 Y192 F2000
G1 X207 Y193 F2000
G1 X206 Y194 F2000
G1 X206 Y195 F2000
G1 X207 Y196 F2000
G1 X207 Y197 F2000
G1 X214 Y190 F2000
G1 X214 Y187 F2000
G1 X215 Y186 F2000
G0 Z2.0 F1000 ; Pen up
G0 X85 Y182 F3000
G0 Z0.0 F500 ; Pen down
G1 X86 Y182 F2000
G1 X87 Y183 F2000
G1 X87 Y189 F2000
G1 X86 Y190 F2000
G1 X86 Y191 F2000
G1 X87 Y192 F2000
G1 X86 Y193 F2000
G1 X86 Y209 F2000
G1 X85 Y210 F2000
G1 X85 Y214 F2000
G1 X84 Y215 F2000
G1 X84 Y216 F2000
G1 X79 Y221 F2000
G1 X76 Y221 F2000
G1 X75 Y220 F2000
G1 X74 Y220 F2000
G1 X72 Y218 F2000
G1 X72 Y217 F2000
G1 X71 Y216 F2000
G1 X73 Y214 F2000
G1 X74 Y215 F2000
G1 X74 Y216 F2000
G1 X75 Y217 F2000
G1 X77 Y217 F2000
G1 X78 Y218 F2000
G1 X80 Y216 F2000
G1 X80 Y215 F2000
G1 X81 Y214 F2000
G1 X81 Y210 F2000
G1 X82 Y209 F2000
G1 X82 Y203 F2000
G1 X83 Y202 F2000
G1 X82 Y201 F2000
G1 X82 Y199 F2000
G1 X83 Y198 F2000
G1 X83 Y191 F2000
G1 X81 Y189 F2000
G1 X82 Y188 F2000
G1 X82 Y187 F2000
G1 X83 Y186 F2000
G1 X83 Y184 F2000
G0 Z2.0 F1000 ; Pen up
G0 X362 Y181 F3000
G0 Z0.0 F500 ; Pen down
G1 X365 Y181 F2000
G1 X367 Y183 F2000
G1 X367 Y190 F2000
G1 X366 Y191 F2000
G1 X366 Y196 F2000
G1 X367 Y195 F2000
G1 X369 Y195 F2000
G1 X370 Y194 F2000
G1 X371 Y195 F2000
G1 X371 Y196 F2000
G1 X368 Y199 F2000
G1 X365 Y199 F2000
G1 X363 Y197 F2000
G1 X363 Y196 F2000
G1 X362 Y197 F2000
G1 X360 Y197 F2000
G1 X358 Y199 F2000
G1 X354 Y199 F2000
G1 X352 Y197 F2000
G1 X352 Y193 F2000
G1 X353 Y192 F2000
G1 X353 Y191 F2000
G1 X354 Y190 F2000
G1 X354 Y189 F2000
G1 X359 Y184 F2000
G1 X360 Y184 F2000
G1 X360 Y183 F2000
G0 Z2.0 F1000 ; Pen up
G0 X212 Y181 F3000
G0 Z0.0 F500 ; Pen down
G1 X215 Y181 F2000
G1 X217 Y183 F2000
G1 X217 Y186 F2000
G1 X218 Y187 F2000
G1 X218 Y190 F2000
G1 X217 Y191 F2000
G1 X217 Y195 F2000
G1 X216 Y196 F2000
G1 X216 Y204 F2000
G1 X215 Y205 F2000
G1 X215 Y209 F2000
G1 X214 Y210 F2000
G1 X214 Y212 F2000
G1 X213 Y213 F2000
G1 X213 Y215 F2000
G1 X212 Y216 F2000
G1 X212 Y217 F2000
G1 X210 Y219 F2000
G1 X210 Y220 F2000
G1 X206 Y224 F2000
G1 X205 Y224 F2000
G1 X204 Y225 F2000
G1 X201 Y225 F2000
G1 X200 Y224 F2000
G1 X200 Y223 F2000
G1 X201 Y222 F2000
G1 X204 Y222 F2000
G1 X209 Y217 F2000
G1 X209 Y214 F2000
G1 X210 Y213 F2000
G1 X210 Y211 F2000
G1 X211 Y210 F2000
G1 X211 Y207 F2000
G1 X212 Y206 F2000
G1 X212 Y203 F2000
G1 X213 Y202 F2000
G1 X213 Y199 F2000
G1 X212 Y199 F2000
G1 X211 Y198 F2000
G1 X211 Y197 F2000
G1 X207 Y201 F2000
G1 X206 Y201 F2000
G1 X205 Y202 F2000
G1 X204 Y202 F2000
G1 X201 Y199 F2000
G1 X201 Y197 F2000
G1 X202 Y196 F2000
G1 X202 Y195 F2000
G1 X203 Y194 F2000
G1 X203 Y193 F2000
G1 X204 Y192 F2000
G1 X204 Y191 F2000
G1 X206 Y189 F2000
G1 X206 Y188 F2000
G1 X208 Y186 F2000
G1 X208 Y185 F2000
G0 Z2.0 F1000 ; Pen up
G0 X361 Y181 F3000
G0 Z0.0 F500 ; Pen down
G1 X360 Y182 F2000
G1 X360 Y183 F2000
G1 X359 Y184 F2000
G1 X358 Y184 F2000
G1 X354 Y188 F2000
G1 X354 Y189 F2000
G1 X353 Y190 F2000
G1 X353 Y191 F2000
G1 X352 Y192 F2000
G1 X352 Y198 F2000
G1 X353 Y199 F2000
G1 X359 Y199 F2000
G1 X361 Y197 F2000
G1 X362 Y197 F2000
G1 X364 Y199 F2000
G1 X369 Y199 F2000
G1 X372 Y196 F2000
G1 X371 Y195 F2000
G1 X371 Y194 F2000
G1 X370 Y194 F2000
G1 X369 Y195 F2000
G1 X367 Y195 F2000
G1 X366 Y194 F2000
G1 X366 Y191 F2000
G1 X367 Y190 F2000
G1 X367 Y182 F2000
G1 X366 Y181 F2000
G0 Z2.0 F1000 ; Pen up
G0 X211 Y181 F3000
G0 Z0.0 F500 ; Pen down
G1 X208 Y184 F2000
G1 X208 Y185 F2000
G1 X206 Y187 F2000
G1 X206 Y188 F2000
G1 X204 Y190 F2000
G1 X204 Y191 F2000
G1 X203 Y192 F2000
G1 X203 Y193 F2000
G1 X202 Y194 F2000
G1 X202 Y196 F2000
G1 X201 Y197 F2000
G1 X201 Y200 F2000
G1 X202 Y201 F2000
G1 X203 Y201 F2000
G1 X204 Y202 F2000
G1 X205 Y202 F2000
G1 X206 Y201 F2000
G1 X207 Y201 F2000
G1 X208 Y200 F2000
G1 X209 Y200 F2000
G1 X211 Y198 F2000
G1 X213 Y200 F2000
G1 X213 Y202 F2000
G1 X212 Y203 F2000
G1 X212 Y206 F2000
G1 X211 Y207 F2000
G1 X211 Y210 F2000
G1 X210 Y211 F2000
G1 X210 Y213 F2000
G1 X209 Y214 F2000
G1 X209 Y216 F2000
G1 X203 Y222 F2000
G1 X201 Y222 F2000
G1 X200 Y223 F2000
G1 X200 Y225 F2000
G1 X204 Y225 F2000
G1 X205 Y224 F2000
G1 X207 Y224 F2000
G1 X210 Y221 F2000
G1 X210 Y220 F2000
G1 X212 Y218 F2000
G1 X212 Y217 F2000
G1 X213 Y216 F2000
G1 X213 Y213 F2000
G1 X214 Y212 F2000
G1 X214 Y210 F2000
G1 X215 Y209 F2000
G1 X215 Y205 F2000
G1 X216 Y204 F2000
G1 X216 Y196 F2000
G1 X217 Y195 F2000
G1 X217 Y191 F2000
G1 X218 Y190 F2000
G1 X218 Y186 F2000
G1 X217 Y185 F2000
G1 X217 Y182 F2000
G1 X216 Y181 F2000
G0 Z2.0 F1000 ; Pen up
G0 X97 Y180 F3000
G0 Z0.0 F500 ; Pen down
G1 X98 Y179 F2000
G1 X99 Y179 F2000
G1 X100 Y180 F2000
G1 X101 Y180 F2000
G1 X103 Y182 F2000
G1 X103 Y183 F2000
G1 X105 Y183 F2000
G1 X107 Y181 F2000
G1 X109 Y181 F2000
G1 X110 Y182 F2000
G1 X110 Y183 F2000
G1 X109 Y184 F2000
G1 X108 Y184 F2000
G1 X107 Y185 F2000
G1 X106 Y185 F2000
G1 X105 Y186 F2000
G1 X105 Y187 F2000
G1 X104 Y188 F2000
G1 X104 Y191 F2000
G1 X103 Y192 F2000
G1 X103 Y196 F2000
G1 X102 Y197 F2000
G1 X102 Y198 F2000
G1 X101 Y199 F2000
G1 X99 Y197 F2000
G1 X99 Y193 F2000
G1 X100 Y192 F2000
G1 X100 Y189 F2000
G1 X101 Y188 F2000
G1 X101 Y186 F2000
G1 X100 Y185 F2000
G1 X100 Y184 F2000
G1 X99 Y185 F2000
G1 X98 Y185 F2000
G1 X96 Y183 F2000
G1 X96 Y182 F2000
G1 X97 Y181 F2000
G0 Z2.0 F1000 ; Pen up
G0 X97 Y179 F3000
G0 Z0.0 F500 ; Pen down
G1 X97 Y180 F2000
G1 X96 Y181 F2000
G1 X96 Y184 F2000
G1 X97 Y184 F2000
G1 X98 Y185 F2000
G1 X100 Y185 F2000
G1 X101 Y186 F2000
G1 X101 Y188 F2000
G1 X100 Y189 F2000
G1 X100 Y192 F2000
G1 X99 Y193 F2000
G1 X99 Y198 F2000
G1 X100 Y199 F2000
G1 X102 Y199 F2000
G1 X102 Y197 F2000
G1 X103 Y196 F2000
G1 X103 Y192 F2000
G1 X104 Y191 F2000
G1 X104 Y189 F2000
G1 X105 Y188 F2000
G1 X105 Y187 F2000
G1 X107 Y185 F2000
G1 X108 Y185 F2000
G1 X109 Y184 F2000
G1 X111 Y184 F2000
G1 X110 Y183 F2000
G1 X110 Y181 F2000
G1 X106 Y181 F2000
G1 X104 Y183 F2000
G1 X103 Y182 F2000
G1 X103 Y181 F2000
G1 X102 Y180 F2000
G1 X100 Y180 F2000
G1 X99 Y179 F2000
G0 Z2.0 F1000 ; Pen up
G0 X71 Y179 F3000
G0 Z0.0 F500 ; Pen down
G1 X71 Y181 F2000
G1 X73 Y181 F2000
G1 X75 Y183 F2000
G1 X75 Y189 F2000
G1 X74 Y190 F2000
G1 X74 Y193 F2000
G1 X73 Y194 F2000
G1 X73 Y198 F2000
G1 X72 Y199 F2000
G1 X72 Y200 F2000
G1 X73 Y201 F2000
G1 X73 Y202 F2000
G1 X75 Y202 F2000
G1 X78 Y199 F2000
G1 X78 Y198 F2000
G1 X80 Y196 F2000
G1 X80 Y195 F2000
G1 X81 Y194 F2000
G1 X81 Y193 F2000
G1 X82 Y192 F2000
G1 X83 Y193 F2000
G1 X83 Y198 F2000
G1 X82 Y199 F2000
G1 X82 Y201 F2000
G1 X83 Y202 F2000
G1 X82 Y203 F2000
G1 X82 Y209 F2000
G1 X81 Y210 F2000
G1 X81 Y214 F2000
G1 X78 Y217 F2000
G1 X76 Y217 F2000
G1 X74 Y215 F2000
G1 X74 Y214 F2000
G1 X73 Y213 F2000
G1 X73 Y214 F2000
G1 X72 Y215 F2000
G1 X71 Y215 F2000
G1 X71 Y216 F2000
G1 X72 Y217 F2000
G1 X72 Y219 F2000
G1 X73 Y220 F2000
G1 X75 Y220 F2000
G1 X76 Y221 F2000
G1 X79 Y221 F2000
G1 X80 Y220 F2000
G1 X81 Y220 F2000
G1 X84 Y217 F2000
G1 X84 Y215 F2000
G1 X85 Y214 F2000
G1 X85 Y210 F2000
G1 X86 Y209 F2000
G1 X86 Y193 F2000
G1 X87 Y192 F2000
G1 X86 Y191 F2000
G1 X86 Y190 F2000
G1 X87 Y189 F2000
G1 X87 Y182 F2000
G1 X84 Y182 F2000
G1 X84 Y183 F2000
G1 X83 Y184 F2000
G1 X83 Y185 F2000
G1 X82 Y186 F2000
G1 X82 Y187 F2000
G1 X80 Y189 F2000
G1 X80 Y191 F2000
G1 X80 Y190 F2000
G1 X81 Y189 F2000
G1 X83 Y191 F2000
G1 X80 Y194 F2000
G1 X80 Y195 F2000
G1 X78 Y197 F2000
G1 X78 Y198 F2000
G1 X74 Y202 F2000
G1 X72 Y200 F2000
G1 X72 Y199 F2000
G1 X73 Y198 F2000
G1 X73 Y194 F2000
G1 X74 Y193 F2000
G1 X74 Y190 F2000
G1 X75 Y189 F2000
G1 X75 Y182 F2000
G1 X74 Y182 F2000
G1 X73 Y181 F2000
G1 X72 Y181 F2000
G1 X71 Y180 F2000
G1 X72 Y179 F2000
G1 X75 Y179 F2000
G1 X78 Y182 F2000
G1 X78 Y191 F2000
G1 X77 Y192 F2000
G1 X78 Y191 F2000
G1 X78 Y181 F2000
G1 X76 Y179 F2000
G0 Z2.0 F1000 ; Pen up
G0 X341 Y178 F3000
G0 Z0.0 F500 ; Pen down
G1 X338 Y181 F2000
G1 X338 Y183 F2000
G1 X337 Y184 F2000
G1 X337 Y187 F2000
G1 X338 Y188 F2000
G1 X338 Y191 F2000
G1 X339 Y192 F2000
G1 X339 Y193 F2000
G1 X340 Y194 F2000
G1 X339 Y195 F2000
G1 X338 Y195 F2000
G1 X337 Y194 F2000
G1 X334 Y194 F2000
G1 X334 Y197 F2000
G1 X335 Y198 F2000
G1 X337 Y198 F2000
G1 X338 Y199 F2000
G1 X339 Y199 F2000
G1 X340 Y198 F2000
G1 X343 Y198 F2000
G1 X344 Y197 F2000
G1 X344 Y194 F2000
G1 X343 Y193 F2000
G1 X343 Y191 F2000
G1 X342 Y190 F2000
G1 X342 Y189 F2000
G1 X341 Y188 F2000
G1 X341 Y185 F2000
G1 X342 Y184 F2000
G1 X342 Y183 F2000
G1 X343 Y182 F2000
G1 X344 Y183 F2000
G1 X347 Y183 F2000
G1 X344 Y183 F2000
G1 X342 Y181 F2000
G1 X343 Y182 F2000
G1 X342 Y183 F2000
G1 X341 Y183 F2000
G1 X341 Y188 F2000
G1 X342 Y189 F2000
G1 X342 Y191 F2000
G1 X343 Y192 F2000
G1 X343 Y193 F2000
G1 X344 Y194 F2000
G1 X344 Y196 F2000
G1 X342 Y198 F2000
G1 X340 Y198 F2000
G1 X339 Y199 F2000
G1 X338 Y199 F2000
G1 X337 Y198 F2000
G1 X336 Y198 F2000
G1 X334 Y196 F2000
G1 X334 Y195 F2000
G1 X335 Y194 F2000
G1 X336 Y194 F2000
G1 X337 Y195 F2000
G1 X338 Y195 F2000
G1 X339 Y196 F2000
G1 X340 Y195 F2000
G1 X340 Y194 F2000
G1 X339 Y193 F2000
G1 X339 Y192 F2000
G1 X338 Y191 F2000
G1 X338 Y188 F2000
G1 X337 Y187 F2000
G1 X337 Y184 F2000
G1 X338 Y183 F2000
G1 X338 Y182 F2000
G1 X341 Y179 F2000
G1 X342 Y179 F2000
G1 X343 Y178 F2000
G1 X344 Y179 F2000
G1 X345 Y179 F2000
G1 X347 Y181 F2000
G1 X348 Y181 F2000
G1 X346 Y179 F2000
G1 X344 Y179 F2000
G1 X343 Y178 F2000
G1 X342 Y179 F2000
G0 Z2.0 F1000 ; Pen up
G0 X175 Y171 F3000
G0 Z0.0 F500 ; Pen down
G1 X176 Y171 F2000
G1 X178 Y173 F2000
G1 X178 Y174 F2000
G1 X180 Y176 F2000
G1 X180 Y183 F2000
G1 X179 Y184 F2000
G1 X179 Y186 F2000
G1 X178 Y187 F2000
G1 X178 Y191 F2000
G1 X177 Y192 F2000
G1 X177 Y194 F2000
G1 X176 Y195 F2000
G1 X176 Y198 F2000
G1 X175 Y199 F2000
G1 X175 Y201 F2000
G1 X174 Y202 F2000
G1 X174 Y203 F2000
G1 X173 Y204 F2000
G1 X172 Y204 F2000
G1 X171 Y203 F2000
G1 X171 Y200 F2000
G1 X172 Y199 F2000
G1 X172 Y195 F2000
G1 X173 Y194 F2000
G1 X173 Y192 F2000
G1 X174 Y191 F2000
G1 X174 Y189 F2000
G1 X175 Y188 F2000
G1 X175 Y186 F2000
G1 X176 Y185 F2000
G1 X176 Y175 F2000
G1 X174 Y175 F2000
G1 X172 Y177 F2000
G1 X170 Y175 F2000
G1 X172 Y173 F2000
G1 X173 Y173 F2000
G0 Z2.0 F1000 ; Pen up
G0 X174 Y171 F3000
G0 Z0.0 F500 ; Pen down
G1 X172 Y173 F2000
G1 X171 Y173 F2000
G1 X171 Y174 F2000
G1 X170 Y175 F2000
G1 X172 Y177 F2000
G1 X174 Y175 F2000
G1 X175 Y175 F2000
G1 X176 Y176 F2000
G1 X176 Y185 F2000
G1 X175 Y186 F2000
G1 X175 Y188 F2000
G1 X174 Y189 F2000
G1 X174 Y191 F2000
G1 X173 Y192 F2000
G1 X173 Y193 F2000
G1 X172 Y194 F2000
G1 X172 Y199 F2000
G1 X171 Y200 F2000
G1 X171 Y204 F2000
G1 X174 Y204 F2000
G1 X174 Y202 F2000
G1 X175 Y201 F2000
G1 X175 Y199 F2000
G1 X176 Y198 F2000
G1 X176 Y195 F2000
G1 X177 Y194 F2000
G1 X177 Y192 F2000
G1 X178 Y191 F2000
G1 X178 Y187 F2000
G1 X179 Y186 F2000
G1 X179 Y184 F2000
G1 X180 Y183 F2000
G1 X180 Y176 F2000
G1 X179 Y175 F2000
G1 X179 Y174 F2000
G1 X178 Y173 F2000
G1 X178 Y172 F2000
G1 X177 Y171 F2000
G0 Z2.0 F1000 ; Pen up
G0 X253 Y170 F3000
G0 Z0.0 F500 ; Pen down
G1 X254 Y169 F2000
G1 X255 Y169 F2000
G1 X256 Y170 F2000
G1 X256 Y172 F2000
G1 X254 Y174 F2000
G1 X254 Y175 F2000
G1 X253 Y176 F2000
G1 X253 Y178 F2000
G1 X252 Y179 F2000
G1 X252 Y182 F2000
G1 X251 Y183 F2000
G1 X251 Y198 F2000
G1 X252 Y199 F2000
G1 X252 Y200 F2000
G1 X253 Y201 F2000
G1 X253 Y203 F2000
G1 X255 Y205 F2000
G1 X255 Y206 F2000
G1 X254 Y207 F2000
G1 X253 Y207 F2000
G1 X250 Y204 F2000
G1 X250 Y203 F2000
G1 X249 Y202 F2000
G1 X249 Y201 F2000
G1 X248 Y200 F2000
G1 X248 Y195 F2000
G1 X247 Y194 F2000
G1 X247 Y183 F2000
G1 X248 Y182 F2000
G1 X248 Y180 F2000
G1 X249 Y179 F2000
G1 X249 Y178 F2000
G1 X250 Y177 F2000
G1 X250 Y175 F2000
G1 X251 Y174 F2000
G1 X251 Y173 F2000
G1 X253 Y171 F2000
G0 Z2.0 F1000 ; Pen up
G0 X277 Y169 F3000
G0 Z0.0 F500 ; Pen down
G1 X278 Y168 F2000
G1 X279 Y168 F2000
G1 X282 Y171 F2000
G1 X282 Y172 F2000
G1 X283 Y173 F2000
G1 X284 Y173 F2000
G1 X286 Y171 F2000
G1 X286 Y170 F2000
G1 X287 Y169 F2000
G1 X288 Y169 F2000
G1 X289 Y168 F2000
G1 X290 Y168 F2000
G1 X291 Y169 F2000
G1 X291 Y170 F2000
G1 X285 Y176 F2000
G1 X285 Y179 F2000
G1 X286 Y180 F2000
G1 X284 Y182 F2000
G1 X283 Y181 F2000
G1 X280 Y181 F2000
G1 X279 Y180 F2000
G1 X279 Y179 F2000
G1 X280 Y178 F2000
G1 X280 Y173 F2000
G1 X279 Y172 F2000
G1 X276 Y172 F2000
G1 X275 Y171 F2000
G1 X275 Y170 F2000
G1 X276 Y169 F2000
G0 Z2.0 F1000 ; Pen up
G0 X253 Y169 F3000
G0 Z0.0 F500 ; Pen down
G1 X253 Y170 F2000
G1 X252 Y171 F2000
G1 X252 Y172 F2000
G1 X250 Y174 F2000
G1 X250 Y176 F2000
G1 X249 Y177 F2000
G1 X249 Y179 F2000
G1 X248 Y180 F2000
G1 X248 Y182 F2000
G1 X247 Y183 F2000
G1 X247 Y194 F2000
G1 X248 Y195 F2000
G1 X248 Y200 F2000
G1 X249 Y201 F2000
G1 X249 Y203 F2000
G1 X250 Y204 F2000
G1 X250 Y205 F2000
G1 X252 Y207 F2000
G1 X254 Y207 F2000
G1 X255 Y208 F2000
G1 X255 Y205 F2000
G1 X253 Y203 F2000
G1 X253 Y201 F2000
G1 X252 Y200 F2000
G1 X252 Y199 F2000
G1 X251 Y198 F2000
G1 X251 Y183 F2000
G1 X252 Y182 F2000
G1 X252 Y179 F2000
G1 X253 Y178 F2000
G1 X253 Y176 F2000
G1 X256 Y173 F2000
G1 X256 Y171 F2000
G1 X257 Y170 F2000
G1 X256 Y169 F2000
G0 Z2.0 F1000 ; Pen up
G0 X118 Y169 F3000
G0 Z0.0 F500 ; Pen down
G1 X122 Y169 F2000
G1 X124 Y171 F2000
G1 X124 Y172 F2000
G1 X125 Y173 F2000
G1 X125 Y175 F2000
G1 X123 Y177 F2000
G1 X123 Y179 F2000
G1 X125 Y179 F2000
G1 X126 Y178 F2000
G1 X127 Y178 F2000
G1 X128 Y179 F2000
G1 X128 Y180 F2000
G1 X127 Y181 F2000
G1 X126 Y181 F2000
G1 X125 Y182 F2000
G1 X119 Y182 F2000
G1 X117 Y180 F2000
G1 X120 Y177 F2000
G1 X120 Y176 F2000
G1 X121 Y175 F2000
G1 X121 Y172 F2000
G1 X120 Y172 F2000
G1 X119 Y171 F2000
G1 X118 Y171 F2000
G1 X119 Y172 F2000
G1 X120 Y172 F2000
G1 X121 Y173 F2000
G1 X121 Y175 F2000
G1 X117 Y179 F2000
G1 X117 Y180 F2000
G1 X118 Y181 F2000
G1 X118 Y182 F2000
G1 X125 Y182 F2000
G1 X126 Y181 F2000
G1 X128 Y181 F2000
G1 X128 Y178 F2000
G1 X127 Y177 F2000
G1 X126 Y177 F2000
G1 X126 Y178 F2000
G1 X125 Y179 F2000
G1 X124 Y179 F2000
G1 X123 Y178 F2000
G1 X124 Y177 F2000
G1 X124 Y176 F2000
G1 X125 Y175 F2000
G1 X125 Y172 F2000
G1 X124 Y171 F2000
G1 X124 Y170 F2000
G1 X123 Y169 F2000
G0 Z2.0 F1000 ; Pen up
G0 X278 Y168 F3000
G0 Z0.0 F500 ; Pen down
G1 X277 Y169 F2000
G1 X275 Y169 F2000
G1 X274 Y170 F2000
G1 X275 Y171 F2000
G1 X274 Y172 F2000
G1 X278 Y172 F2000
G1 X280 Y174 F2000
G1 X280 Y177 F2000
G1 X277 Y180 F2000
G1 X277 Y181 F2000
G1 X276 Y182 F2000
G1 X275 Y182 F2000
G1 X273 Y184 F2000
G1 X274 Y184 F2000
G1 X277 Y181 F2000
G1 X277 Y180 F2000
G1 X278 Y179 F2000
G1 X280 Y181 F2000
G1 X276 Y185 F2000
G1 X277 Y184 F2000
G1 X278 Y184 F2000
G1 X279 Y183 F2000
G1 X279 Y182 F2000
G1 X280 Y181 F2000
G1 X282 Y181 F2000
G1 X285 Y184 F2000
G1 X289 Y184 F2000
G1 X290 Y183 F2000
G1 X290 Y179 F2000
G1 X290 Y182 F2000
G1 X288 Y184 F2000
G1 X286 Y184 F2000
G1 X284 Y182 F2000
G1 X286 Y180 F2000
G1 X287 Y181 F2000
G1 X288 Y180 F2000
G1 X288 Y179 F2000
G1 X287 Y180 F2000
G1 X285 Y178 F2000
G1 X285 Y177 F2000
G1 X291 Y171 F2000
G1 X292 Y171 F2000
G1 X291 Y170 F2000
G1 X292 Y169 F2000
G1 X291 Y168 F2000
G1 X289 Y168 F2000
G1 X288 Y169 F2000
G1 X286 Y169 F2000
G1 X286 Y170 F2000
G1 X285 Y171 F2000
G1 X285 Y172 F2000
G1 X284 Y173 F2000
G1 X282 Y171 F2000
G1 X282 Y170 F2000
G1 X281 Y169 F2000
G1 X280 Y169 F2000
G1 X279 Y168 F2000
G0 Z2.0 F1000 ; Pen up
G0 X373 Y165 F3000
G0 Z0.0 F500 ; Pen down
G1 X374 Y164 F2000
G1 X375 Y164 F2000
G1 X376 Y165 F2000
G1 X377 Y165 F2000
G1 X378 Y166 F2000
G1 X378 Y167 F2000
G1 X382 Y171 F2000
G1 X382 Y172 F2000
G1 X383 Y173 F2000
G1 X383 Y174 F2000
G1 X385 Y176 F2000
G1 X385 Y178 F2000
G1 X386 Y179 F2000
G1 X386 Y181 F2000
G1 X387 Y182 F2000
G1 X387 Y192 F2000
G1 X386 Y193 F2000
G1 X386 Y196 F2000
G1 X385 Y197 F2000
G1 X385 Y200 F2000
G1 X384 Y201 F2000
G1 X384 Y202 F2000
G1 X382 Y204 F2000
G1 X382 Y205 F2000
G1 X376 Y211 F2000
G1 X375 Y211 F2000
G1 X374 Y210 F2000
G1 X374 Y209 F2000
G1 X379 Y204 F2000
G1 X379 Y203 F2000
G1 X380 Y202 F2000
G1 X380 Y201 F2000
G1 X381 Y200 F2000
G1 X381 Y198 F2000
G1 X382 Y197 F2000
G1 X382 Y193 F2000
G1 X383 Y192 F2000
G1 X383 Y181 F2000
G1 X382 Y180 F2000
G1 X382 Y178 F2000
G1 X381 Y177 F2000
G1 X381 Y176 F2000
G1 X380 Y175 F2000
G1 X380 Y174 F2000
G1 X379 Y173 F2000
G1 X379 Y172 F2000
G1 X376 Y169 F2000
G1 X376 Y168 F2000
G0 Z2.0 F1000 ; Pen up
G0 X372 Y164 F3000
G0 Z0.0 F500 ; Pen down
G1 X373 Y165 F2000
G1 X372 Y166 F2000
G1 X373 Y166 F2000
G1 X376 Y169 F2000
G1 X376 Y170 F2000
G1 X379 Y173 F2000
G1 X379 Y174 F2000
G1 X380 Y175 F2000
G1 X380 Y176 F2000
G1 X382 Y178 F2000
G1 X382 Y180 F2000
G1 X383 Y181 F2000
G1 X383 Y192 F2000
G1 X382 Y193 F2000
G1 X382 Y197 F2000
G1 X381 Y198 F2000
G1 X381 Y200 F2000
G1 X380 Y201 F2000
G1 X380 Y202 F2000
G1 X374 Y208 F2000
G1 X374 Y211 F2000
G1 X377 Y211 F2000
G1 X382 Y206 F2000
G1 X382 Y205 F2000
G1 X384 Y203 F2000
G1 X384 Y202 F2000
G1 X385 Y201 F2000
G1 X385 Y197 F2000
G1 X386 Y196 F2000
G1 X386 Y193 F2000
G1 X387 Y192 F2000
G1 X387 Y182 F2000
G1 X386 Y181 F2000
G1 X386 Y179 F2000
G1 X385 Y178 F2000
G1 X385 Y175 F2000
G1 X383 Y173 F2000
G1 X383 Y172 F2000
G1 X382 Y171 F2000
G1 X382 Y170 F2000
G1 X378 Y166 F2000
G1 X378 Y165 F2000
G1 X377 Y165 F2000
G1 X376 Y164 F2000
G0 Z2.0 F1000 ; Pen up
G0 X273 Y127 F3000
G0 Z0.0 F500 ; Pen down
G1 X274 Y126 F2000
G1 X276 Y126 F2000
G1 X278 Y128 F2000
G1 X278 Y130 F2000
G1 X279 Y129 F2000
G1 X281 Y129 F2000
G1 X282 Y128 F2000
G1 X283 Y128 F2000
G1 X284 Y127 F2000
G1 X288 Y127 F2000
G1 X289 Y128 F2000
G1 X289 Y129 F2000
G1 X288 Y130 F2000
G1 X284 Y130 F2000
G1 X283 Y131 F2000
G1 X282 Y131 F2000
G1 X281 Y132 F2000
G1 X281 Y133 F2000
G1 X279 Y135 F2000
G1 X279 Y139 F2000
G1 X278 Y140 F2000
G1 X278 Y143 F2000
G1 X276 Y145 F2000
G1 X274 Y143 F2000
G1 X274 Y142 F2000
G1 X275 Y141 F2000
G1 X275 Y129 F2000
G0 Z2.0 F1000 ; Pen up
G0 X272 Y126 F3000
G0 Z0.0 F500 ; Pen down
G1 X273 Y127 F2000
G1 X272 Y128 F2000
G1 X273 Y128 F2000
G1 X275 Y130 F2000
G1 X275 Y141 F2000
G1 X274 Y142 F2000
G1 X274 Y143 F2000
G1 X275 Y144 F2000
G1 X275 Y146 F2000
G1 X276 Y145 F2000
G1 X277 Y145 F2000
G1 X277 Y144 F2000
G1 X278 Y143 F2000
G1 X278 Y140 F2000
G1 X279 Y139 F2000
G1 X279 Y136 F2000
G1 X280 Y135 F2000
G1 X280 Y134 F2000
G1 X283 Y131 F2000
G1 X284 Y131 F2000
G1 X285 Y130 F2000
G1 X289 Y130 F2000
G1 X290 Y129 F2000
G1 X289 Y128 F2000
G1 X289 Y127 F2000
G1 X283 Y127 F2000
G1 X282 Y128 F2000
G1 X281 Y128 F2000
G1 X280 Y129 F2000
G1 X279 Y129 F2000
G1 X277 Y127 F2000
G1 X277 Y126 F2000
G0 Z2.0 F1000 ; Pen up
G0 X294 Y119 F3000
G0 Z0.0 F500 ; Pen down
G1 X295 Y118 F2000
G1 X296 Y118 F2000
G1 X301 Y123 F2000
G1 X301 Y124 F2000
G1 X302 Y124 F2000
G1 X304 Y126 F2000
G1 X303 Y127 F2000
G1 X302 Y127 F2000
G1 X300 Y129 F2000
G1 X299 Y129 F2000
G1 X298 Y130 F2000
G1 X295 Y130 F2000
G1 X294 Y129 F2000
G1 X294 Y128 F2000
G1 X298 Y124 F2000
G1 X299 Y124 F2000
G1 X298 Y124 F2000
G1 X297 Y123 F2000
G1 X297 Y122 F2000
G1 X296 Y121 F2000
G1 X295 Y121 F2000
G1 X294 Y120 F2000
G0 Z2.0 F1000 ; Pen up
G0 X293 Y118 F3000
G0 Z0.0 F500 ; Pen down
G1 X294 Y119 F2000
G1 X293 Y120 F2000
G1 X294 Y121 F2000
G1 X295 Y121 F2000
G1 X297 Y123 F2000
G1 X297 Y124 F2000
G1 X294 Y127 F2000
G1 X293 Y127 F2000
G1 X294 Y128 F2000
G1 X293 Y129 F2000
G1 X294 Y130 F2000
G1 X298 Y130 F2000
G1 X299 Y129 F2000
G1 X301 Y129 F2000
G1 X303 Y127 F2000
G1 X304 Y127 F2000
G1 X304 Y126 F2000
G1 X303 Y125 F2000
G1 X303 Y124 F2000
G1 X302 Y124 F2000
G1 X301 Y123 F2000
G1 X301 Y122 F2000
G1 X297 Y118 F2000
G0 Z2.0 F1000 ; Pen up
G0 X136 Y108 F3000
G0 Z0.0 F500 ; Pen down
G1 X137 Y107 F2000
G1 X142 Y107 F2000
G1 X143 Y108 F2000
G1 X149 Y108 F2000
G1 X150 Y109 F2000
G1 X148 Y111 F2000
G1 X141 Y111 F2000
G1 X140 Y110 F2000
G1 X137 Y110 F2000
G1 X136 Y109 F2000
G0 Z2.0 F1000 ; Pen up
G0 X218 Y104 F3000
G0 Z0.0 F500 ; Pen down
G1 X219 Y105 F2000
G1 X221 Y105 F2000
G1 X223 Y107 F2000
G1 X228 Y107 F2000
G1 X229 Y106 F2000
G1 X230 Y106 F2000
G1 X231 Y105 F2000
G1 X230 Y105 F2000
G1 X229 Y106 F2000
G1 X228 Y106 F2000
G1 X227 Y107 F2000
G1 X224 Y107 F2000
G1 X222 Y105 F2000
G1 X220 Y105 F2000
G1 X219 Y104 F2000
G0 Z2.0 F1000 ; Pen up
G0 X136 Y102 F3000
G0 Z0.0 F500 ; Pen down
G1 X137 Y101 F2000
G1 X141 Y101 F2000
G1 X142 Y102 F2000
G1 X143 Y101 F2000
G1 X144 Y101 F2000
G1 X145 Y102 F2000
G1 X148 Y102 F2000
G1 X149 Y103 F2000
G1 X147 Y105 F2000
G1 X142 Y105 F2000
G1 X141 Y104 F2000
G1 X137 Y104 F2000
G1 X136 Y103 F2000
G0 Z2.0 F1000 ; Pen up
G0 X136 Y101 F3000
G0 Z0.0 F500 ; Pen down
G1 X136 Y105 F2000
G1 X137 Y106 F2000
G1 X137 Y107 F2000
G1 X136 Y108 F2000
G1 X136 Y110 F2000
G1 X137 Y111 F2000
G1 X138 Y110 F2000
G1 X140 Y110 F2000
G1 X141 Y111 F2000
G1 X149 Y111 F2000
G1 X150 Y110 F2000
G1 X150 Y108 F2000
G1 X143 Y108 F2000
G1 X142 Y107 F2000
G1 X138 Y107 F2000
G1 X136 Y105 F2000
G1 X137 Y104 F2000
G1 X141 Y104 F2000
G1 X142 Y105 F2000
G1 X148 Y105 F2000
G1 X149 Y104 F2000
G1 X149 Y102 F2000
G1 X145 Y102 F2000
G1 X144 Y101 F2000
G1 X143 Y101 F2000
G1 X142 Y102 F2000
G1 X141 Y101 F2000
G0 Z2.0 F1000 ; Pen up
G0 X114 Y100 F3000
G0 Z0.0 F500 ; Pen down
G1 X114 Y103 F2000
G1 X113 Y104 F2000
G1 X114 Y105 F2000
G1 X114 Y107 F2000
G1 X113 Y108 F2000
G1 X113 Y119 F2000
G1 X112 Y120 F2000
G1 X112 Y127 F2000
G1 X111 Y128 F2000
G1 X111 Y134 F2000
G1 X110 Y135 F2000
G1 X110 Y137 F2000
G1 X107 Y140 F2000
G1 X106 Y140 F2000
G1 X105 Y141 F2000
G1 X104 Y141 F2000
G1 X101 Y138 F2000
G1 X102 Y137 F2000
G1 X101 Y138 F2000
G1 X101 Y139 F2000
G1 X102 Y139 F2000
G1 X104 Y141 F2000
G1 X105 Y141 F2000
G1 X106 Y140 F2000
G1 X108 Y140 F2000
G1 X110 Y138 F2000
G1 X110 Y135 F2000
G1 X111 Y134 F2000
G1 X111 Y128 F2000
G1 X112 Y127 F2000
G1 X112 Y120 F2000
G1 X113 Y119 F2000
G1 X113 Y108 F2000
G1 X114 Y107 F2000
G0 Z2.0 F1000 ; Pen up
G0 X285 Y95 F3000
G0 Z0.0 F500 ; Pen down
G1 X284 Y96 F2000
G1 X284 Y97 F2000
G1 X283 Y98 F2000
G1 X283 Y99 F2000
G1 X282 Y100 F2000
G1 X282 Y102 F2000
G1 X281 Y103 F2000
G1 X279 Y101 F2000
G1 X279 Y97 F2000
G1 X279 Y103 F2000
G1 X280 Y102 F2000
G1 X281 Y103 F2000
G1 X281 Y104 F2000
G1 X281 Y103 F2000
G1 X282 Y102 F2000
G1 X282 Y101 F2000
G1 X283 Y100 F2000
G1 X283 Y99 F2000
G1 X284 Y98 F2000
G1 X284 Y97 F2000
G1 X285 Y96 F2000
G0 Z2.0 F1000 ; Pen up
G0 X96 Y93 F3000
G0 Z0.0 F500 ; Pen down
G1 X98 Y95 F2000
G1 X96 Y97 F2000
G1 X95 Y97 F2000
G1 X94 Y96 F2000
G1 X94 Y95 F2000
G0 Z2.0 F1000 ; Pen up
G0 X227 Y93 F3000
G0 Z0.0 F500 ; Pen down
G1 X225 Y95 F2000
G1 X225 Y96 F2000
G1 X224 Y97 F2000
G1 X224 Y98 F2000
G1 X223 Y99 F2000
G1 X223 Y100 F2000
G1 X221 Y102 F2000
G1 X217 Y102 F2000
G1 X216 Y101 F2000
G1 X217 Y102 F2000
G1 X220 Y102 F2000
G1 X221 Y103 F2000
G1 X223 Y101 F2000
G1 X223 Y100 F2000
G1 X224 Y99 F2000
G1 X224 Y98 F2000
G1 X225 Y97 F2000
G1 X225 Y96 F2000
G1 X228 Y93 F2000
G1 X229 Y94 F2000
G1 X229 Y95 F2000
G1 X230 Y96 F2000
G1 X230 Y97 F2000
G1 X229 Y98 F2000
G1 X229 Y99 F2000
G1 X226 Y102 F2000
G1 X226 Y104 F2000
G1 X228 Y104 F2000
G1 X227 Y104 F2000
G1 X226 Y103 F2000
G1 X229 Y100 F2000
G1 X229 Y98 F2000
G1 X230 Y97 F2000
G1 X230 Y96 F2000
G1 X229 Y95 F2000
G1 X229 Y93 F2000
G0 Z2.0 F1000 ; Pen up
G0 X96 Y92 F3000
G0 Z0.0 F500 ; Pen down
G1 X95 Y93 F2000
G1 X95 Y94 F2000
G1 X94 Y95 F2000
G1 X94 Y97 F2000
G1 X97 Y97 F2000
G1 X97 Y96 F2000
G1 X98 Y95 F2000
G1 X100 Y95 F2000
G1 X101 Y96 F2000
G1 X101 Y97 F2000
G1 X102 Y98 F2000
G1 X102 Y104 F2000
G1 X101 Y105 F2000
G1 X101 Y108 F2000
G1 X100 Y109 F2000
G1 X100 Y112 F2000
G1 X99 Y113 F2000
G1 X99 Y115 F2000
G1 X100 Y116 F2000
G1 X99 Y117 F2000
G1 X100 Y118 F2000
G1 X100 Y119 F2000
G1 X101 Y118 F2000
G1 X103 Y118 F2000
G1 X104 Y117 F2000
G1 X104 Y116 F2000
G1 X107 Y113 F2000
G1 X107 Y112 F2000
G1 X108 Y111 F2000
G1 X108 Y110 F2000
G1 X110 Y108 F2000
G1 X110 Y107 F2000
G1 X111 Y106 F2000
G1 X111 Y105 F2000
G1 X110 Y106 F2000
G1 X110 Y107 F2000
G1 X108 Y109 F2000
G1 X108 Y111 F2000
G1 X105 Y114 F2000
G1 X105 Y115 F2000
G1 X102 Y118 F2000
G1 X101 Y118 F2000
G1 X100 Y117 F2000
G1 X100 Y116 F2000
G1 X99 Y115 F2000
G1 X99 Y113 F2000
G1 X100 Y112 F2000
G1 X100 Y110 F2000
G1 X101 Y109 F2000
G1 X101 Y105 F2000
G1 X102 Y104 F2000
G1 X102 Y97 F2000
G1 X100 Y95 F2000
G1 X99 Y95 F2000
G1 X98 Y94 F2000
G1 X97 Y94 F2000
G1 X96 Y93 F2000
G1 X97 Y92 F2000
G1 X101 Y92 F2000
G1 X104 Y95 F2000
G1 X104 Y97 F2000
G1 X105 Y98 F2000
G1 X105 Y104 F2000
G1 X104 Y105 F2000
G1 X104 Y108 F2000
G1 X103 Y109 F2000
G1 X103 Y113 F2000
G1 X103 Y109 F2000
G1 X104 Y108 F2000
G1 X104 Y105 F2000
G1 X105 Y104 F2000
G1 X105 Y97 F2000
G1 X104 Y96 F2000
G1 X104 Y95 F2000
G1 X103 Y94 F2000
G1 X103 Y93 F2000
G1 X102 Y92 F2000
G0 Z2.0 F1000 ; Pen up
G0 X190 Y90 F3000
G0 Z0.0 F500 ; Pen down
G1 X191 Y89 F2000
G1 X192 Y89 F2000
G1 X193 Y90 F2000
G1 X192 Y91 F2000
G1 X192 Y93 F2000
G1 X189 Y96 F2000
G1 X188 Y95 F2000
G1 X188 Y94 F2000
G1 X189 Y93 F2000
G1 X189 Y92 F2000
G1 X190 Y91 F2000
G0 Z2.0 F1000 ; Pen up
G0 X268 Y89 F3000
G0 Z0.0 F500 ; Pen down
G1 X267 Y90 F2000
G1 X267 Y92 F2000
G1 X268 Y92 F2000
G1 X270 Y94 F2000
G1 X270 Y99 F2000
G1 X269 Y100 F2000
G1 X269 Y103 F2000
G1 X268 Y104 F2000
G1 X268 Y105 F2000
G1 X269 Y106 F2000
G1 X271 Y106 F2000
G1 X272 Y105 F2000
G1 X272 Y103 F2000
G1 X273 Y102 F2000
G1 X273 Y101 F2000
G1 X277 Y97 F2000
G1 X276 Y97 F2000
G1 X273 Y100 F2000
G1 X273 Y101 F2000
G1 X272 Y102 F2000
G1 X272 Y104 F2000
G1 X270 Y106 F2000
G1 X268 Y104 F2000
G1 X269 Y103 F2000
G1 X269 Y100 F2000
G1 X270 Y99 F2000
G1 X270 Y94 F2000
G1 X269 Y93 F2000
G1 X269 Y92 F2000
G1 X268 Y92 F2000
G1 X267 Y91 F2000
G1 X269 Y89 F2000
G1 X270 Y89 F2000
G1 X273 Y92 F2000
G1 X273 Y95 F2000
G1 X274 Y95 F2000
G1 X275 Y94 F2000
G1 X276 Y94 F2000
G1 X277 Y93 F2000
G1 X278 Y93 F2000
G1 X279 Y92 F2000
G1 X281 Y94 F2000
G1 X282 Y94 F2000
G1 X283 Y93 F2000
G1 X284 Y93 F2000
G1 X287 Y90 F2000
G1 X288 Y90 F2000
G1 X290 Y92 F2000
G1 X290 Y99 F2000
G1 X291 Y100 F2000
G1 X291 Y102 F2000
G1 X292 Y103 F2000
G1 X290 Y105 F2000
G1 X288 Y103 F2000
G1 X288 Y102 F2000
G1 X287 Y101 F2000
G1 X287 Y93 F2000
G1 X287 Y101 F2000
G1 X288 Y102 F2000
G1 X288 Y104 F2000
G1 X289 Y105 F2000
G1 X291 Y105 F2000
G1 X292 Y104 F2000
G1 X292 Y103 F2000
G1 X291 Y102 F2000
G1 X291 Y100 F2000
G1 X290 Y99 F2000
G1 X290 Y92 F2000
G1 X289 Y91 F2000
G1 X289 Y90 F2000
G1 X286 Y90 F2000
G1 X282 Y94 F2000
G1 X281 Y93 F2000
G1 X280 Y93 F2000
G1 X279 Y92 F2000
G1 X278 Y93 F2000
G1 X276 Y93 F2000
G1 X274 Y95 F2000
G1 X273 Y94 F2000
G1 X273 Y91 F2000
G1 X271 Y89 F2000
G0 Z2.0 F1000 ; Pen up
G0 X117 Y89 F3000
G0 Z0.0 F500 ; Pen down
G1 X116 Y90 F2000
G1 X116 Y91 F2000
G1 X115 Y92 F2000
G1 X115 Y94 F2000
G1 X114 Y95 F2000
G1 X114 Y96 F2000
G1 X111 Y99 F2000
G1 X111 Y100 F2000
G1 X108 Y103 F2000
G1 X108 Y104 F2000
G1 X107 Y105 F2000
G1 X107 Y106 F2000
G1 X106 Y107 F2000
G1 X106 Y108 F2000
G1 X107 Y107 F2000
G1 X107 Y106 F2000
G1 X108 Y105 F2000
G1 X108 Y104 F2000
G1 X111 Y101 F2000
G1 X111 Y100 F2000
G1 X114 Y97 F2000
G1 X114 Y95 F2000
G1 X115 Y94 F2000
G1 X115 Y93 F2000
G1 X116 Y92 F2000
G1 X116 Y91 F2000
G1 X117 Y90 F2000
G1 X118 Y90 F2000
G1 X119 Y91 F2000
G1 X119 Y94 F2000
G1 X118 Y95 F2000
G1 X118 Y97 F2000
G1 X117 Y98 F2000
G1 X117 Y114 F2000
G1 X116 Y115 F2000
G1 X116 Y122 F2000
G1 X115 Y123 F2000
G1 X115 Y131 F2000
G1 X114 Y132 F2000
G1 X114 Y137 F2000
G1 X112 Y139 F2000
G1 X112 Y140 F2000
G1 X110 Y142 F2000
G1 X109 Y142 F2000
G1 X108 Y143 F2000
G1 X107 Y143 F2000
G1 X106 Y144 F2000
G1 X104 Y144 F2000
G1 X103 Y143 F2000
G1 X102 Y143 F2000
G1 X99 Y140 F2000
G1 X99 Y137 F2000
G1 X102 Y134 F2000
G1 X101 Y134 F2000
G1 X100 Y135 F2000
G1 X100 Y136 F2000
G1 X99 Y137 F2000
G1 X98 Y136 F2000
G1 X99 Y137 F2000
G1 X99 Y140 F2000
G1 X101 Y142 F2000
G1 X101 Y143 F2000
G1 X102 Y143 F2000
G1 X103 Y144 F2000
G1 X106 Y144 F2000
G1 X107 Y143 F2000
G1 X108 Y143 F2000
G1 X109 Y142 F2000
G1 X111 Y142 F2000
G1 X112 Y141 F2000
G1 X112 Y140 F2000
G1 X113 Y139 F2000
G1 X113 Y138 F2000
G1 X114 Y137 F2000
G1 X114 Y132 F2000
G1 X115 Y131 F2000
G1 X115 Y123 F2000
G1 X116 Y122 F2000
G1 X116 Y115 F2000
G1 X117 Y114 F2000
G1 X117 Y98 F2000
G1 X118 Y97 F2000
G1 X118 Y95 F2000
G1 X119 Y94 F2000
G1 X119 Y90 F2000
G1 X118 Y90 F2000
G0 Z2.0 F1000 ; Pen up
G0 X191 Y88 F3000
G0 Z0.0 F500 ; Pen down
G1 X190 Y89 F2000
G1 X190 Y90 F2000
G1 X189 Y91 F2000
G1 X189 Y93 F2000
G1 X188 Y94 F2000
G1 X188 Y96 F2000
G1 X189 Y96 F2000
G1 X190 Y95 F2000
G1 X191 Y95 F2000
G1 X192 Y94 F2000
G1 X192 Y91 F2000
G1 X193 Y90 F2000
G1 X193 Y88 F2000
G1 X192 Y89 F2000
G0 Z2.0 F1000 ; Pen up
G0 X210 Y86 F3000
G0 Z0.0 F500 ; Pen down
G1 X211 Y87 F2000
G1 X211 Y90 F2000
G1 X209 Y92 F2000
G1 X209 Y93 F2000
G1 X206 Y96 F2000
G1 X205 Y96 F2000
G1 X204 Y95 F2000
G1 X204 Y94 F2000
G1 X205 Y93 F2000
G1 X205 Y92 F2000
G1 X208 Y89 F2000
G1 X208 Y88 F2000
G0 Z2.0 F1000 ; Pen up
G0 X192 Y84 F3000
G0 Z0.0 F500 ; Pen down
G1 X194 Y84 F2000
G1 X195 Y85 F2000
G1 X195 Y86 F2000
G1 X196 Y87 F2000
G1 X196 Y91 F2000
G1 X195 Y92 F2000
G1 X195 Y93 F2000
G1 X194 Y94 F2000
G1 X194 Y95 F2000
G1 X191 Y98 F2000
G1 X190 Y98 F2000
G1 X188 Y100 F2000
G1 X186 Y100 F2000
G1 X184 Y98 F2000
G1 X184 Y95 F2000
G1 X185 Y94 F2000
G1 X185 Y93 F2000
G1 X186 Y92 F2000
G1 X186 Y91 F2000
G1 X187 Y90 F2000
G1 X187 Y89 F2000
G0 Z2.0 F1000 ; Pen up
G0 X191 Y84 F3000
G0 Z0.0 F500 ; Pen down
G1 X187 Y88 F2000
G1 X187 Y89 F2000
G1 X186 Y90 F2000
G1 X186 Y92 F2000
G1 X184 Y94 F2000
G1 X184 Y99 F2000
G1 X185 Y100 F2000
G1 X189 Y100 F2000
G1 X191 Y98 F2000
G1 X192 Y98 F2000
G1 X194 Y96 F2000
G1 X194 Y94 F2000
G1 X195 Y93 F2000
G1 X195 Y92 F2000
G1 X196 Y91 F2000
G1 X196 Y87 F2000
G1 X195 Y86 F2000
G1 X195 Y84 F2000
G0 Z2.0 F1000 ; Pen up
G0 X300 Y83 F3000
G0 Z0.0 F500 ; Pen down
G1 X301 Y82 F2000
G1 X302 Y82 F2000
G1 X303 Y83 F2000
G1 X303 Y84 F2000
G1 X302 Y85 F2000
G1 X301 Y85 F2000
G1 X300 Y86 F2000
G1 X291 Y86 F2000
G1 X290 Y87 F2000
G1 X274 Y87 F2000
G1 X273 Y86 F2000
G1 X269 Y86 F2000
G1 X268 Y87 F2000
G1 X256 Y87 F2000
G1 X254 Y85 F2000
G1 X255 Y84 F2000
G1 X262 Y84 F2000
G1 X263 Y83 F2000
G1 X279 Y83 F2000
G1 X280 Y84 F2000
G1 X282 Y84 F2000
G1 X283 Y83 F2000
G1 X284 Y83 F2000
G1 X285 Y84 F2000
G1 X286 Y84 F2000
G1 X287 Y83 F2000
G0 Z2.0 F1000 ; Pen up
G0 X210 Y83 F3000
G0 Z0.0 F500 ; Pen down
G1 X211 Y82 F2000
G1 X212 Y83 F2000
G1 X213 Y83 F2000
G1 X215 Y85 F2000
G1 X215 Y89 F2000
G1 X214 Y90 F2000
G1 X214 Y91 F2000
G1 X213 Y92 F2000
G1 X213 Y101 F2000
G1 X212 Y102 F2000
G1 X212 Y109 F2000
G1 X211 Y110 F2000
G1 X212 Y111 F2000
G1 X211 Y112 F2000
G1 X213 Y110 F2000
G1 X214 Y111 F2000
G1 X215 Y110 F2000
G1 X251 Y110 F2000
G1 X252 Y109 F2000
G1 X253 Y110 F2000
G1 X278 Y110 F2000
G1 X279 Y109 F2000
G1 X350 Y109 F2000
G1 X351 Y110 F2000
G1 X364 Y110 F2000
G1 X365 Y109 F2000
G1 X379 Y109 F2000
G1 X380 Y108 F2000
G1 X386 Y108 F2000
G1 X388 Y110 F2000
G1 X387 Y111 F2000
G1 X384 Y111 F2000
G1 X383 Y112 F2000
G1 X372 Y112 F2000
G1 X371 Y113 F2000
G1 X336 Y113 F2000
G1 X335 Y112 F2000
G1 X286 Y112 F2000
G1 X285 Y113 F2000
G1 X217 Y113 F2000
G1 X216 Y114 F2000
G1 X211 Y114 F2000
G1 X210 Y115 F2000
G1 X209 Y114 F2000
G1 X210 Y115 F2000
G1 X210 Y117 F2000
G1 X209 Y118 F2000
G1 X209 Y119 F2000
G1 X208 Y120 F2000
G1 X208 Y121 F2000
G1 X207 Y122 F2000
G1 X206 Y122 F2000
G1 X205 Y123 F2000
G1 X204 Y123 F2000
G1 X203 Y124 F2000
G1 X202 Y124 F2000
G1 X201 Y123 F2000
G1 X200 Y123 F2000
G1 X198 Y121 F2000
G1 X199 Y120 F2000
G1 X201 Y120 F2000
G1 X202 Y121 F2000
G1 X203 Y120 F2000
G1 X205 Y120 F2000
G1 X205 Y119 F2000
G1 X206 Y118 F2000
G1 X206 Y117 F2000
G1 X207 Y116 F2000
G1 X207 Y114 F2000
G1 X200 Y114 F2000
G1 X199 Y113 F2000
G1 X193 Y113 F2000
G1 X192 Y112 F2000
G1 X164 Y112 F2000
G1 X162 Y110 F2000
G1 X164 Y108 F2000
G1 X165 Y108 F2000
G1 X166 Y109 F2000
G1 X179 Y109 F2000
G1 X180 Y108 F2000
G1 X181 Y109 F2000
G1 X194 Y109 F2000
G1 X195 Y110 F2000
G1 X204 Y110 F2000
G1 X205 Y111 F2000
G1 X207 Y111 F2000
G1 X208 Y110 F2000
G1 X208 Y105 F2000
G1 X209 Y104 F2000
G1 X209 Y101 F2000
G1 X210 Y100 F2000
G1 X209 Y99 F2000
G1 X209 Y96 F2000
G1 X208 Y95 F2000
G1 X209 Y94 F2000
G1 X209 Y93 F2000
G1 X210 Y92 F2000
G1 X210 Y91 F2000
G1 X211 Y90 F2000
G1 X211 Y85 F2000
G1 X205 Y91 F2000
G1 X205 Y93 F2000
G1 X203 Y95 F2000
G1 X204 Y95 F2000
G1 X205 Y96 F2000
G1 X204 Y97 F2000
G1 X205 Y96 F2000
G1 X207 Y96 F2000
G1 X208 Y95 F2000
G1 X209 Y96 F2000
G1 X209 Y97 F2000
G1 X208 Y98 F2000
G1 X207 Y98 F2000
G1 X205 Y100 F2000
G1 X204 Y100 F2000
G1 X203 Y101 F2000
G1 X202 Y100 F2000
G1 X201 Y100 F2000
G1 X200 Y99 F2000
G1 X200 Y95 F2000
G1 X201 Y94 F2000
G1 X201 Y93 F2000
G1 X202 Y92 F2000
G1 X202 Y91 F2000
G1 X205 Y88 F2000
G1 X205 Y87 F2000
G1 X209 Y83 F2000
G0 Z2.0 F1000 ; Pen up
G0 X357 Y81 F3000
G0 Z0.0 F500 ; Pen down
G1 X358 Y81 F2000
G1 X359 Y82 F2000
G1 X359 Y83 F2000
G1 X358 Y84 F2000
G1 X358 Y86 F2000
G1 X355 Y89 F2000
G1 X355 Y90 F2000
G1 X353 Y92 F2000
G1 X352 Y91 F2000
G1 X352 Y87 F2000
G1 X355 Y84 F2000
G1 X355 Y83 F2000
G0 Z2.0 F1000 ; Pen up
G0 X318 Y82 F3000
G0 Z0.0 F500 ; Pen down
G1 X319 Y81 F2000
G1 X321 Y81 F2000
G1 X323 Y83 F2000
G1 X323 Y84 F2000
G1 X322 Y85 F2000
G1 X311 Y85 F2000
G1 X310 Y84 F2000
G1 X312 Y82 F2000
G0 Z2.0 F1000 ; Pen up
G0 X301 Y82 F3000
G0 Z0.0 F500 ; Pen down
G1 X300 Y83 F2000
G1 X287 Y83 F2000
G1 X286 Y84 F2000
G1 X285 Y84 F2000
G1 X284 Y83 F2000
G1 X283 Y83 F2000
G1 X282 Y84 F2000
G1 X280 Y84 F2000
G1 X279 Y83 F2000
G1 X263 Y83 F2000
G1 X262 Y84 F2000
G1 X254 Y84 F2000
G1 X254 Y86 F2000
G1 X255 Y87 F2000
G1 X268 Y87 F2000
G1 X269 Y86 F2000
G1 X273 Y86 F2000
G1 X274 Y87 F2000
G1 X290 Y87 F2000
G1 X291 Y86 F2000
G1 X300 Y86 F2000
G1 X301 Y85 F2000
G1 X303 Y85 F2000
G1 X303 Y82 F2000
G0 Z2.0 F1000 ; Pen up
G0 X211 Y82 F3000
G0 Z0.0 F500 ; Pen down
G1 X210 Y83 F2000
G1 X208 Y83 F2000
G1 X205 Y86 F2000
G1 X205 Y87 F2000
G1 X202 Y90 F2000
G1 X202 Y91 F2000
G1 X201 Y92 F2000
G1 X201 Y93 F2000
G1 X200 Y94 F2000
G1 X200 Y100 F2000
G1 X202 Y100 F2000
G1 X203 Y101 F2000
G1 X204 Y100 F2000
G1 X206 Y100 F2000
G1 X208 Y98 F2000
G1 X210 Y100 F2000
G1 X209 Y101 F2000
G1 X209 Y104 F2000
G1 X208 Y105 F2000
G1 X208 Y109 F2000
G1 X206 Y111 F2000
G1 X205 Y111 F2000
G1 X204 Y110 F2000
G1 X195 Y110 F2000
G1 X194 Y109 F2000
G1 X181 Y109 F2000
G1 X180 Y108 F2000
G1 X179 Y109 F2000
G1 X166 Y109 F2000
G1 X165 Y108 F2000
G1 X164 Y108 F2000
G1 X163 Y109 F2000
G1 X162 Y109 F2000
G1 X162 Y111 F2000
G1 X163 Y111 F2000
G1 X164 Y112 F2000
G1 X192 Y112 F2000
G1 X193 Y113 F2000
G1 X199 Y113 F2000
G1 X200 Y114 F2000
G1 X206 Y114 F2000
G1 X207 Y115 F2000
G1 X207 Y116 F2000
G1 X205 Y118 F2000
G1 X205 Y119 F2000
G1 X204 Y120 F2000
G1 X203 Y120 F2000
G1 X202 Y121 F2000
G1 X201 Y120 F2000
G1 X198 Y120 F2000
G1 X198 Y122 F2000
G1 X199 Y123 F2000
G1 X201 Y123 F2000
G1 X202 Y124 F2000
G1 X203 Y124 F2000
G1 X204 Y123 F2000
G1 X206 Y123 F2000
G1 X209 Y120 F2000
G1 X209 Y119 F2000
G1 X210 Y118 F2000
G1 X210 Y116 F2000
G1 X212 Y114 F2000
G1 X216 Y114 F2000
G1 X217 Y113 F2000
G1 X285 Y113 F2000
G1 X286 Y112 F2000
G1 X335 Y112 F2000
G1 X336 Y113 F2000
G1 X371 Y113 F2000
G1 X372 Y112 F2000
G1 X383 Y112 F2000
G1 X384 Y111 F2000
G1 X388 Y111 F2000
G1 X388 Y109 F2000
G1 X387 Y108 F2000
G1 X380 Y108 F2000
G1 X379 Y109 F2000
G1 X365 Y109 F2000
G1 X364 Y110 F2000
G1 X351 Y110 F2000
G1 X350 Y109 F2000
G1 X279 Y109 F2000
G1 X278 Y110 F2000
G1 X253 Y110 F2000
G1 X252 Y109 F2000
G1 X251 Y110 F2000
G1 X215 Y110 F2000
G1 X214 Y111 F2000
G1 X212 Y109 F2000
G1 X212 Y102 F2000
G1 X213 Y101 F2000
G1 X213 Y92 F2000
G1 X214 Y91 F2000
G1 X214 Y90 F2000
G1 X215 Y89 F2000
G1 X215 Y84 F2000
G1 X213 Y82 F2000
G1 X212 Y83 F2000
G0 Z2.0 F1000 ; Pen up
G0 X356 Y81 F3000
G0 Z0.0 F500 ; Pen down
G1 X355 Y82 F2000
G1 X355 Y83 F2000
G1 X353 Y85 F2000
G1 X353 Y86 F2000
G1 X352 Y87 F2000
G1 X352 Y91 F2000
G1 X353 Y92 F2000
G1 X354 Y91 F2000
G1 X355 Y91 F2000
G1 X355 Y90 F2000
G1 X358 Y87 F2000
G1 X358 Y84 F2000
G1 X359 Y83 F2000
G1 X359 Y81 F2000
G0 Z2.0 F1000 ; Pen up
G0 X319 Y81 F3000
G0 Z0.0 F500 ; Pen down
G1 X318 Y82 F2000
G1 X311 Y82 F2000
G1 X311 Y83 F2000
G1 X310 Y84 F2000
G1 X310 Y85 F2000
G1 X322 Y85 F2000
G1 X323 Y84 F2000
G1 X324 Y84 F2000
G1 X323 Y83 F2000
G1 X324 Y82 F2000
G1 X322 Y82 F2000
G1 X321 Y81 F2000
G0 Z2.0 F1000 ; Pen up
G0 X356 Y78 F3000
G0 Z0.0 F500 ; Pen down
G1 X357 Y77 F2000
G1 X359 Y77 F2000
G1 X362 Y80 F2000
G1 X362 Y87 F2000
G1 X361 Y88 F2000
G1 X362 Y89 F2000
G1 X362 Y90 F2000
G1 X363 Y91 F2000
G1 X366 Y91 F2000
G1 X367 Y92 F2000
G1 X365 Y94 F2000
G1 X361 Y94 F2000
G1 X360 Y93 F2000
G1 X358 Y93 F2000
G1 X357 Y92 F2000
G1 X354 Y95 F2000
G1 X352 Y95 F2000
G1 X351 Y96 F2000
G1 X350 Y95 F2000
G1 X349 Y95 F2000
G1 X348 Y94 F2000
G1 X348 Y88 F2000
G1 X349 Y87 F2000
G1 X349 Y86 F2000
G1 X350 Y85 F2000
G1 X350 Y84 F2000
G1 X352 Y82 F2000
G1 X352 Y81 F2000
G1 X355 Y78 F2000
G0 Z2.0 F1000 ; Pen up
G0 X340 Y78 F3000
G0 Z0.0 F500 ; Pen down
G1 X341 Y77 F2000
G1 X342 Y77 F2000
G1 X344 Y79 F2000
G1 X342 Y81 F2000
G1 X340 Y79 F2000
G0 Z2.0 F1000 ; Pen up
G0 X357 Y77 F3000
G0 Z0.0 F500 ; Pen down
G1 X356 Y78 F2000
G1 X354 Y78 F2000
G1 X352 Y80 F2000
G1 X352 Y81 F2000
G1 X350 Y83 F2000
G1 X350 Y84 F2000
G1 X349 Y85 F2000
G1 X349 Y87 F2000
G1 X348 Y88 F2000
G1 X348 Y95 F2000
G1 X350 Y95 F2000
G1 X351 Y96 F2000
G1 X352 Y95 F2000
G1 X355 Y95 F2000
G1 X357 Y93 F2000
G1 X360 Y93 F2000
G1 X361 Y94 F2000
G1 X366 Y94 F2000
G1 X367 Y93 F2000
G1 X368 Y93 F2000
G1 X367 Y92 F2000
G1 X368 Y91 F2000
G1 X364 Y91 F2000
G1 X361 Y88 F2000
G1 X362 Y87 F2000
G1 X362 Y79 F2000
G1 X361 Y78 F2000
G1 X360 Y78 F2000
G1 X359 Y77 F2000
G0 Z2.0 F1000 ; Pen up
G0 X340 Y74 F3000
G0 Z0.0 F500 ; Pen down
G1 X344 Y74 F2000
G1 X346 Y76 F2000
G1 X346 Y77 F2000
G1 X344 Y79 F2000
G1 X343 Y78 F2000
G1 X343 Y77 F2000
G1 X341 Y77 F2000
G1 X340 Y78 F2000
G1 X340 Y85 F2000
G1 X342 Y87 F2000
G1 X342 Y89 F2000
G1 X343 Y90 F2000
G1 X343 Y91 F2000
G1 X340 Y94 F2000
G1 X335 Y94 F2000
G1 X334 Y93 F2000
G1 X333 Y93 F2000
G1 X331 Y91 F2000
G1 X331 Y90 F2000
G1 X332 Y89 F2000
G1 X333 Y89 F2000
G1 X334 Y90 F2000
G1 X335 Y90 F2000
G1 X336 Y91 F2000
G1 X338 Y91 F2000
G1 X338 Y87 F2000
G1 X337 Y86 F2000
G1 X337 Y84 F2000
G1 X336 Y83 F2000
G1 X336 Y80 F2000
G1 X337 Y79 F2000
G1 X337 Y77 F2000
G0 Z2.0 F1000 ; Pen up
G0 X339 Y74 F3000
G0 Z0.0 F500 ; Pen down
G1 X337 Y76 F2000
G1 X337 Y79 F2000
G1 X336 Y80 F2000
G1 X336 Y83 F2000
G1 X337 Y84 F2000
G1 X337 Y87 F2000
G1 X338 Y88 F2000
G1 X338 Y90 F2000
G1 X337 Y91 F2000
G1 X336 Y91 F2000
G1 X334 Y89 F2000
G1 X331 Y89 F2000
G1 X331 Y90 F2000
G1 X330 Y91 F2000
G1 X332 Y93 F2000
G1 X333 Y93 F2000
G1 X334 Y94 F2000
G1 X340 Y94 F2000
G1 X341 Y93 F2000
G1 X342 Y93 F2000
G1 X343 Y92 F2000
G1 X343 Y90 F2000
G1 X342 Y89 F2000
G1 X342 Y87 F2000
G1 X340 Y85 F2000
G1 X340 Y81 F2000
G1 X341 Y80 F2000
G1 X342 Y81 F2000
G1 X343 Y81 F2000
G1 X346 Y78 F2000
G1 X346 Y76 F2000
G1 X347 Y75 F2000
G1 X346 Y75 F2000
G1 X345 Y74 F2000
G0 Z2.0 F1000 ; Pen up
G0 X176 Y66 F3000
G0 Z0.0 F500 ; Pen down
G1 X177 Y67 F2000
G1 X177 Y68 F2000
G1 X178 Y69 F2000
G1 X178 Y81 F2000
G1 X177 Y82 F2000
G1 X177 Y87 F2000
G1 X176 Y88 F2000
G1 X176 Y89 F2000
G1 X175 Y90 F2000
G1 X175 Y92 F2000
G1 X174 Y93 F2000
G1 X174 Y97 F2000
G1 X173 Y98 F2000
G1 X173 Y100 F2000
G1 X172 Y101 F2000
G1 X172 Y102 F2000
G1 X171 Y103 F2000
G1 X170 Y103 F2000
G1 X169 Y102 F2000
G1 X169 Y100 F2000
G1 X170 Y99 F2000
G1 X170 Y96 F2000
G1 X171 Y95 F2000
G1 X171 Y92 F2000
G1 X172 Y91 F2000
G1 X172 Y89 F2000
G1 X173 Y88 F2000
G1 X173 Y86 F2000
G1 X174 Y85 F2000
G1 X174 Y75 F2000
G1 X175 Y74 F2000
G1 X174 Y73 F2000
G1 X175 Y72 F2000
G1 X174 Y71 F2000
G1 X174 Y68 F2000
G0 Z2.0 F1000 ; Pen up
G0 X170 Y65 F3000
G0 Z0.0 F500 ; Pen down
G1 X171 Y66 F2000
G1 X171 Y67 F2000
G1 X170 Y68 F2000
G1 X169 Y68 F2000
G1 X168 Y67 F2000
G0 Z2.0 F1000 ; Pen up
G0 X170 Y65 F3000
G0 Z0.0 F500 ; Pen down
G1 X171 Y64 F2000
G1 X174 Y64 F2000
G1 X176 Y66 F2000
G1 X174 Y68 F2000
G1 X173 Y67 F2000
G1 X172 Y67 F2000
G0 Z2.0 F1000 ; Pen up
G0 X170 Y64 F3000
G0 Z0.0 F500 ; Pen down
G1 X168 Y66 F2000
G1 X168 Y67 F2000
G1 X169 Y68 F2000
G1 X170 Y68 F2000
G1 X172 Y70 F2000
G1 X171 Y71 F2000
G1 X171 Y72 F2000
G1 X171 Y71 F2000
G1 X172 Y70 F2000
G1 X171 Y69 F2000
G1 X171 Y68 F2000
G1 X172 Y67 F2000
G1 X173 Y67 F2000
G1 X174 Y68 F2000
G1 X174 Y71 F2000
G1 X175 Y72 F2000
G1 X174 Y73 F2000
G1 X175 Y74 F2000
G1 X174 Y75 F2000
G1 X174 Y85 F2000
G1 X173 Y86 F2000
G1 X173 Y88 F2000
G1 X172 Y89 F2000
G1 X172 Y91 F2000
G1 X171 Y92 F2000
G1 X171 Y95 F2000
G1 X170 Y96 F2000
G1 X170 Y99 F2000
G1 X169 Y100 F2000
